; generated by PrusaSlicer 2.2.0+win64 on 2022-03-23 at 15:37:15 UTC

; 

; external perimeters extrusion width = 0.45mm
; perimeters extrusion width = 0.45mm
; infill extrusion width = 0.45mm
; solid infill extrusion width = 0.45mm
; top infill extrusion width = 0.40mm
; first layer extrusion width = 0.42mm

M73 P0 R161
M73 Q0 S164
M201 X1000 Y1000 Z200 E5000 ; sets maximum accelerations, mm/sec^2
M203 X200 Y200 Z12 E120 ; sets maximum feedrates, mm/sec
M204 P1250 R1250 T1250 ; sets acceleration (P, T) and retract acceleration (R), mm/sec^2
M205 X8.00 Y8.00 Z0.40 E4.50 ; sets the jerk limits, mm/sec
M205 S0 T0 ; sets the minimum extruding and travel feed rate, mm/sec
M107
M862.3 P "MK3S" ; printer model check
M862.1 P0.4 ; nozzle diameter check
M115 U3.10.1 ; tell printer latest fw version
G90 ; use absolute coordinates
M83 ; extruder relative mode
M104 S230 ; set extruder temp
M140 S85 ; set bed temp
M190 S85 ; wait for bed temp
M109 S230 ; wait for extruder temp
G28 W ; home all without mesh bed level
G80 ; mesh bed leveling
G1 Y-3.0 F1000.0 ; go outside print area
G92 E0.0
G1 X60.0 E9.0 F1000.0 ; intro line
M73 Q0 S163
M73 P0 R161
G1 X100.0 E12.5 F1000.0 ; intro line
G92 E0.0
M221 S95

; Don't change E values below. Excessive value can damage the printer.

M907 E538 ; set extruder motor current
G21 ; set units to millimeters
G90 ; use absolute coordinates
M83 ; use relative distances for extrusion
M900 K0.08 ; Filament gcode LA 1.5
M900 K45 ; Filament gcode LA 1.0
;BEFORE_LAYER_CHANGE
G92 E0.0
;0.2


G1 E-1.40000 F2100.00000
G1 Z0.200 F10800.000
;AFTER_LAYER_CHANGE
;0.2
G1 Z0.400
G1 X87.541 Y68.604
G1 Z0.200
G1 E1.40000 F2100.00000
M204 S1000
G1 F1200.000
G1 X89.438 Y66.547 E0.08774
G1 X91.643 Y64.830 E0.08762
G1 X94.118 Y63.492 E0.08822
G1 X96.758 Y62.585 E0.08751
G1 X99.529 Y62.122 E0.08810
G1 X102.089 Y62.115 E0.08027
G1 X171.847 Y62.529 E2.18725
G1 X174.546 Y62.986 E0.08582
G1 X177.026 Y63.830 E0.08214
G1 X179.670 Y65.237 E0.09391
G1 X182.020 Y67.100 E0.09403
G1 X183.786 Y69.035 E0.08214
G1 X185.272 Y71.307 E0.08512
G1 X186.441 Y73.962 E0.09095
G1 X187.146 Y76.853 E0.09332
G1 X187.351 Y79.469 E0.08226
G1 X187.140 Y82.072 E0.08190
G1 X186.474 Y84.816 E0.08854
G1 X163.027 Y160.363 E2.48017
G1 X162.768 Y160.978 E0.02092
G1 X162.379 Y161.579 E0.02245
G1 X161.925 Y162.067 E0.02089
G1 X161.189 Y162.598 E0.02847
G1 X160.353 Y162.947 E0.02839
G1 X159.265 Y163.103 E0.03446
G1 X98.614 Y163.103 E1.90167
G1 X65.643 Y162.703 E1.03387
G1 X64.588 Y162.545 E0.03343
G1 X63.753 Y162.195 E0.02841
G1 X62.889 Y161.543 E0.03391
G1 X62.231 Y160.670 E0.03431
G1 X61.895 Y159.879 E0.02692
G1 X61.733 Y158.915 E0.03067
G1 X61.729 Y156.724 E0.06869
G1 X61.879 Y155.750 E0.03091
G1 X84.917 Y73.409 E2.68086
G1 X86.004 Y70.952 E0.08425
G1 X87.508 Y68.654 E0.08610
; printing object body5963 id:0 copy 0
G1 F8640.000
G1 X89.438 Y66.547 E-0.65984
G1 X91.643 Y64.830 E-0.64530
G1 X91.738 Y64.779 E-0.02486
G1 E-0.07000 F2100.00000
G1 Z0.400 F10800.000
G1 X181.165 Y88.050
G1 Z0.200
G1 E1.40000 F2100.00000
G1 F1200.000
G1 X180.938 Y88.195 E0.00843
G1 X180.676 Y88.256 E0.00843
G1 X180.409 Y88.227 E0.00843
G1 X180.167 Y88.111 E0.00843
G1 X180.038 Y88.002 E0.00528
G1 X178.725 Y86.689 E0.05823
G1 X178.623 Y86.569 E0.00495
G1 X178.509 Y86.344 E0.00790
G1 X178.471 Y86.095 E0.00790
G1 X178.482 Y85.969 E0.00396
G1 X178.563 Y85.728 E0.00796
G1 X179.565 Y84.119 E0.05946
G1 X180.229 Y82.476 E0.05556
G1 X180.602 Y80.743 E0.05558
G1 X180.670 Y78.947 E0.05635
G1 X180.440 Y77.217 E0.05472
G1 X179.910 Y75.526 E0.05555
G1 X179.098 Y73.951 E0.05555
G1 X178.029 Y72.538 E0.05555
G1 X176.734 Y71.329 E0.05555
G1 X175.251 Y70.360 E0.05555
G1 X173.624 Y69.658 E0.05555
G1 X171.901 Y69.246 E0.05555
G1 X170.132 Y69.134 E0.05555
G1 X168.371 Y69.327 E0.05555
G1 X166.669 Y69.818 E0.05555
G1 X165.076 Y70.593 E0.05555
G1 X163.639 Y71.630 E0.05555
G1 X162.400 Y72.897 E0.05555
G1 X161.397 Y74.357 E0.05555
G1 X160.658 Y75.968 E0.05555
G1 X160.206 Y77.681 E0.05555
G1 X160.057 Y79.412 E0.05449
G1 X160.057 Y159.108 E2.49879
G1 X160.016 Y159.385 E0.00880
G1 X159.902 Y159.608 E0.00783
G1 X159.726 Y159.784 E0.00783
G1 X159.503 Y159.898 E0.00783
G1 X159.226 Y159.939 E0.00880
G1 X135.158 Y159.939 E0.75464
G1 X134.880 Y159.898 E0.00880
G1 X134.658 Y159.784 E0.00783
G1 X134.562 Y159.703 E0.00393
G1 X134.416 Y159.501 E0.00783
G1 X134.338 Y159.264 E0.00783
G1 X134.338 Y157.109 E0.06756
G1 X134.416 Y156.872 E0.00783
G1 X134.562 Y156.670 E0.00783
G1 X134.764 Y156.523 E0.00783
G1 X135.002 Y156.446 E0.00783
G1 X154.208 Y156.433 E0.60218
G1 X154.548 Y156.407 E0.01072
G1 X154.911 Y156.319 E0.01170
G1 X155.256 Y156.177 E0.01169
G1 X155.574 Y155.982 E0.01170
G1 X155.857 Y155.740 E0.01170
G1 X156.100 Y155.456 E0.01170
G1 X156.295 Y155.138 E0.01170
G1 X156.437 Y154.793 E0.01169
G1 X156.524 Y154.431 E0.01169
G1 X156.551 Y154.090 E0.01072
G1 X156.551 Y79.479 E2.33937
G1 X156.742 Y77.171 E0.07260
G1 X157.303 Y74.959 E0.07157
G1 X158.220 Y72.868 E0.07157
G1 X159.470 Y70.957 E0.07157
G1 X161.016 Y69.279 E0.07157
G1 X162.818 Y67.877 E0.07157
G1 X164.826 Y66.792 E0.07157
G1 X166.986 Y66.052 E0.07157
G1 X169.238 Y65.677 E0.07157
G1 X171.520 Y65.679 E0.07157
G1 X173.772 Y66.057 E0.07157
G1 X175.930 Y66.800 E0.07157
G1 X177.937 Y67.888 E0.07157
G1 X179.737 Y69.292 E0.07157
G1 X181.281 Y70.973 E0.07157
G1 X182.527 Y72.886 E0.07157
G1 X183.442 Y74.977 E0.07157
G1 X183.999 Y77.191 E0.07157
G1 X184.184 Y79.466 E0.07157
G1 X183.992 Y81.741 E0.07157
G1 X183.429 Y83.953 E0.07157
G1 X182.508 Y86.042 E0.07157
G1 X181.205 Y88.006 E0.07389
G1 X181.419 Y88.330 F10800.000
G1 F1200.000
G1 X181.261 Y88.451 E0.00624
G1 X181.085 Y88.543 E0.00624
G1 X180.896 Y88.605 E0.00624
G1 X180.700 Y88.634 E0.00624
G1 X180.501 Y88.629 E0.00624
G1 X180.306 Y88.591 E0.00624
G1 X180.120 Y88.520 E0.00624
G1 X179.948 Y88.420 E0.00624
G1 X179.783 Y88.280 E0.00678
G1 X178.448 Y86.945 E0.05920
G1 X178.316 Y86.791 E0.00635
G1 X178.219 Y86.632 E0.00584
G1 X178.148 Y86.459 E0.00584
G1 X178.106 Y86.278 E0.00584
G1 X178.093 Y86.092 E0.00584
G1 X178.109 Y85.906 E0.00584
G1 X178.154 Y85.726 E0.00584
G1 X178.228 Y85.554 E0.00586
G1 X179.228 Y83.947 E0.05934
G1 X179.867 Y82.365 E0.05352
G1 X180.227 Y80.696 E0.05352
G1 X180.292 Y78.965 E0.05431
G1 X180.071 Y77.299 E0.05270
G1 X179.560 Y75.670 E0.05352
G1 X178.778 Y74.153 E0.05352
G1 X177.748 Y72.792 E0.05352
G1 X176.500 Y71.627 E0.05352
G1 X175.072 Y70.693 E0.05352
G1 X173.504 Y70.017 E0.05352
G1 X171.845 Y69.620 E0.05352
G1 X170.141 Y69.512 E0.05352
G1 X168.444 Y69.698 E0.05352
G1 X166.805 Y70.171 E0.05352
G1 X165.270 Y70.918 E0.05352
G1 X163.886 Y71.917 E0.05352
G1 X162.693 Y73.137 E0.05352
G1 X161.726 Y74.544 E0.05352
G1 X161.015 Y76.095 E0.05352
G1 X160.579 Y77.746 E0.05352
G1 X160.434 Y79.429 E0.05296
G1 X160.434 Y159.123 E2.49875
G1 X160.418 Y159.323 E0.00629
G1 X160.375 Y159.502 E0.00579
G1 X160.305 Y159.673 E0.00579
G1 X160.208 Y159.830 E0.00579
G1 X160.088 Y159.971 E0.00579
G1 X159.948 Y160.090 E0.00579
G1 X159.791 Y160.187 E0.00579
G1 X159.620 Y160.257 E0.00579
G1 X159.441 Y160.301 E0.00579
G1 X159.241 Y160.316 E0.00629
G1 X135.143 Y160.316 E0.75557
G1 X134.943 Y160.301 E0.00629
G1 X134.763 Y160.257 E0.00579
G1 X134.593 Y160.187 E0.00579
G1 X134.435 Y160.090 E0.00579
G1 X134.295 Y159.971 E0.00579
G1 X134.175 Y159.830 E0.00579
G1 X134.079 Y159.673 E0.00579
G1 X134.008 Y159.502 E0.00579
G1 X133.965 Y159.323 E0.00579
G1 X133.949 Y159.123 E0.00629
G1 X133.949 Y157.250 E0.05872
G1 X133.965 Y157.050 E0.00629
G1 X134.008 Y156.870 E0.00579
G1 X134.079 Y156.700 E0.00579
G1 X134.175 Y156.542 E0.00579
G1 X134.295 Y156.402 E0.00579
G1 X134.435 Y156.282 E0.00579
G1 X134.593 Y156.186 E0.00579
G1 X134.763 Y156.115 E0.00579
G1 X134.943 Y156.072 E0.00579
G1 X135.143 Y156.056 E0.00629
G1 X154.193 Y156.056 E0.59730
G1 X154.489 Y156.033 E0.00933
G1 X154.794 Y155.960 E0.00983
G1 X155.084 Y155.840 E0.00983
G1 X155.351 Y155.676 E0.00983
G1 X155.590 Y155.472 E0.00983
G1 X155.794 Y155.234 E0.00983
G1 X155.958 Y154.966 E0.00983
G1 X156.078 Y154.676 E0.00983
G1 X156.151 Y154.371 E0.00983
G1 X156.174 Y154.075 E0.00933
G1 X156.174 Y79.463 E2.33940
G1 X156.369 Y77.109 E0.07407
G1 X156.945 Y74.836 E0.07353
G1 X157.888 Y72.688 E0.07353
G1 X159.171 Y70.725 E0.07353
G1 X160.760 Y69.000 E0.07353
G1 X162.611 Y67.560 E0.07353
G1 X164.675 Y66.445 E0.07353
G1 X166.893 Y65.685 E0.07353
G1 X169.207 Y65.300 E0.07353
G1 X171.552 Y65.302 E0.07353
G1 X173.865 Y65.690 E0.07353
G1 X176.083 Y66.453 E0.07353
G1 X178.144 Y67.572 E0.07353
G1 X179.993 Y69.014 E0.07353
G1 X181.580 Y70.741 E0.07353
G1 X182.860 Y72.706 E0.07353
G1 X183.800 Y74.855 E0.07353
G1 X184.372 Y77.129 E0.07353
G1 X184.563 Y79.467 E0.07353
G1 X184.366 Y81.804 E0.07353
G1 X183.786 Y84.076 E0.07353
G1 X182.841 Y86.223 E0.07353
G1 X181.555 Y88.183 E0.07352
G1 X181.460 Y88.286 E0.00437
G1 X181.228 Y88.274 F10800.000
G1 X180.969 Y88.041
G1 F1200.000
G1 X178.806 Y85.878 E0.09617
G1 X179.009 Y85.546 E0.01223
G1 X181.115 Y87.651 E0.09362
G1 X181.326 Y87.328 E0.01215
G1 X179.215 Y85.217 E0.09391
G1 X179.420 Y84.887 E0.01221
G1 X181.538 Y87.005 E0.09421
G1 X181.750 Y86.682 E0.01215
G1 X179.625 Y84.557 E0.09450
G1 X179.827 Y84.225 E0.01224
G1 X181.962 Y86.359 E0.09493
G1 X182.174 Y86.036 E0.01215
G1 X179.981 Y83.844 E0.09750
G1 X180.135 Y83.463 E0.01292
G1 X182.357 Y85.684 E0.09879
G1 X182.520 Y85.313 E0.01276
G1 X180.289 Y83.082 E0.09922
G1 X180.443 Y82.701 E0.01292
G1 X182.684 Y84.942 E0.09965
G1 X182.847 Y84.571 E0.01276
G1 X180.560 Y82.283 E0.10173
G1 X180.655 Y81.843 E0.01416
G1 X183.011 Y84.199 E0.10479
G1 X183.170 Y83.823 E0.01284
G1 X180.749 Y81.403 E0.10764
G1 X180.844 Y80.963 E0.01416
G1 X183.278 Y83.397 E0.10826
G1 X183.387 Y82.971 E0.01383
G1 X180.895 Y80.479 E0.11082
G1 X180.915 Y79.964 E0.01622
G1 X183.496 Y82.545 E0.11479
G1 X183.604 Y82.118 E0.01383
G1 X180.934 Y79.448 E0.11876
G1 X180.953 Y78.932 E0.01623
G1 X183.713 Y81.692 E0.12273
G1 X183.754 Y81.199 E0.01557
G1 X180.871 Y78.316 E0.12822
G1 X180.790 Y77.699 E0.01956
G1 X183.796 Y80.706 E0.13371
G1 X183.838 Y80.212 E0.01557
G1 X180.688 Y77.063 E0.14005
G1 X180.444 Y76.284 E0.02568
G1 X183.879 Y79.719 E0.15277
G1 X183.901 Y79.466 E0.00799
G1 X183.877 Y79.182 E0.00894
G1 X180.200 Y75.505 E0.16355
G1 X180.173 Y75.418 E0.00285
G1 X179.667 Y74.437 E0.03470
G1 X184.015 Y78.786 E0.19338
M73 Q0 S162
G1 F8640.000
G1 X179.942 Y74.713 E-1.33000
G1 E-0.07000 F2100.00000
G1 Z0.400 F10800.000
G1 X181.388 Y71.344
G1 Z0.200
G1 E1.40000 F2100.00000
M73 P0 R160
G1 F1200.000
G1 X179.544 Y69.500 E0.08201
G1 X177.781 Y68.126 E0.07028
G1 X177.460 Y67.951 E0.01150
G1 X181.807 Y72.298 E0.19332
G1 X182.278 Y73.021 E0.02712
G1 X182.497 Y73.524 E0.01726
G1 X176.291 Y67.317 E0.27602
G1 X175.816 Y67.060 E0.01699
G1 X175.332 Y66.893 E0.01610
G1 X182.913 Y74.474 E0.33715
G1 X183.173 Y75.069 E0.02043
G1 X183.240 Y75.336 E0.00866
G1 X174.516 Y66.612 E0.38799
G1 X173.701 Y66.332 E0.02712
G1 X183.420 Y76.051 E0.43226
G1 X183.600 Y76.766 E0.02318
G1 X173.058 Y66.224 E0.46884
G1 X172.416 Y66.116 E0.02049
G1 X183.735 Y77.436 E0.50342
G1 X183.783 Y78.018 E0.01837
G1 X171.773 Y66.008 E0.53411
G1 X171.497 Y65.962 E0.00880
G1 X171.192 Y65.962 E0.00960
G1 X175.305 Y70.075 E0.18293
G1 X174.365 Y69.670 E0.03219
G1 X170.656 Y65.961 E0.16492
G1 X170.121 Y65.961 E0.01683
G1 X173.497 Y69.337 E0.15015
G1 X172.794 Y69.169 E0.02274
G1 X169.586 Y65.961 E0.14268
G1 X169.261 Y65.960 E0.01022
G1 X169.081 Y65.990 E0.00575
G1 X172.091 Y69.000 E0.13387
G1 X171.943 Y68.965 E0.00478
G1 X171.492 Y68.936 E0.01421
G1 X168.622 Y66.066 E0.12764
G1 X168.163 Y66.143 E0.01462
G1 X170.921 Y68.900 E0.12265
G1 X170.350 Y68.864 E0.01799
G1 X167.705 Y66.219 E0.11765
G1 X167.246 Y66.295 E0.01462
G1 X169.833 Y68.882 E0.11506
G1 X169.351 Y68.935 E0.01525
G1 X166.823 Y66.407 E0.11245
G1 X166.424 Y66.543 E0.01324
G1 X168.869 Y68.988 E0.10872
G1 X168.387 Y69.040 E0.01525
G1 X166.026 Y66.680 E0.10499
G1 X165.628 Y66.816 E0.01324
G1 X167.962 Y69.150 E0.10381
G1 X167.547 Y69.270 E0.01359
G1 X165.229 Y66.953 E0.10307
G1 X164.940 Y67.052 E0.00961
G1 X164.845 Y67.103 E0.00340
G1 X167.132 Y69.390 E0.10170
G1 X166.717 Y69.510 E0.01359
G1 X164.498 Y67.291 E0.09868
G1 X164.151 Y67.478 E0.01241
G1 X166.337 Y69.665 E0.09723
G1 X165.977 Y69.840 E0.01258
G1 X163.804 Y67.666 E0.09667
G1 X163.456 Y67.854 E0.01241
G1 X165.618 Y70.015 E0.09611
G1 X165.258 Y70.190 E0.01258
G1 X163.109 Y68.041 E0.09555
G1 X162.973 Y68.115 E0.00486
G1 X162.790 Y68.257 E0.00730
G1 X164.902 Y70.369 E0.09394
G1 X164.592 Y70.594 E0.01205
G1 X162.489 Y68.491 E0.09350
G1 X162.188 Y68.725 E0.01199
G1 X164.281 Y70.818 E0.09306
G1 X163.970 Y71.042 E0.01205
G1 X161.888 Y68.959 E0.09262
G1 X161.587 Y69.193 E0.01199
G1 X163.659 Y71.266 E0.09218
G1 X163.453 Y71.415 E0.00799
G1 X163.364 Y71.506 E0.00401
G1 X161.286 Y69.427 E0.09244
G1 X161.018 Y69.694 E0.01189
G1 X163.100 Y71.776 E0.09260
G1 X162.836 Y72.047 E0.01189
G1 X160.761 Y69.972 E0.09225
G1 X160.505 Y70.251 E0.01190
G1 X162.571 Y72.317 E0.09189
G1 X162.307 Y72.588 E0.01189
G1 X160.249 Y70.529 E0.09154
G1 X159.992 Y70.808 E0.01190
G1 X162.067 Y72.883 E0.09227
G1 X161.849 Y73.200 E0.01210
G1 X159.736 Y71.086 E0.09399
G1 X159.517 Y71.402 E0.01209
G1 X161.631 Y73.517 E0.09404
G1 X161.414 Y73.834 E0.01210
G1 X159.305 Y71.725 E0.09376
G1 X159.094 Y72.049 E0.01215
G1 X161.196 Y74.151 E0.09347
G1 X161.017 Y74.507 E0.01253
G1 X158.883 Y72.372 E0.09493
G1 X158.671 Y72.696 E0.01215
G1 X160.849 Y74.874 E0.09686
G1 X160.681 Y75.240 E0.01269
G1 X158.462 Y73.022 E0.09868
G1 X158.299 Y73.393 E0.01277
G1 X160.513 Y75.607 E0.09845
G1 X160.391 Y75.872 E0.00917
G1 X160.360 Y75.989 E0.00381
G1 X158.136 Y73.765 E0.09893
G1 X157.973 Y74.137 E0.01277
G1 X160.249 Y76.413 E0.10121
G1 X160.137 Y76.836 E0.01376
G1 X157.809 Y74.508 E0.10350
G1 X157.646 Y74.880 E0.01277
G1 X160.025 Y77.259 E0.10579
G1 X159.922 Y77.690 E0.01395
G1 X157.513 Y75.282 E0.10712
G1 X157.405 Y75.708 E0.01384
G1 X159.879 Y78.183 E0.11004
G1 X159.837 Y78.675 E0.01554
G1 X157.297 Y76.135 E0.11296
G1 X157.189 Y76.562 E0.01384
G1 X159.794 Y79.167 E0.11588
G1 X159.774 Y79.682 E0.01620
G1 X157.081 Y76.989 E0.11980
G1 X157.022 Y77.218 E0.00745
G1 X157.003 Y77.446 E0.00720
G1 X159.774 Y80.217 E0.12322
G1 X159.774 Y80.752 E0.01682
G1 X156.963 Y77.940 E0.12505
G1 X156.922 Y78.434 E0.01559
G1 X159.774 Y81.287 E0.12687
G1 X159.774 Y81.822 E0.01682
G1 X156.881 Y78.928 E0.12869
G1 X156.840 Y79.422 E0.01559
G1 X159.774 Y82.356 E0.13051
G1 X159.774 Y82.891 E0.01682
G1 X156.834 Y79.951 E0.13076
G1 X156.834 Y80.486 E0.01682
G1 X159.774 Y83.426 E0.13076
G1 X159.774 Y83.961 E0.01682
G1 X156.834 Y81.021 E0.13076
G1 X156.834 Y81.556 E0.01682
G1 X159.774 Y84.496 E0.13076
G1 X159.774 Y85.031 E0.01682
G1 X156.834 Y82.090 E0.13076
G1 X156.834 Y82.625 E0.01682
G1 X159.774 Y85.566 E0.13076
G1 X159.774 Y86.100 E0.01682
G1 X156.834 Y83.160 E0.13076
G1 X156.834 Y83.695 E0.01682
G1 X159.774 Y86.635 E0.13076
G1 X159.774 Y87.170 E0.01682
G1 X156.834 Y84.230 E0.13076
G1 X156.834 Y84.765 E0.01682
G1 X159.774 Y87.705 E0.13076
G1 X159.774 Y88.240 E0.01682
G1 X156.834 Y85.300 E0.13076
G1 X156.834 Y85.834 E0.01682
G1 X159.774 Y88.775 E0.13076
G1 X159.774 Y89.310 E0.01682
G1 X156.834 Y86.369 E0.13076
G1 X156.834 Y86.904 E0.01682
G1 X159.774 Y89.844 E0.13076
G1 X159.774 Y90.379 E0.01682
G1 X156.834 Y87.439 E0.13076
G1 X156.834 Y87.974 E0.01682
G1 X159.774 Y90.914 E0.13076
G1 X159.774 Y91.449 E0.01682
G1 X156.834 Y88.509 E0.13076
G1 X156.834 Y89.044 E0.01682
G1 X159.774 Y91.984 E0.13076
G1 X159.774 Y92.519 E0.01682
G1 X156.834 Y89.578 E0.13076
G1 X156.834 Y90.113 E0.01682
G1 X159.774 Y93.053 E0.13076
G1 X159.774 Y93.588 E0.01682
G1 X156.834 Y90.648 E0.13076
G1 X156.834 Y91.183 E0.01682
G1 X159.774 Y94.123 E0.13076
G1 X159.774 Y94.658 E0.01682
G1 X156.834 Y91.718 E0.13076
G1 X156.834 Y92.253 E0.01682
G1 X159.774 Y95.193 E0.13076
G1 X159.774 Y95.728 E0.01682
G1 X156.834 Y92.787 E0.13076
G1 X156.834 Y93.322 E0.01682
G1 X159.774 Y96.263 E0.13076
G1 X159.774 Y96.797 E0.01682
G1 X156.834 Y93.857 E0.13076
G1 X156.834 Y94.392 E0.01682
G1 X159.774 Y97.332 E0.13076
