; generated by PrusaSlicer 2.2.0+win64 on 2022-05-05 at 20:47:48 UTC

; 

; external perimeters extrusion width = 0.45mm
; perimeters extrusion width = 0.45mm
; infill extrusion width = 0.45mm
; solid infill extrusion width = 0.45mm
; top infill extrusion width = 0.40mm
; support material extrusion width = 0.35mm
; first layer extrusion width = 0.42mm

M73 P0 R7
M73 Q0 S7
M201 X1000 Y1000 Z200 E5000 ; sets maximum accelerations, mm/sec^2
M203 X200 Y200 Z12 E120 ; sets maximum feedrates, mm/sec
M204 P1250 R1250 T1250 ; sets acceleration (P, T) and retract acceleration (R), mm/sec^2
M205 X8.00 Y8.00 Z0.40 E4.50 ; sets the jerk limits, mm/sec
M205 S0 T0 ; sets the minimum extruding and travel feed rate, mm/sec
M107
M862.3 P "MK3S" ; printer model check
M862.1 P0.4 ; nozzle diameter check
M115 U3.11.0 ; tell printer latest fw version
G90 ; use absolute coordinates
M83 ; extruder relative mode
M104 S215 ; set extruder temp
M140 S60 ; set bed temp
M190 S60 ; wait for bed temp
M109 S215 ; wait for extruder temp
G28 W ; home all without mesh bed level
G80 ; mesh bed leveling
G1 Y-3.0 F1000.0 ; go outside print area
G92 E0.0
G1 X60.0 E9.0 F1000.0 ; intro line
M73 Q0 S7
M73 P0 R7
G1 X100.0 E12.5 F1000.0 ; intro line
G92 E0.0
M221 S95

; Don't change E values below. Excessive value can damage the printer.

M907 E538 ; set extruder motor current
G21 ; set units to millimeters
G90 ; use absolute coordinates
M83 ; use relative distances for extrusion
M900 K0.05 ; Filament gcode LA 1.5
M900 K30 ; Filament gcode LA 1.0
;BEFORE_LAYER_CHANGE
G92 E0.0
;0.2


G1 E-0.80000 F2100.00000
G1 Z0.400 F10800.000
;AFTER_LAYER_CHANGE
;0.2
G1 X112.889 Y99.320
G1 Z0.200
G1 E0.80000 F2100.00000
M204 S1000
G1 F1200.000
G1 X113.831 Y98.306 E0.04340
G1 X114.783 Y97.543 E0.03828
G1 X115.613 Y97.022 E0.03071
G1 X116.494 Y96.602 E0.03058
G1 X117.699 Y96.192 E0.03994
G1 X118.797 Y95.976 E0.03508
G1 X119.979 Y95.896 E0.03713
G1 X130.004 Y95.896 E0.31434
G1 X131.173 Y95.972 E0.03672
G1 X132.430 Y96.230 E0.04025
G1 X133.355 Y96.536 E0.03053
G1 X134.250 Y96.952 E0.03096
G1 X135.334 Y97.622 E0.03995
G1 X136.249 Y98.380 E0.03726
G1 X137.105 Y99.312 E0.03969
G1 X137.775 Y100.271 E0.03666
G1 X138.239 Y101.127 E0.03053
G1 X138.604 Y102.035 E0.03071
G1 X138.937 Y103.265 E0.03995
G1 X139.086 Y104.427 E0.03674
G1 X139.084 Y105.599 E0.03675
G1 X138.908 Y106.865 E0.04007
G1 X138.659 Y107.813 E0.03071
G1 X138.305 Y108.721 E0.03058
G1 X137.757 Y109.762 E0.03686
G1 X137.021 Y110.796 E0.03982
G1 X136.169 Y111.694 E0.03879
G1 X135.217 Y112.457 E0.03828
G1 X134.387 Y112.978 E0.03071
G1 X133.506 Y113.398 E0.03058
G1 X132.301 Y113.808 E0.03994
G1 X131.199 Y114.024 E0.03521
G1 X130.017 Y114.104 E0.03713
G1 X119.902 Y114.102 E0.31717
G1 X118.848 Y114.031 E0.03313
G1 X117.745 Y113.820 E0.03521
G1 X116.668 Y113.473 E0.03546
G1 X115.764 Y113.055 E0.03122
G1 X114.545 Y112.286 E0.04519
G1 X113.765 Y111.634 E0.03187
G1 X113.042 Y110.869 E0.03302
G1 X112.234 Y109.745 E0.04340
G1 X111.756 Y108.862 E0.03148
G1 X111.346 Y107.826 E0.03495
G1 X111.030 Y106.535 E0.04166
G1 X110.913 Y105.552 E0.03104
G1 X110.914 Y104.429 E0.03521
G1 X111.053 Y103.315 E0.03521
G1 X111.293 Y102.353 E0.03109
G1 X111.767 Y101.113 E0.04161
G1 X112.304 Y100.136 E0.03495
G1 X112.854 Y99.369 E0.02960
G1 X113.160 Y99.589 F10800.000
G1 F1200.000
G1 X114.105 Y98.568 E0.04362
G1 X114.989 Y97.859 E0.03554
G1 X115.795 Y97.353 E0.02983
G1 X116.657 Y96.942 E0.02995
G1 X117.803 Y96.554 E0.03793
G1 X118.864 Y96.347 E0.03389
G1 X119.984 Y96.273 E0.03520
G1 X130.004 Y96.273 E0.31416
G1 X131.119 Y96.345 E0.03505
G1 X132.314 Y96.589 E0.03822
G1 X133.215 Y96.887 E0.02978
G1 X134.085 Y97.291 E0.03007
G1 X135.117 Y97.930 E0.03805
G1 X135.987 Y98.651 E0.03544
G1 X136.804 Y99.539 E0.03781
G1 X137.445 Y100.452 E0.03500
G1 X137.898 Y101.287 E0.02978
G1 X138.255 Y102.177 E0.03007
G1 X138.569 Y103.345 E0.03793
G1 X138.710 Y104.455 E0.03508
G1 X138.708 Y105.570 E0.03496
G1 X138.541 Y106.776 E0.03817
G1 X138.300 Y107.696 E0.02983
G1 X137.954 Y108.582 E0.02983
G1 X137.428 Y109.578 E0.03531
G1 X136.725 Y110.562 E0.03793
G1 X135.895 Y111.432 E0.03769
G1 X135.011 Y112.141 E0.03554
G1 X134.205 Y112.647 E0.02983
G1 X133.343 Y113.058 E0.02995
G1 X132.197 Y113.446 E0.03793
G1 X131.132 Y113.653 E0.03400
G1 X130.016 Y113.727 E0.03508
G1 X119.912 Y113.725 E0.31679
G1 X118.896 Y113.657 E0.03195
G1 X117.834 Y113.454 E0.03389
G1 X116.802 Y113.120 E0.03401
G1 X115.922 Y112.712 E0.03042
G1 X114.774 Y111.987 E0.04257
G1 X114.021 Y111.357 E0.03078
G1 X113.303 Y110.595 E0.03281
G1 X112.558 Y109.552 E0.04019
G1 X112.097 Y108.703 E0.03030
G1 X111.701 Y107.701 E0.03377
G1 X111.431 Y106.651 E0.03401
G1 X111.304 Y105.697 E0.03018
G1 X111.291 Y104.441 E0.03936
G1 X111.425 Y103.380 E0.03353
G1 X111.659 Y102.443 E0.03030
G1 X112.110 Y101.271 E0.03936
G1 X112.625 Y100.334 E0.03353
G1 X113.125 Y99.638 E0.02688
; printing object body129045 id:0 copy 0
G1 F8640.000
G1 X114.105 Y98.568 E-0.33499
G1 X114.989 Y97.859 E-0.26176
G1 X115.588 Y97.483 E-0.16325
G1 E-0.04000 F2100.00000
G1 Z0.600 F10800.000
G1 X127.715 Y104.300
G1 Z0.200
G1 E0.80000 F2100.00000
G1 F1200.000
G1 X127.866 Y103.924 E0.01271
G1 X128.079 Y103.579 E0.01271
G1 X128.346 Y103.275 E0.01271
G1 X128.662 Y103.020 E0.01271
G1 X129.016 Y102.822 E0.01271
G1 X129.409 Y102.683 E0.01309
G1 X129.958 Y102.612 E0.01734
G1 X130.217 Y102.621 E0.00814
G1 X130.602 Y102.687 E0.01225
G1 X130.984 Y102.822 E0.01271
G1 X131.338 Y103.020 E0.01271
G1 X131.654 Y103.275 E0.01271
G1 X131.921 Y103.579 E0.01271
G1 X132.134 Y103.924 E0.01271
G1 X132.273 Y104.269 E0.01165
G1 X132.370 Y104.692 E0.01362
G1 X132.388 Y105.101 E0.01285
G1 X132.336 Y105.504 E0.01271
G1 X132.218 Y105.891 E0.01271
G1 X132.035 Y106.253 E0.01271
G1 X131.794 Y106.579 E0.01271
G1 X131.501 Y106.859 E0.01271
G1 X131.166 Y107.086 E0.01271
G1 X130.796 Y107.253 E0.01271
G1 X130.404 Y107.356 E0.01271
G1 X130.000 Y107.390 E0.01271
G1 X129.596 Y107.356 E0.01271
G1 X129.204 Y107.253 E0.01271
G1 X128.865 Y107.100 E0.01165
G1 X128.502 Y106.862 E0.01362
G1 X128.206 Y106.579 E0.01285
G1 X127.965 Y106.253 E0.01271
G1 X127.782 Y105.891 E0.01271
G1 X127.664 Y105.504 E0.01271
G1 X127.612 Y105.101 E0.01271
G1 X127.629 Y104.696 E0.01271
G1 X127.702 Y104.359 E0.01083
G1 X128.071 Y104.438 F10800.000
G1 F1200.000
G1 X128.204 Y104.094 E0.01156
G1 X128.383 Y103.804 E0.01070
G1 X128.608 Y103.548 E0.01070
G1 X128.874 Y103.333 E0.01070
G1 X129.171 Y103.167 E0.01070
G1 X129.497 Y103.052 E0.01083
G1 X129.975 Y102.990 E0.01512
G1 X130.178 Y102.997 E0.00637
G1 X130.507 Y103.053 E0.01045
G1 X130.829 Y103.167 E0.01070
G1 X131.126 Y103.333 E0.01070
G1 X131.392 Y103.548 E0.01070
G1 X131.617 Y103.804 E0.01070
G1 X131.796 Y104.094 E0.01070
G1 X131.912 Y104.382 E0.00973
G1 X131.995 Y104.743 E0.01161
G1 X132.010 Y105.085 E0.01075
G1 X131.966 Y105.424 E0.01070
G1 X131.866 Y105.750 E0.01070
G1 X131.713 Y106.055 E0.01070
G1 X131.510 Y106.329 E0.01070
G1 X131.264 Y106.565 E0.01070
G1 X130.981 Y106.756 E0.01070
G1 X130.670 Y106.897 E0.01070
G1 X130.340 Y106.983 E0.01070
G1 X130.000 Y107.011 E0.01070
G1 X129.660 Y106.983 E0.01070
G1 X129.330 Y106.897 E0.01070
G1 X129.047 Y106.769 E0.00973
G1 X128.737 Y106.566 E0.01161
G1 X128.490 Y106.329 E0.01075
G1 X128.287 Y106.055 E0.01070
G1 X128.134 Y105.750 E0.01070
G1 X128.034 Y105.424 E0.01070
G1 X127.990 Y105.085 E0.01070
G1 X128.005 Y104.745 E0.01070
G1 X128.058 Y104.497 E0.00794
G1 X127.817 Y104.171 F10800.000
G1 F8640.000
G1 X128.204 Y104.094 E-0.09884
G1 X128.383 Y103.804 E-0.07878
G1 X128.608 Y103.548 E-0.07878
G1 X128.874 Y103.333 E-0.07878
G1 X129.171 Y103.167 E-0.07878
G1 X129.497 Y103.052 E-0.07978
G1 X129.975 Y102.990 E-0.11135
G1 X130.178 Y102.997 E-0.04690
G1 X130.507 Y103.053 E-0.07693
G1 X130.634 Y103.098 E-0.03109
G1 E-0.04000 F2100.00000
G1 Z0.600 F10800.000
G1 X122.372 Y104.738
G1 Z0.200
G1 E0.80000 F2100.00000
G1 F1200.000
G1 X122.388 Y105.101 E0.01139
G1 X122.336 Y105.504 E0.01271
G1 X122.218 Y105.891 E0.01271
G1 X122.035 Y106.253 E0.01271
G1 X121.794 Y106.579 E0.01271
G1 X121.501 Y106.859 E0.01271
G1 X121.166 Y107.086 E0.01271
G1 X120.796 Y107.253 E0.01271
G1 X120.404 Y107.356 E0.01271
G1 X120.000 Y107.390 E0.01271
G1 X119.596 Y107.356 E0.01271
G1 X119.204 Y107.253 E0.01271
G1 X118.865 Y107.100 E0.01165
G1 X118.502 Y106.862 E0.01362
G1 X118.206 Y106.579 E0.01285
G1 X117.965 Y106.253 E0.01271
G1 X117.782 Y105.891 E0.01271
G1 X117.664 Y105.504 E0.01271
G1 X117.612 Y105.101 E0.01271
G1 X117.629 Y104.696 E0.01271
G1 X117.715 Y104.300 E0.01271
G1 X117.866 Y103.924 E0.01271
G1 X118.061 Y103.608 E0.01165
G1 X118.343 Y103.277 E0.01362
G1 X118.662 Y103.020 E0.01285
G1 X119.016 Y102.822 E0.01271
G1 X119.398 Y102.687 E0.01271
G1 X119.781 Y102.622 E0.01218
G1 X120.218 Y102.621 E0.01370
G1 X120.602 Y102.687 E0.01223
G1 X120.984 Y102.822 E0.01271
G1 X121.338 Y103.020 E0.01271
G1 X121.654 Y103.275 E0.01271
G1 X121.921 Y103.579 E0.01271
G1 X122.134 Y103.924 E0.01271
G1 X122.273 Y104.269 E0.01165
G1 X122.367 Y104.679 E0.01319
G1 X121.995 Y104.743 F10800.000
G1 F1200.000
G1 X122.010 Y105.085 E0.01075
G1 X121.966 Y105.424 E0.01070
G1 X121.866 Y105.750 E0.01070
G1 X121.713 Y106.055 E0.01070
G1 X121.510 Y106.329 E0.01070
G1 X121.264 Y106.565 E0.01070
G1 X120.981 Y106.756 E0.01070
G1 X120.670 Y106.897 E0.01070
G1 X120.340 Y106.983 E0.01070
G1 X120.000 Y107.011 E0.01070
G1 X119.660 Y106.983 E0.01070
G1 X119.330 Y106.897 E0.01070
G1 X119.047 Y106.769 E0.00973
G1 X118.737 Y106.566 E0.01161
G1 X118.490 Y106.329 E0.01075
G1 X118.287 Y106.055 E0.01070
G1 X118.134 Y105.750 E0.01070
G1 X118.034 Y105.424 E0.01070
G1 X117.990 Y105.085 E0.01070
G1 X118.005 Y104.745 E0.01070
G1 X118.077 Y104.411 E0.01070
G1 X118.204 Y104.094 E0.01070
G1 X118.367 Y103.830 E0.00973
G1 X118.607 Y103.549 E0.01161
G1 X118.874 Y103.333 E0.01075
G1 X119.171 Y103.167 E0.01070
G1 X119.493 Y103.053 E0.01070
G1 X119.821 Y102.997 E0.01042
G1 X120.179 Y102.997 E0.01122
G1 X120.507 Y103.053 E0.01044
G1 X120.829 Y103.167 E0.01070
G1 X121.126 Y103.333 E0.01070
G1 X121.392 Y103.548 E0.01070
G1 X121.617 Y103.804 E0.01070
G1 X121.796 Y104.094 E0.01070
G1 X121.912 Y104.382 E0.00973
G1 X121.982 Y104.684 E0.00972
G1 X122.311 Y104.875 F10800.000
G1 F8640.000
G1 X122.010 Y105.085 E-0.09279
G1 X121.966 Y105.424 E-0.07878
G1 X121.866 Y105.750 E-0.07878
G1 X121.713 Y106.055 E-0.07878
G1 X121.510 Y106.329 E-0.07878
G1 X121.264 Y106.565 E-0.07878
G1 X120.981 Y106.756 E-0.07878
G1 X120.670 Y106.897 E-0.07878
G1 X120.340 Y106.983 E-0.07878
G1 X120.180 Y106.996 E-0.03699
G1 E-0.04000 F2100.00000
G1 Z0.600 F10800.000
G1 X121.982 Y99.437
G1 Z0.200
G1 E0.80000 F2100.00000
G1 F1200.000
G1 X129.975 Y99.437 E0.25064
G1 X130.697 Y99.482 E0.02267
G1 X131.383 Y99.613 E0.02190
G1 X132.047 Y99.829 E0.02190
G1 X132.679 Y100.127 E0.02190
G1 X133.269 Y100.501 E0.02190
G1 X133.807 Y100.946 E0.02190
G1 X134.285 Y101.455 E0.02190
G1 X134.696 Y102.020 E0.02190
G1 X135.032 Y102.632 E0.02190
G1 X135.289 Y103.281 E0.02190
G1 X135.463 Y103.958 E0.02190
G1 X135.550 Y104.651 E0.02190
G1 X135.550 Y105.349 E0.02190
G1 X135.463 Y106.042 E0.02190
G1 X135.289 Y106.719 E0.02190
G1 X135.032 Y107.368 E0.02190
G1 X134.696 Y107.980 E0.02190
G1 X134.285 Y108.545 E0.02190
G1 X133.807 Y109.054 E0.02190
G1 X133.269 Y109.499 E0.02190
G1 X132.679 Y109.873 E0.02190
G1 X132.047 Y110.171 E0.02190
G1 X131.383 Y110.387 E0.02190
G1 X130.697 Y110.518 E0.02190
G1 X129.975 Y110.563 E0.02267
G1 X120.025 Y110.563 E0.31199
G1 X119.303 Y110.518 E0.02267
G1 X118.617 Y110.387 E0.02190
G1 X117.953 Y110.171 E0.02190
G1 X117.321 Y109.873 E0.02190
G1 X116.731 Y109.499 E0.02190
G1 X116.193 Y109.054 E0.02190
G1 X115.715 Y108.545 E0.02190
G1 X115.304 Y107.980 E0.02190
G1 X114.968 Y107.368 E0.02190
G1 X114.711 Y106.719 E0.02190
G1 X114.537 Y106.042 E0.02190
G1 X114.450 Y105.349 E0.02190
G1 X114.450 Y104.651 E0.02190
G1 X114.537 Y103.958 E0.02190
G1 X114.711 Y103.281 E0.02190
G1 X114.968 Y102.632 E0.02190
G1 X115.304 Y102.020 E0.02190
G1 X115.715 Y101.455 E0.02190
G1 X116.193 Y100.946 E0.02190
G1 X116.731 Y100.501 E0.02190
G1 X117.321 Y100.127 E0.02190
G1 X117.953 Y99.829 E0.02190
G1 X118.617 Y99.613 E0.02190
G1 X119.303 Y99.482 E0.02190
G1 X120.025 Y99.437 E0.02267
G1 X121.922 Y99.437 E0.05948
G1 X121.922 Y99.060 F10800.000
G1 F1200.000
G1 X129.987 Y99.060 E0.25289
G1 X130.744 Y99.108 E0.02379
G1 X131.477 Y99.247 E0.02339
G1 X132.186 Y99.478 E0.02339
G1 X132.861 Y99.795 E0.02339
G1 X133.491 Y100.195 E0.02339
G1 X134.066 Y100.671 E0.02339
G1 X134.576 Y101.214 E0.02339
G1 X135.015 Y101.818 E0.02339
G1 X135.374 Y102.471 E0.02339
G1 X135.649 Y103.165 E0.02339
G1 X135.834 Y103.887 E0.02339
G1 X135.927 Y104.627 E0.02339
G1 X135.927 Y105.373 E0.02339
G1 X135.834 Y106.113 E0.02339
G1 X135.649 Y106.835 E0.02339
G1 X135.374 Y107.529 E0.02339
G1 X135.015 Y108.182 E0.02339
G1 X134.576 Y108.786 E0.02339
G1 X134.066 Y109.329 E0.02339
G1 X133.491 Y109.805 E0.02339
G1 X132.861 Y110.205 E0.02339
G1 X132.186 Y110.522 E0.02339
G1 X131.477 Y110.753 E0.02339
G1 X130.744 Y110.892 E0.02339
G1 X129.987 Y110.940 E0.02379
G1 X120.013 Y110.940 E0.31273
G1 X119.256 Y110.892 E0.02379
G1 X118.523 Y110.753 E0.02339
G1 X117.814 Y110.522 E0.02339
G1 X117.139 Y110.205 E0.02339
G1 X116.509 Y109.805 E0.02339
G1 X115.934 Y109.329 E0.02339
G1 X115.424 Y108.786 E0.02339
G1 X114.985 Y108.182 E0.02339
G1 X114.626 Y107.529 E0.02339
G1 X114.351 Y106.835 E0.02339
G1 X114.166 Y106.113 E0.02339
G1 X114.073 Y105.373 E0.02339
G1 X114.073 Y104.627 E0.02339
G1 X114.166 Y103.887 E0.02339
G1 X114.351 Y103.165 E0.02339
G1 X114.626 Y102.471 E0.02339
G1 X114.985 Y101.818 E0.02339
G1 X115.424 Y101.214 E0.02339
G1 X115.934 Y100.671 E0.02339
G1 X116.509 Y100.195 E0.02339
G1 X117.139 Y99.795 E0.02339
G1 X117.814 Y99.478 E0.02339
G1 X118.523 Y99.247 E0.02339
G1 X119.256 Y99.108 E0.02339
G1 X120.013 Y99.060 E0.02379
G1 X121.862 Y99.060 E0.05797
G1 X122.124 Y99.405 F10800.000
G1 F8640.000
G1 X125.153 Y99.060 E-0.76000
G1 E-0.04000 F2100.00000
G1 Z0.600 F10800.000
G1 X127.674 Y99.550
G1 Z0.200
G1 E0.80000 F2100.00000
G1 F1200.000
G1 X130.508 Y102.384 E0.12762
G1 X130.246 Y102.339 E0.00846
G1 X129.915 Y102.332 E0.01055
G1 X127.302 Y99.720 E0.11765
G1 X126.761 Y99.720 E0.01725
G1 X129.435 Y102.395 E0.12045
G1 X129.343 Y102.407 E0.00296
G1 X129.020 Y102.521 E0.01092
G1 X126.219 Y99.720 E0.12614
G1 X125.677 Y99.720 E0.01725
G1 X128.656 Y102.699 E0.13416
G1 X128.503 Y102.785 E0.00561
G1 X128.336 Y102.920 E0.00684
G1 X125.136 Y99.720 E0.14410
G1 X124.594 Y99.720 E0.01725
G1 X128.054 Y103.179 E0.15579
G1 X127.809 Y103.477 E0.01225
G1 X124.053 Y99.720 E0.16918
G1 X123.511 Y99.720 E0.01725
G1 X127.605 Y103.814 E0.18438
G1 X127.450 Y104.201 E0.01326
G1 X122.969 Y99.720 E0.20178
G1 X122.428 Y99.720 E0.01725
G1 X127.352 Y104.644 E0.22174
G1 X127.336 Y105.170 E0.01675
G1 X121.886 Y99.720 E0.24542
G1 X121.345 Y99.720 E0.01725
G1 X127.474 Y105.849 E0.27602
G1 X127.519 Y105.997 E0.00493
G1 X127.723 Y106.402 E0.01444
G1 X127.993 Y106.766 E0.01444
G1 X128.325 Y107.085 E0.01465
G1 X128.729 Y107.349 E0.01536
G1 X129.159 Y107.534 E0.01490
G1 X131.633 Y110.008 E0.11143
G1 X132.032 Y109.866 E0.01349
G1 X129.825 Y107.659 E0.09938
G1 X130.000 Y107.674 E0.00559
G1 X130.352 Y107.644 E0.01124
G1 X132.400 Y109.692 E0.09225
G1 X132.746 Y109.496 E0.01265
G1 X130.795 Y107.546 E0.08784
G1 X130.891 Y107.521 E0.00314
G1 X131.181 Y107.390 E0.01014
G1 X133.077 Y109.286 E0.08539
G1 X133.376 Y109.043 E0.01226
G1 X131.521 Y107.188 E0.08357
G1 X131.680 Y107.080 E0.00612
G1 X131.820 Y106.946 E0.00619
G1 X133.666 Y108.791 E0.08312
G1 X133.928 Y108.512 E0.01220
G1 X132.082 Y106.666 E0.08315
G1 X132.304 Y106.347 E0.01239
G1 X134.174 Y108.217 E0.08420
G1 X134.402 Y107.903 E0.01235
G1 X132.484 Y105.985 E0.08635
G1 X132.611 Y105.571 E0.01381
G1 X134.603 Y107.562 E0.08967
G1 X134.791 Y107.209 E0.01275
G1 X132.670 Y105.088 E0.09550
G1 X132.652 Y104.654 E0.01383
G1 X132.614 Y104.490 E0.00536
G1 X134.945 Y106.821 E0.10496
G1 X135.020 Y106.631 E0.00650
G1 X135.076 Y106.411 E0.00724
G1 X128.385 Y99.720 E0.30132
G1 X128.927 Y99.720 E0.01725
G1 X135.186 Y105.979 E0.28186
