; generated by PrusaSlicer 2.5.0+win64 on 2022-10-06 at 21:26:18 UTC


;
;
; 

; external perimeters extrusion width = 0.45mm
; perimeters extrusion width = 0.45mm
; infill extrusion width = 0.45mm
; solid infill extrusion width = 0.45mm
; top infill extrusion width = 0.40mm
; first layer extrusion width = 0.42mm

M73 P0 R71
M73 Q0 S72
M201 X1000 Y1000 Z200 E5000 ; sets maximum accelerations, mm/sec^2
M203 X200 Y200 Z12 E120 ; sets maximum feedrates, mm / sec
M204 P1250 R1250 T1250 ; sets acceleration (P, T) and retract acceleration (R), mm/sec^2
M205 X8.00 Y8.00 Z0.40 E4.50 ; sets the jerk limits, mm/sec
M205 S0 T0 ; sets the minimum extruding and travel feed rate, mm/sec
M107
;TYPE:Custom
M862.3 P "MK3S" ; printer model check
M862.1 P0.4 ; nozzle diameter check
M115 U3.11.0 ; tell printer latest fw version
G90 ; use absolute coordinates
M83 ; extruder relative mode
M104 S215 ; set extruder temp
M140 S60 ; set bed temp
M190 S60 ; wait for bed temp
M109 S215 ; wait for extruder temp
G28 W ; home all without mesh bed level
G80 ; mesh bed leveling

G1 Z0.2 F720
G1 Y-3 F1000 ; go outside print area
G92 E0
G1 X60 E9 F1000 ; intro line
G1 X100 E12.5 F1000 ; intro line

G92 E0
M221 S95

; Don't change E values below. Excessive value can damage the printer.

M907 E538 ; set extruder motor current
G21 ; set units to millimeters
G90 ; use absolute coordinates
M83 ; use relative distances for extrusion
M900 K0.05 ; Filament gcode LA 1.5
M900 K30 ; Filament gcode LA 1.0
M107
;LAYER_CHANGE
;Z:0.2
;HEIGHT:0.2
;BEFORE_LAYER_CHANGE
G92 E0.0
;0.2


G1 E-.8 F2100
G1 Z.4 F720
;AFTER_LAYER_CHANGE
;0.2
G1 X105.552 Y87.693 F10800
G1 Z.2 F720
G1 E.8 F2100
M204 S800
;TYPE:Skirt/Brim
;WIDTH:0.42
G1 F1200
G1 X106.598 Y86.817 E.04278
G1 X107.538 Y86.623 E.03008
G1 X142.463 Y86.623 E1.09505
G1 X143.77 Y87.015 E.04278
G1 X144.646 Y88.06 E.04278
G1 X144.84 Y89 E.03008
G1 X144.84 Y121 E1.00334
G1 X144.448 Y122.307 E.04278
M73 Q0 S71
G1 X143.402 Y123.183 E.04278
G1 X142.463 Y123.377 E.03008
G1 X107.538 Y123.377 E1.09505
G1 X106.23 Y122.985 E.04278
G1 X105.354 Y121.94 E.04278
G1 X105.16 Y121 E.03008
G1 X105.16 Y89 E1.00334
G1 X105.535 Y87.75 E.0409
M204 S1000
; printing object good 2 id:0 copy 0
;WIPE_START
G1 F8640
G1 X106.598 Y86.817 E-.32671
G1 X107.538 Y86.623 E-.22155
G1 X108.455 Y86.623 E-.21174
;WIPE_END
G1 E-.04 F2100
G1 Z.6 F720
G1 X108.441 Y92.267 F10800
G1 Z.2 F720
G1 E.8 F2100
M204 S800
;TYPE:Perimeter
;WIDTH:0.652324
G1 F1200
G1 X108.418 Y92.154 E.00583
;WIDTH:0.605859
G1 X108.394 Y92.041 E.00539
;WIDTH:0.559394
G1 X108.371 Y91.929 E.00494
;WIDTH:0.512929
G1 X108.348 Y91.816 E.0045
;WIDTH:0.466464
G1 X108.325 Y91.703 E.00405
;WIDTH:0.419999
G1 X108.325 Y89.784 E.06017
G1 X110.229 Y89.775 E.05972
G1 X109.773 Y90.115 E.01784
G1 X109.306 Y90.619 E.02155
G1 X108.959 Y91.147 E.0198
G1 X108.695 Y91.751 E.02067
;WIDTH:0.466464
G1 X108.644 Y91.854 E.00405
;WIDTH:0.512929
G1 X108.593 Y91.957 E.0045
;WIDTH:0.559394
G1 X108.542 Y92.06 E.00494
;WIDTH:0.605859
G1 X108.492 Y92.164 E.00539
;WIDTH:0.652324
G1 X108.467 Y92.213 E.00279
M204 S1000
;WIPE_START
G1 F8640
G1 X108.418 Y92.154 E-.0178
G1 X108.394 Y92.041 E-.02656
G1 X108.371 Y91.929 E-.02656
G1 X108.348 Y91.816 E-.02656
G1 X108.325 Y91.703 E-.02656
G1 X108.325 Y89.784 E-.44311
G1 X109.16 Y89.78 E-.19283
;WIPE_END
G1 E-.04 F2100
G1 Z.6 F720
G1 X127.197 Y94.037 F10800
G1 Z.2 F720
G1 E.8 F2100
M204 S800
;WIDTH:0.419999
G1 F1200
G1 X126.991 Y94.406 E.01325
G1 X126.581 Y94.836 E.01862
G1 X126.372 Y95.011 E.00856
G1 X126.054 Y95.198 E.01155
G1 X125.668 Y95.344 E.01296
G1 X125.262 Y95.423 E.01296
G1 X124.849 Y95.433 E.01296
G1 X124.299 Y95.329 E.01754
G1 X123.763 Y95.1 E.01826
G1 X123.359 Y94.803 E.01572
G1 X122.973 Y94.344 E.01883
G1 X122.718 Y93.857 E.01722
G1 X122.59 Y93.365 E.01596
G1 X122.563 Y92.952 E.01296
G1 X122.606 Y92.541 E.01296
G1 X122.686 Y92.233 E.00996
G1 X122.896 Y91.77 E.01596
G1 X123.134 Y91.432 E.01296
G1 X123.426 Y91.139 E.01296
G1 X123.763 Y90.9 E.01296
G1 X124.136 Y90.721 E.01296
G1 X124.581 Y90.604 E.01444
G1 X125.214 Y90.577 E.01985
G1 X125.759 Y90.684 E.01744
G1 X126.14 Y90.846 E.01296
G1 X126.488 Y91.069 E.01296
G1 X126.792 Y91.348 E.01296
G1 X127.046 Y91.675 E.01296
G1 X127.24 Y92.04 E.01296
G1 X127.37 Y92.432 E.01296
G1 X127.432 Y92.945 E.0162
G1 X127.403 Y93.377 E.01356
G1 X127.226 Y93.985 E.01985
M204 S1000
G1 X126.769 Y94.04 F10800
M204 S800
;TYPE:External perimeter
G1 F1200
G1 X126.688 Y94.179 E.00504
G1 X126.25 Y94.636 E.01985
G1 X125.914 Y94.848 E.01246
G1 X125.588 Y94.975 E.01096
G1 X125.246 Y95.046 E.01096
G1 X124.897 Y95.059 E.01096
G1 X124.409 Y94.968 E.01554
G1 X123.933 Y94.763 E.01626
G1 X123.626 Y94.537 E.01196
G1 X123.285 Y94.133 E.01658
G1 X123.055 Y93.685 E.01579
G1 X122.964 Y93.311 E.01204
G1 X122.939 Y92.984 E.0103
G1 X122.971 Y92.636 E.01096
G1 X123.051 Y92.328 E.00996
G1 X123.208 Y91.981 E.01196
G1 X123.406 Y91.693 E.01096
G1 X123.65 Y91.442 E.01096
G1 X123.933 Y91.237 E.01096
G1 X124.246 Y91.082 E.01096
G1 X124.597 Y90.98 E.01145
G1 X125.23 Y90.954 E.01985
G1 X125.619 Y91.034 E.01246
G1 X125.942 Y91.167 E.01096
G1 X126.238 Y91.352 E.01096
G1 X126.499 Y91.585 E.01096
G1 X126.717 Y91.859 E.01096
G1 X126.885 Y92.166 E.01096
G1 X126.999 Y92.496 E.01096
G1 X127.055 Y92.945 E.01419
G1 X126.999 Y93.504 E.0176
G1 X126.872 Y93.864 E.01196
G1 X126.799 Y93.989 E.00453
M204 S1000
G1 X126.854 Y94.176 F10800
;WIPE_START
G1 F8640
G1 X126.688 Y94.179 E-.05095
G1 X126.25 Y94.636 E-.14616
G1 X125.914 Y94.848 E-.09173
G1 X125.588 Y94.975 E-.08072
G1 X125.246 Y95.046 E-.08072
G1 X124.897 Y95.059 E-.08072
G1 X124.409 Y94.968 E-.11442
G1 X123.954 Y94.772 E-.11456
;WIPE_END
G1 E-.04 F2100
G1 Z.6 F720
G1 X138.421 Y96.795 F10800
G1 Z.2 F720
G1 E.8 F2100
M204 S800
;TYPE:Perimeter
G1 F1200
G1 X138.491 Y96.789 E.00218
G1 X139.118 Y96.588 E.02066
G1 X139.703 Y96.284 E.02066
G1 X140.228 Y95.885 E.02068
G1 X140.678 Y95.404 E.02067
G1 X141.041 Y94.853 E.02067
G1 X141.305 Y94.249 E.02067
;WIDTH:0.464097
G1 X141.357 Y94.135 E.0044
;WIDTH:0.508194
G1 X141.409 Y94.021 E.00486
;WIDTH:0.552292
G1 X141.461 Y93.907 E.00532
;WIDTH:0.596389
G1 X141.513 Y93.792 E.00578
;WIDTH:0.640486
G1 X141.565 Y93.678 E.00624
G1 X141.58 Y93.733 E.00284
;WIDTH:0.609984
G1 X141.604 Y93.874 E.00673
;WIDTH:0.562488
G1 X141.628 Y94.015 E.00617
;WIDTH:0.514992
G1 X141.652 Y94.156 E.00561
;WIDTH:0.467496
G1 X141.675 Y94.297 E.00504
;WIDTH:0.419999
G1 X141.675 Y99.704 E.16954
;WIDTH:0.466449
G1 X141.652 Y99.816 E.00405
;WIDTH:0.512898
G1 X141.629 Y99.929 E.00449
;WIDTH:0.559348
G1 X141.606 Y100.042 E.00494
;WIDTH:0.605797
G1 X141.583 Y100.154 E.00538
;WIDTH:0.652246
G1 X141.559 Y100.267 E.00583
G1 X141.502 Y100.146 E.00679
;WIDTH:0.605797
G1 X141.445 Y100.024 E.00628
;WIDTH:0.559348
G1 X141.388 Y99.903 E.00576
;WIDTH:0.512898
G1 X141.33 Y99.782 E.00524
;WIDTH:0.466449
G1 X141.273 Y99.661 E.00472
;WIDTH:0.419999
G1 X140.994 Y99.063 E.02068
G1 X140.618 Y98.522 E.02067
G1 X140.156 Y98.051 E.02067
G1 X139.613 Y97.66 E.02098
G1 X139.023 Y97.373 E.0206
G1 X138.389 Y97.189 E.02068
G1 X138.066 Y97.171 E.01015
;WIDTH:0.383547
G1 X137.743 Y97.152 E.00917
;WIDTH:0.383412
G1 X137.09 Y97.169 E.01849
;WIDTH:0.419999
G1 X136.448 Y97.296 E.02051
G1 X135.833 Y97.552 E.02088
G1 X135.276 Y97.904 E.02066
G1 X134.786 Y98.346 E.02068
G1 X134.379 Y98.864 E.02067
G1 X134.036 Y99.523 E.0233
G1 X133.852 Y100.067 E.018
G1 X133.749 Y100.719 E.02069
G1 X133.757 Y101.377 E.02063
G1 X133.877 Y102.026 E.02068
G1 X134.104 Y102.644 E.02067
G1 X134.432 Y103.216 E.02067
G1 X134.853 Y103.723 E.02067
G1 X135.359 Y104.158 E.02093
G1 X135.925 Y104.495 E.02065
G1 X136.542 Y104.733 E.02071
G1 X137.181 Y104.836 E.0203
;WIDTH:0.370963
G1 X137.834 Y104.848 E.01781
;WIDTH:0.387022
G1 X138.162 Y104.818 E.00943
;WIDTH:0.419999
G1 X138.491 Y104.789 E.01034
G1 X139.118 Y104.588 E.02066
G1 X139.703 Y104.284 E.02066
G1 X140.228 Y103.885 E.02068
G1 X140.678 Y103.404 E.02067
G1 X141.041 Y102.853 E.02067
G1 X141.305 Y102.249 E.02067
;WIDTH:0.464097
G1 X141.357 Y102.135 E.0044
;WIDTH:0.508194
G1 X141.409 Y102.021 E.00486
;WIDTH:0.552292
G1 X141.461 Y101.907 E.00532
;WIDTH:0.596389
G1 X141.513 Y101.792 E.00578
;WIDTH:0.640486
G1 X141.565 Y101.678 E.00624
G1 X141.58 Y101.733 E.00284
;WIDTH:0.609984
G1 X141.604 Y101.874 E.00673
;WIDTH:0.562488
G1 X141.628 Y102.015 E.00617
;WIDTH:0.514992
G1 X141.652 Y102.156 E.00561
;WIDTH:0.467496
G1 X141.675 Y102.297 E.00504
;WIDTH:0.419999
G1 X141.675 Y107.704 E.16954
;WIDTH:0.466449
G1 X141.652 Y107.816 E.00405
;WIDTH:0.512898
G1 X141.629 Y107.929 E.00449
;WIDTH:0.559348
G1 X141.606 Y108.042 E.00494
;WIDTH:0.605797
G1 X141.583 Y108.154 E.00538
;WIDTH:0.652246
G1 X141.559 Y108.267 E.00583
G1 X141.502 Y108.146 E.00679
;WIDTH:0.605797
G1 X141.445 Y108.024 E.00628
;WIDTH:0.559348
G1 X141.388 Y107.903 E.00576
;WIDTH:0.512898
G1 X141.33 Y107.782 E.00524
;WIDTH:0.466449
G1 X141.273 Y107.661 E.00472
;WIDTH:0.419999
G1 X140.994 Y107.063 E.02068
G1 X140.618 Y106.522 E.02067
G1 X140.156 Y106.051 E.02067
G1 X139.613 Y105.66 E.02098
G1 X139.022 Y105.373 E.0206
G1 X138.389 Y105.189 E.02068
G1 X138.066 Y105.171 E.01015
;WIDTH:0.383546
G1 X137.743 Y105.152 E.00917
;WIDTH:0.383415
G1 X137.09 Y105.169 E.01849
;WIDTH:0.419999
G1 X136.448 Y105.296 E.02051
G1 X135.833 Y105.552 E.02089
G1 X135.276 Y105.904 E.02066
G1 X134.786 Y106.346 E.02068
G1 X134.377 Y106.867 E.02078
G1 X134.057 Y107.465 E.02125
G1 X133.852 Y108.067 E.01996
G1 X133.749 Y108.719 E.02069
G1 X133.757 Y109.377 E.02063
G1 X133.891 Y110.066 E.022
G1 X134.162 Y110.749 E.02306
G1 X134.432 Y111.216 E.0169
G1 X134.853 Y111.723 E.02067
G1 X135.359 Y112.158 E.02093
G1 X135.925 Y112.495 E.02065
G1 X136.542 Y112.733 E.02071
G1 X137.181 Y112.836 E.0203
;WIDTH:0.370963
G1 X137.834 Y112.848 E.01781
;WIDTH:0.387022
G1 X138.162 Y112.818 E.00943
;WIDTH:0.419999
G1 X138.491 Y112.789 E.01034
G1 X139.118 Y112.588 E.02066
G1 X139.703 Y112.284 E.02066
G1 X140.228 Y111.885 E.02068
G1 X140.678 Y111.404 E.02067
G1 X141.041 Y110.853 E.02067
G1 X141.305 Y110.249 E.02067
;WIDTH:0.464097
G1 X141.357 Y110.135 E.0044
;WIDTH:0.508194
G1 X141.409 Y110.021 E.00486
;WIDTH:0.552292
G1 X141.461 Y109.907 E.00532
;WIDTH:0.596389
G1 X141.513 Y109.792 E.00578
;WIDTH:0.640486
G1 X141.565 Y109.678 E.00624
G1 X141.58 Y109.733 E.00284
;WIDTH:0.609984
G1 X141.604 Y109.874 E.00673
;WIDTH:0.562488
G1 X141.628 Y110.015 E.00617
;WIDTH:0.514992
G1 X141.652 Y110.156 E.00561
;WIDTH:0.467496
G1 X141.675 Y110.297 E.00504
;WIDTH:0.419999
G1 X141.675 Y115.704 E.16954
;WIDTH:0.466449
G1 X141.652 Y115.816 E.00405
;WIDTH:0.512898
G1 X141.629 Y115.929 E.00449
;WIDTH:0.559348
G1 X141.606 Y116.042 E.00494
;WIDTH:0.605797
G1 X141.583 Y116.154 E.00538
;WIDTH:0.652246
G1 X141.559 Y116.267 E.00583
G1 X141.502 Y116.146 E.00679
;WIDTH:0.605797
G1 X141.445 Y116.024 E.00628
;WIDTH:0.559348
G1 X141.388 Y115.903 E.00576
;WIDTH:0.512898
G1 X141.33 Y115.782 E.00524
;WIDTH:0.466449
G1 X141.273 Y115.661 E.00472
;WIDTH:0.419999
G1 X140.994 Y115.063 E.02068
G1 X140.618 Y114.522 E.02067
G1 X140.156 Y114.051 E.02067
G1 X139.613 Y113.66 E.02098
G1 X139.023 Y113.373 E.0206
G1 X138.389 Y113.189 E.02068
G1 X138.066 Y113.171 E.01015
;WIDTH:0.383546
G1 X137.743 Y113.152 E.00917
;WIDTH:0.383415
G1 X137.09 Y113.169 E.01849
;WIDTH:0.419999
G1 X136.448 Y113.296 E.02051
G1 X135.833 Y113.552 E.02089
G1 X135.276 Y113.904 E.02066
G1 X134.786 Y114.346 E.02068
G1 X134.379 Y114.864 E.02067
G1 X134.064 Y115.443 E.02067
G1 X133.852 Y116.067 E.02067
G1 X133.749 Y116.841 E.02448
G1 X133.757 Y117.377 E.0168
G1 X133.877 Y118.025 E.02068
G1 X134.104 Y118.644 E.02067
G1 X134.432 Y119.216 E.02067
G1 X134.787 Y119.654 E.01767
G1 X135.086 Y119.927 E.01271
G1 X135.479 Y120.224 E.01543
G1 X114.519 Y120.224 E.65718
G1 X114.721 Y120.096 E.00749
G1 X115.213 Y119.654 E.02075
G1 X115.621 Y119.136 E.02067
G1 X115.936 Y118.557 E.02067
G1 X116.148 Y117.933 E.02067
G1 X116.251 Y117.281 E.02069
G1 X116.243 Y116.623 E.02063
G1 X116.083 Y115.861 E.02441
G1 X115.896 Y115.356 E.0169
G1 X115.568 Y114.784 E.02067
G1 X115.147 Y114.277 E.02067
G1 X114.647 Y113.847 E.02068
G1 X114.074 Y113.504 E.02092
G1 X113.459 Y113.267 E.02068
G1 X112.819 Y113.164 E.02031
;WIDTH:0.370966
G1 X112.166 Y113.153 E.01781
;WIDTH:0.386092
G1 X111.838 Y113.182 E.00941
;WIDTH:0.419999
G1 X111.509 Y113.211 E.01034
G1 X110.882 Y113.412 E.02066
G1 X110.297 Y113.716 E.02066
G1 X109.772 Y114.115 E.02068
G1 X109.322 Y114.596 E.02067
G1 X108.959 Y115.147 E.02067
G1 X108.695 Y115.751 E.02067
;WIDTH:0.466464
G1 X108.644 Y115.854 E.00405
;WIDTH:0.512929
G1 X108.593 Y115.957 E.0045
;WIDTH:0.559394
G1 X108.542 Y116.06 E.00494
;WIDTH:0.605859
G1 X108.492 Y116.164 E.00539
;WIDTH:0.652324
G1 X108.441 Y116.267 E.00583
G1 X108.418 Y116.154 E.00583
;WIDTH:0.605859
G1 X108.394 Y116.041 E.00539
;WIDTH:0.559394
G1 X108.371 Y115.929 E.00494
;WIDTH:0.512929
G1 X108.348 Y115.816 E.0045
;WIDTH:0.466464
G1 X108.325 Y115.703 E.00405
;WIDTH:0.419999
G1 X108.325 Y110.296 E.16954
;WIDTH:0.464085
G1 X108.347 Y110.173 E.0044
;WIDTH:0.50817
G1 X108.369 Y110.049 E.00486
;WIDTH:0.552256
G1 X108.391 Y109.925 E.00532
;WIDTH:0.596341
G1 X108.413 Y109.802 E.00578
;WIDTH:0.640426
G1 X108.435 Y109.678 E.00624
G1 X108.461 Y109.728 E.00279
;WIDTH:0.609964
G1 X108.528 Y109.881 E.00786
;WIDTH:0.562473
G1 X108.594 Y110.034 E.0072
;WIDTH:0.514982
G1 X108.66 Y110.186 E.00654
;WIDTH:0.467491
G1 X108.727 Y110.339 E.00589
;WIDTH:0.419999
G1 X109.006 Y110.937 E.02068
G1 X109.382 Y111.478 E.02067
G1 X109.844 Y111.949 E.02067
G1 X110.386 Y112.34 E.02096
G1 X110.978 Y112.627 E.02061
G1 X111.61 Y112.811 E.02065
G1 X111.934 Y112.829 E.01017
;WIDTH:0.383549
G1 X112.257 Y112.848 E.00918
;WIDTH:0.3857
G1 X112.911 Y112.832 E.01863
;WIDTH:0.419999
G1 X113.552 Y112.704 E.0205
G1 X114.167 Y112.448 E.02089
G1 X114.724 Y112.096 E.02067
G1 X115.214 Y111.654 E.02067
G1 X115.621 Y111.136 E.02067
G1 X115.936 Y110.557 E.02067
G1 X116.148 Y109.933 E.02067
G1 X116.251 Y109.281 E.02069
G1 X116.243 Y108.623 E.02063
G1 X116.123 Y107.974 E.02068
G1 X115.896 Y107.356 E.02067
G1 X115.568 Y106.784 E.02067
G1 X115.147 Y106.277 E.02067
G1 X114.64 Y105.841 E.02095
G1 X114.074 Y105.504 E.02066
G1 X113.459 Y105.267 E.02068
G1 X112.819 Y105.164 E.02031
;WIDTH:0.370966
G1 X112.166 Y105.153 E.01781
;WIDTH:0.386092
G1 X111.838 Y105.182 E.00941
;WIDTH:0.419999
G1 X111.509 Y105.211 E.01034
G1 X110.882 Y105.412 E.02066
G1 X110.297 Y105.716 E.02066
G1 X109.772 Y106.115 E.02068
G1 X109.322 Y106.596 E.02067
G1 X108.959 Y107.147 E.02067
G1 X108.695 Y107.751 E.02067
;WIDTH:0.466464
G1 X108.644 Y107.854 E.00405
;WIDTH:0.512929
G1 X108.593 Y107.957 E.0045
;WIDTH:0.559394
G1 X108.542 Y108.06 E.00494
;WIDTH:0.605859
G1 X108.492 Y108.164 E.00539
;WIDTH:0.652324
G1 X108.441 Y108.267 E.00583
G1 X108.418 Y108.154 E.00583
;WIDTH:0.605859
G1 X108.394 Y108.041 E.00539
;WIDTH:0.559394
G1 X108.371 Y107.929 E.00494
;WIDTH:0.512929
G1 X108.348 Y107.816 E.0045
;WIDTH:0.466464
G1 X108.325 Y107.703 E.00405
;WIDTH:0.419999
G1 X108.325 Y102.296 E.16954
;WIDTH:0.464085
G1 X108.347 Y102.173 E.0044
;WIDTH:0.50817
G1 X108.369 Y102.049 E.00486
;WIDTH:0.552256
G1 X108.391 Y101.925 E.00532
;WIDTH:0.596341
G1 X108.413 Y101.802 E.00578
;WIDTH:0.640426
G1 X108.435 Y101.678 E.00624
G1 X108.461 Y101.728 E.00279
;WIDTH:0.609965
G1 X108.528 Y101.881 E.00786
;WIDTH:0.562474
G1 X108.594 Y102.034 E.0072
;WIDTH:0.514982
G1 X108.66 Y102.186 E.00654
;WIDTH:0.467491
G1 X108.727 Y102.339 E.00589
;WIDTH:0.419999
G1 X109.006 Y102.937 E.02068
G1 X109.382 Y103.478 E.02067
G1 X109.844 Y103.949 E.02067
G1 X110.386 Y104.34 E.02096
G1 X110.978 Y104.627 E.02061
G1 X111.61 Y104.811 E.02065
G1 X111.934 Y104.829 E.01017
;WIDTH:0.383548
G1 X112.257 Y104.848 E.00918
;WIDTH:0.385701
G1 X112.911 Y104.832 E.01863
;WIDTH:0.419999
G1 X113.552 Y104.704 E.0205
G1 X114.167 Y104.448 E.02089
G1 X114.724 Y104.096 E.02066
G1 X115.214 Y103.654 E.02068
G1 X115.621 Y103.136 E.02067
G1 X115.936 Y102.557 E.02067
G1 X116.16 Y101.859 E.023
G1 X116.251 Y101.281 E.01833
G1 X116.243 Y100.623 E.02063
G1 X116.123 Y99.975 E.02068
G1 X115.896 Y99.356 E.02067
G1 X115.568 Y98.784 E.02067
