; generated by PrusaSlicer 2.2.0+win64 on 2020-06-10 at 23:30:24 UTC

; 

; external perimeters extrusion width = 0.45mm
; perimeters extrusion width = 0.45mm
; infill extrusion width = 0.45mm
; solid infill extrusion width = 0.45mm
; top infill extrusion width = 0.40mm
; first layer extrusion width = 0.70mm

M107
M104 S200 ; set temperature
G28 ; home all axes
G1 Z5 F5000 ; lift nozzle
M109 S200 ; set temperature and wait for it to be reached
G21 ; set units to millimeters
G90 ; use absolute coordinates
M82 ; use absolute distances for extrusion
G92 E0
; Filament gcode
G1 Z0.350 F7800.000
G1 E-2.00000 F2400.00000
G92 E0
G1 X73.637 Y78.312 F7800.000
G1 E2.00000 F2400.00000
G1 F1800.000
G1 X74.851 Y77.378 E2.13928
G1 X76.685 Y76.377 E2.32927
G1 X99.906 Y66.236 E4.63328
G1 X101.240 Y65.823 E4.76025
G1 X102.490 Y65.698 E4.87456
G1 X134.277 Y65.657 E7.76485
G1 X135.509 Y65.773 E7.87744
G1 X136.705 Y66.120 E7.99060
G1 X137.814 Y66.683 E8.10376
G1 X138.799 Y67.444 E8.21693
G1 X139.620 Y68.371 E8.32951
G1 X140.257 Y69.440 E8.44267
G1 X140.683 Y70.610 E8.55584
G1 X140.882 Y71.832 E8.66842
G1 X140.944 Y117.092 E12.78393
G1 X140.693 Y118.575 E12.92067
G1 X140.116 Y119.957 E13.05683
G1 X139.244 Y121.174 E13.19300
G1 X138.121 Y122.164 E13.32916
G1 X137.302 Y122.652 E13.41582
G1 X136.416 Y123.019 E13.50305
G1 X135.486 Y123.255 E13.59029
G1 X134.532 Y123.354 E13.67752
G1 X102.562 Y123.397 E16.58448
G1 X101.324 Y123.277 E16.69764
G1 X100.082 Y122.909 E16.81541
G1 X76.133 Y113.038 E19.17080
G1 X74.634 Y112.199 E19.32702
G1 X73.426 Y111.267 E19.46570
G1 X72.754 Y110.628 E19.55005
G1 X71.694 Y109.369 E19.69967
G1 X70.841 Y107.991 E19.84704
G1 X70.216 Y106.558 E19.98921
G1 X69.764 Y104.904 E20.14515
G1 X69.616 Y103.950 E20.23296
G1 X69.543 Y102.553 E20.36010
G1 X69.831 Y86.107 E21.85575
G1 X69.992 Y84.746 E21.98042
G1 X70.356 Y83.330 E22.11335
G1 X70.641 Y82.555 E22.18846
G1 X71.290 Y81.203 E22.32484
G1 X72.089 Y79.994 E22.45662
G1 X72.624 Y79.339 E22.53347
G1 X73.595 Y78.354 E22.65919
G1 E20.65919 F2400.00000
G92 E0
G1 X98.571 Y69.706 F7800.000
G1 E2.00000 F2400.00000
G1 F1800.000
G1 X99.895 Y68.377 E2.17057
G1 X100.433 Y68.060 E2.22739
G1 X100.988 Y67.829 E2.28205
G1 X101.950 Y67.636 E2.37120
G1 X135.204 Y67.635 E5.39503
G1 X135.809 Y67.790 E5.45177
G1 X136.389 Y68.033 E5.50899
G1 X136.884 Y68.327 E5.56134
G1 X137.967 Y69.347 E5.69659
G1 X138.532 Y70.186 E5.78860
G1 X138.822 Y70.933 E5.86146
G1 X138.958 Y71.709 E5.93307
G1 X139.017 Y117.293 E10.07803
G1 X138.827 Y118.254 E10.16710
G1 X138.597 Y118.810 E10.22175
G1 X138.281 Y119.349 E10.27858
G1 X136.956 Y120.677 E10.44915
G1 X136.418 Y120.995 E10.50597
G1 X135.863 Y121.225 E10.56063
G1 X134.903 Y121.418 E10.64970
G1 X102.018 Y121.460 E13.63990
G1 X101.057 Y121.270 E13.72897
G1 X100.501 Y121.041 E13.78363
G1 X99.962 Y120.724 E13.84045
G1 X98.634 Y119.399 E14.01102
G1 X98.316 Y118.861 E14.06784
G1 X98.086 Y118.306 E14.12250
G1 X97.893 Y117.346 E14.21157
G1 X97.835 Y71.761 E18.35658
G1 X98.025 Y70.800 E18.44565
G1 X98.254 Y70.244 E18.50030
G1 X98.540 Y69.757 E18.55167
G1 X99.088 Y70.059 F7800.000
G1 F1800.000
G1 X100.250 Y68.893 E18.70131
G1 X100.695 Y68.628 E18.74845
G1 X101.200 Y68.418 E18.79819
G1 X101.981 Y68.261 E18.87061
G1 X135.090 Y68.250 E21.88121
G1 X135.593 Y68.377 E21.92835
G1 X136.090 Y68.582 E21.97730
G1 X136.534 Y68.846 E22.02426
G1 X137.511 Y69.775 E22.14687
G1 X137.964 Y70.448 E22.22060
G1 X138.213 Y71.078 E22.28215
G1 X138.333 Y71.739 E22.34326
G1 X138.392 Y117.263 E26.48279
G1 X138.237 Y118.044 E26.55517
G1 X138.029 Y118.550 E26.60491
G1 X137.764 Y118.995 E26.65205
G1 X136.602 Y120.161 E26.80169
G1 X136.157 Y120.427 E26.84883
G1 X135.652 Y120.637 E26.89857
G1 X134.871 Y120.793 E26.97095
G1 X102.048 Y120.835 E29.95557
G1 X101.267 Y120.681 E30.02795
G1 X100.761 Y120.472 E30.07769
G1 X100.315 Y120.207 E30.12483
G1 X99.150 Y119.045 E30.27447
G1 X98.884 Y118.600 E30.32161
G1 X98.674 Y118.095 E30.37135
G1 X98.518 Y117.314 E30.44373
G1 X98.460 Y71.791 E34.58315
G1 X98.614 Y71.010 E34.65553
G1 X98.823 Y70.504 E34.70527
G1 X99.057 Y70.110 E34.74696
G1 X99.603 Y70.414 F7800.000
G1 F1800.000
G1 X100.607 Y69.408 E34.87622
G1 X100.957 Y69.195 E34.91351
G1 X101.411 Y69.006 E34.95823
G1 X102.012 Y68.886 E35.01393
G1 X134.979 Y68.866 E38.01157
G1 X135.377 Y68.964 E38.04885
G1 X135.829 Y69.151 E38.09335
G1 X136.181 Y69.362 E38.13064
G1 X137.054 Y70.202 E38.24079
G1 X137.398 Y70.713 E38.29684
G1 X137.605 Y71.227 E38.34720
G1 X137.709 Y71.770 E38.39746
G1 X137.767 Y117.233 E42.53144
G1 X137.648 Y117.834 E42.58713
G1 X137.460 Y118.289 E42.63185
G1 X137.249 Y118.640 E42.66913
G1 X136.245 Y119.646 E42.79840
G1 X135.894 Y119.859 E42.83568
G1 X135.440 Y120.048 E42.88041
G1 X134.840 Y120.168 E42.93609
G1 X102.078 Y120.210 E45.91512
G1 X101.477 Y120.091 E45.97081
G1 X101.022 Y119.904 E46.01553
G1 X100.671 Y119.692 E46.05281
G1 X99.664 Y118.688 E46.18208
G1 X99.452 Y118.337 E46.21936
G1 X99.263 Y117.883 E46.26409
G1 X99.143 Y117.283 E46.31977
G1 X99.085 Y71.821 E50.45361
G1 X99.203 Y71.220 E50.50929
G1 X99.391 Y70.765 E50.55401
G1 X99.572 Y70.466 E50.58584
G1 X100.115 Y70.773 F7800.000
G1 F1800.000
G1 X100.967 Y69.919 E50.69551
G1 X101.221 Y69.762 E50.72270
G1 X101.623 Y69.595 E50.76225
G1 X102.043 Y69.511 E50.80124
G1 X134.872 Y69.483 E53.78630
G1 X135.163 Y69.551 E53.81349
G1 X135.567 Y69.718 E53.85323
G1 X135.822 Y69.875 E53.88052
G1 X136.594 Y70.626 E53.97841
G1 X136.833 Y70.983 E54.01748
G1 X136.999 Y71.382 E54.05683
G1 X137.084 Y71.803 E54.09582
G1 X137.142 Y117.203 E58.22408
G1 X137.059 Y117.624 E58.26306
G1 X136.893 Y118.026 E58.30261
G1 X136.736 Y118.281 E58.32981
G1 X135.885 Y119.135 E58.43947
G1 X135.630 Y119.292 E58.46666
G1 X135.228 Y119.459 E58.50621
G1 X134.808 Y119.543 E58.54520
G1 X102.107 Y119.585 E61.51865
G1 X101.687 Y119.502 E61.55764
G1 X101.285 Y119.336 E61.59719
G1 X101.030 Y119.179 E61.62439
G1 X100.176 Y118.328 E61.73405
G1 X100.019 Y118.073 E61.76124
G1 X99.852 Y117.672 E61.80079
G1 X99.768 Y117.251 E61.83978
G1 X99.710 Y71.851 E65.96804
G1 X99.793 Y71.430 E66.00702
G1 X99.959 Y71.028 E66.04658
G1 X100.084 Y70.824 E66.06831
G1 X100.525 Y71.293 F7800.000
G1 F1800.000
G1 X100.624 Y71.137 E66.08505
G1 X101.332 Y70.427 E66.17632
G1 X101.488 Y70.328 E66.19306
G1 X101.835 Y70.184 E66.22719
G1 X102.075 Y70.136 E66.24948
G1 X134.771 Y70.100 E69.22256
G1 X134.951 Y70.140 E69.23930
G1 X135.302 Y70.285 E69.27379
G1 X135.458 Y70.384 E69.29061
G1 X136.132 Y71.048 E69.37668
G1 X136.268 Y71.251 E69.39888
G1 X136.411 Y71.594 E69.43266
G1 X136.459 Y71.834 E69.45496
G1 X136.517 Y117.174 E73.57763
G1 X136.469 Y117.414 E73.59992
G1 X136.326 Y117.761 E73.63406
G1 X136.228 Y117.917 E73.65080
G1 X135.519 Y118.627 E73.74206
G1 X135.364 Y118.726 E73.75880
G1 X135.017 Y118.870 E73.79294
G1 X134.777 Y118.918 E73.81523
G1 X102.137 Y118.960 E76.78310
G1 X101.897 Y118.913 E76.80539
G1 X101.550 Y118.769 E76.83953
G1 X101.394 Y118.671 E76.85627
G1 X100.684 Y117.962 E76.94753
G1 X100.585 Y117.807 E76.96427
G1 X100.441 Y117.460 E76.99841
G1 X100.393 Y117.220 E77.02070
G1 X100.335 Y71.881 E81.14338
G1 X100.382 Y71.640 E81.16567
G1 X100.502 Y71.349 E81.19435
G1 X100.971 Y71.850 F7800.000
G1 F1800.000
G1 X101.124 Y71.512 E81.22805
G1 X101.709 Y70.926 E81.30333
G1 X102.106 Y70.761 E81.34251
G1 X134.684 Y70.719 E84.30479
G1 X135.082 Y70.883 E84.34397
G1 X135.669 Y71.468 E84.41924
G1 X135.834 Y71.866 E84.45842
G1 X135.892 Y117.144 E88.57552
G1 X135.728 Y117.542 E88.61469
G1 X135.143 Y118.128 E88.68997
G1 X134.745 Y118.293 E88.72915
G1 X102.167 Y118.335 E91.69143
G1 X101.769 Y118.171 E91.73061
G1 X101.183 Y117.586 E91.80589
G1 X101.018 Y117.188 E91.84507
G1 X100.960 Y71.909 E95.96230
G1 X101.632 Y71.888 F7800.000
G1 F1800.000
G1 X102.085 Y71.433 E96.02067
G1 X102.200 Y71.385 E96.03197
G1 X134.592 Y71.344 E98.97736
G1 X134.707 Y71.391 E98.98866
G1 X135.161 Y71.845 E99.04704
G1 X135.209 Y71.960 E99.05834
G1 X135.267 Y117.052 E103.15853
G1 X135.219 Y117.166 E103.16984
G1 X134.766 Y117.621 E103.22821
G1 X134.651 Y117.669 E103.23951
G1 X102.259 Y117.710 E106.18490
G1 X102.145 Y117.663 E106.19621
G1 X101.690 Y117.209 E106.25458
G1 X101.642 Y117.095 E106.26588
G1 X101.585 Y72.003 E110.36608
G1 X101.609 Y71.943 E110.37192
G1 X102.210 Y72.193 F7800.000
G1 F1800.000
G1 X102.392 Y72.010 E110.39546
G1 X134.401 Y71.969 E113.30601
G1 X134.585 Y72.152 E113.32954
G1 X134.642 Y116.861 E117.39490
G1 X134.459 Y117.044 E117.41844
G1 X102.450 Y117.085 E120.32899
G1 X102.267 Y116.902 E120.35252
G1 X102.210 Y72.253 E124.41242
G1 E122.41242 F2400.00000
G92 E0
G1 X88.777 Y81.212 F7800.000
G1 E2.00000 F2400.00000
G1 F1800.000
G1 X89.574 Y82.490 E2.13700
G1 X90.174 Y83.927 E2.27855
G1 X90.521 Y85.383 E2.41464
G1 X90.635 Y86.897 E2.55271
G1 X90.376 Y102.962 E4.01372
G1 X90.177 Y104.651 E4.16832
G1 X89.815 Y105.923 E4.28857
G1 X89.280 Y107.132 E4.40883
G1 X88.401 Y108.493 E4.55614
G1 X87.307 Y109.682 E4.70311
G1 X85.912 Y110.738 E4.86216
G1 X84.368 Y111.512 E5.01921
G1 X83.105 Y111.905 E5.13954
G1 X81.802 Y112.119 E5.25959
G1 X80.263 Y112.135 E5.39954
G1 X78.722 Y111.898 E5.54129
G1 X77.240 Y111.409 E5.68318
G1 X75.859 Y110.683 E5.82508
G1 X74.616 Y109.740 E5.96698
G1 X73.545 Y108.605 E6.10887
G1 X72.672 Y107.304 E6.25128
G1 X71.935 Y105.603 E6.41983
G1 X71.588 Y104.131 E6.55736
G1 X71.480 Y102.653 E6.69208
G1 X71.739 Y86.587 E8.15323
G1 X71.931 Y84.932 E8.30466
G1 X72.383 Y83.400 E8.44992
G1 X72.949 Y82.208 E8.56991
G1 X73.673 Y81.106 E8.68984
G1 X74.749 Y79.921 E8.83536
G1 X76.147 Y78.845 E8.99573
G1 X77.768 Y78.028 E9.16087
G1 X79.231 Y77.592 E9.29967
G1 X80.476 Y77.416 E9.41395
G1 X81.705 Y77.413 E9.52577
G1 X82.394 Y77.468 E9.58859
G1 X83.827 Y77.766 E9.72166
G1 X85.280 Y78.322 E9.86314
G1 X86.626 Y79.113 E10.00507
G1 X87.786 Y80.077 E10.14222
G1 X88.737 Y81.167 E10.27376
G1 X88.288 Y81.602 F7800.000
G1 F1800.000
G1 X89.030 Y82.797 E10.40167
G1 X89.587 Y84.142 E10.53401
G1 X89.907 Y85.501 E10.66098
G1 X90.010 Y86.900 E10.78856
G1 X89.751 Y102.937 E12.24694
G1 X89.570 Y104.504 E12.39041
G1 X89.220 Y105.730 E12.50630
G1 X88.720 Y106.855 E12.61829
G1 X87.892 Y108.130 E12.75647
G1 X86.867 Y109.237 E12.89369
G1 X85.605 Y110.193 E13.03765
G1 X84.156 Y110.924 E13.18521
G1 X82.981 Y111.292 E13.29717
G1 X81.725 Y111.499 E13.41296
G1 X80.284 Y111.510 E13.54396
G1 X78.845 Y111.284 E13.67638
G1 X77.463 Y110.824 E13.80889
G1 X76.174 Y110.143 E13.94140
G1 X75.016 Y109.259 E14.07391
G1 X74.019 Y108.196 E14.20642
G1 X73.208 Y106.982 E14.33921
G1 X72.520 Y105.383 E14.49748
G1 X72.203 Y104.015 E14.62520
G1 X72.105 Y102.650 E14.74958
G1 X72.364 Y86.612 E16.20815
G1 X72.538 Y85.082 E16.34817
G1 X72.959 Y83.644 E16.48440
G1 X73.483 Y82.532 E16.59614
G1 X74.182 Y81.470 E16.71175
G1 X75.191 Y80.363 E16.84798
G1 X76.503 Y79.360 E16.99813
G1 X77.974 Y78.618 E17.14797
G1 X79.344 Y78.207 E17.27803
G1 X80.500 Y78.040 E17.38419
G1 X81.671 Y78.037 E17.49066
G1 X82.289 Y78.084 E17.54701
G1 X83.629 Y78.360 E17.67144
G1 X84.988 Y78.876 E17.80361
G1 X86.247 Y79.610 E17.93612
G1 X87.367 Y80.541 E18.06855
G1 X88.249 Y81.557 E18.19087
G1 X87.771 Y81.954 F7800.000
G1 F1800.000
G1 X88.485 Y83.105 E18.31404
G1 X88.999 Y84.355 E18.43701
G1 X89.293 Y85.618 E18.55489
G1 X89.385 Y86.904 E18.67210
G1 X89.127 Y102.912 E20.12789
G1 X88.961 Y104.359 E20.26037
G1 X88.640 Y105.497 E20.36785
G1 X88.159 Y106.578 E20.47545
G1 X87.384 Y107.765 E20.60435
G1 X86.429 Y108.791 E20.73178
G1 X85.252 Y109.677 E20.86575
G1 X83.945 Y110.335 E20.99883
G1 X82.816 Y110.689 E21.10642
G1 X81.650 Y110.878 E21.21386
G1 X80.307 Y110.885 E21.33594
G1 X78.970 Y110.672 E21.45902
G1 X77.687 Y110.241 E21.58214
G1 X76.492 Y109.604 E21.70527
G1 X75.418 Y108.780 E21.82839
G1 X74.494 Y107.790 E21.95152
G1 X73.745 Y106.660 E22.07476
G1 X73.122 Y105.213 E22.21802
G1 X72.824 Y103.944 E22.33652
G1 X72.730 Y102.646 E22.45485
G1 X72.988 Y86.636 E23.91082
G1 X73.146 Y85.229 E24.03954
G1 X73.535 Y83.888 E24.16659
G1 X74.039 Y82.819 E24.27397
G1 X74.689 Y81.835 E24.38129
G1 X75.594 Y80.841 E24.50353
G1 X76.812 Y79.903 E24.64326
G1 X78.182 Y79.208 E24.78297
G1 X79.459 Y78.822 E24.90424
G1 X80.525 Y78.665 E25.00222
G1 X81.638 Y78.661 E25.10343
G1 X82.185 Y78.701 E25.15333
G1 X83.433 Y78.953 E25.26911
G1 X84.698 Y79.429 E25.39196
G1 X85.869 Y80.109 E25.51509
G1 X86.913 Y80.972 E25.63825
G1 X87.731 Y81.908 E25.75133
G1 X87.282 Y82.345 F7800.000
G1 F1800.000
G1 X87.939 Y83.410 E25.86507
G1 X88.411 Y84.567 E25.97871
G1 X88.678 Y85.733 E26.08750
G1 X88.760 Y86.907 E26.19448
G1 X88.502 Y102.887 E27.64774
G1 X88.352 Y104.216 E27.76936
G1 X88.060 Y105.264 E27.86831
G1 X87.599 Y106.300 E27.97144
G1 X86.877 Y107.400 E28.09103
G1 X86.030 Y108.309 E28.20403
G1 X84.944 Y109.133 E28.32797
G1 X83.731 Y109.747 E28.45157
G1 X82.693 Y110.076 E28.55058
G1 X81.575 Y110.257 E28.65363
G1 X80.332 Y110.261 E28.76663
G1 X79.097 Y110.059 E28.88035
G1 X77.913 Y109.658 E28.99409
G1 X76.811 Y109.066 E29.10783
G1 X75.821 Y108.302 E29.22157
G1 X74.970 Y107.385 E29.33531
G1 X74.282 Y106.340 E29.44906
G1 X73.723 Y105.042 E29.57756
G1 X73.445 Y103.873 E29.68681
G1 X73.355 Y102.642 E29.79901
G1 X73.613 Y86.661 E31.25239
G1 X73.754 Y85.376 E31.36994
G1 X74.111 Y84.131 E31.48770
G1 X74.594 Y83.107 E31.59064
G1 X75.196 Y82.201 E31.68950
G1 X76.037 Y81.283 E31.80274
G1 X77.122 Y80.446 E31.92737
G1 X78.392 Y79.798 E32.05701
G1 X79.574 Y79.437 E32.16933
G1 X80.593 Y79.287 E32.26305
G1 X81.607 Y79.285 E32.35521
G1 X82.084 Y79.318 E32.39872
G1 X83.239 Y79.548 E32.50583
G1 X84.409 Y79.984 E32.61936
G1 X85.493 Y80.608 E32.73310
G1 X86.460 Y81.402 E32.84684
G1 X87.243 Y82.300 E32.95513
G1 X86.766 Y82.697 F7800.000
G1 F1800.000
G1 X87.371 Y83.672 E33.05948
G1 X87.808 Y84.734 E33.16389
G1 X88.057 Y85.802 E33.26362
G1 X88.135 Y86.910 E33.36462
G1 X87.878 Y102.862 E34.81533
G1 X87.744 Y104.073 E34.92605
G1 X87.464 Y105.073 E35.02050
G1 X87.039 Y106.021 E35.11492
G1 X86.371 Y107.032 E35.22519
G1 X85.592 Y107.862 E35.32865
G1 X84.634 Y108.589 E35.43800
G1 X83.518 Y109.160 E35.55203
G1 X82.527 Y109.473 E35.64648
G1 X81.502 Y109.636 E35.74089
G1 X80.359 Y109.636 E35.84484
G1 X79.227 Y109.447 E35.94919
G1 X78.141 Y109.075 E36.05355
G1 X77.131 Y108.529 E36.15791
G1 X76.225 Y107.825 E36.26226
G1 X75.448 Y106.981 E36.36662
G1 X74.820 Y106.021 E36.47092
G1 X74.325 Y104.871 E36.58476
G1 X74.059 Y103.753 E36.68921
G1 X73.980 Y102.639 E36.79079
G1 X74.237 Y86.686 E38.24161
G1 X74.372 Y85.471 E38.35272
G1 X74.688 Y84.373 E38.45663
G1 X75.128 Y83.433 E38.55099
G1 X75.702 Y82.568 E38.64541
G1 X76.477 Y81.727 E38.74944
G1 X77.479 Y80.960 E38.86414
G1 X78.602 Y80.387 E38.97881
G1 X79.691 Y80.051 E39.08235
G1 X80.618 Y79.912 E39.16764
G1 X81.579 Y79.910 E39.25498
G1 X81.985 Y79.935 E39.29205
G1 X83.047 Y80.143 E39.39045
G1 X84.123 Y80.540 E39.49467
G1 X85.119 Y81.110 E39.59902
G1 X86.008 Y81.835 E39.70338
G1 X86.726 Y82.652 E39.80228
G1 X86.251 Y83.051 F7800.000
G1 F1800.000
G1 X86.805 Y83.937 E39.89725
G1 X87.205 Y84.901 E39.99222
G1 X87.442 Y85.919 E40.08723
G1 X87.510 Y86.913 E40.17781
G1 X87.253 Y102.838 E41.62609
G1 X87.134 Y103.932 E41.72610
G1 X86.884 Y104.840 E41.81174
G1 X86.480 Y105.741 E41.90154
G1 X85.866 Y106.663 E42.00227
G1 X85.157 Y107.413 E42.09613
G1 X84.281 Y108.073 E42.19590
G1 X83.304 Y108.572 E42.29557
G1 X82.362 Y108.870 E42.38545
G1 X81.431 Y109.015 E42.47109
G1 X80.388 Y109.011 E42.56600
G1 X79.358 Y108.836 E42.66097
G1 X78.371 Y108.494 E42.75594
G1 X77.454 Y107.994 E42.85091
G1 X76.632 Y107.350 E42.94588
G1 X75.927 Y106.579 E43.04085
G1 X75.359 Y105.703 E43.13576
G1 X74.926 Y104.698 E43.23530
G1 X74.681 Y103.682 E43.33034
G1 X74.605 Y102.635 E43.42577
G1 X74.862 Y86.710 E44.87405
G1 X74.981 Y85.616 E44.97412
G1 X75.265 Y84.614 E45.06876
G1 X75.683 Y83.720 E45.15857
G1 X76.207 Y82.937 E45.24421
G1 X76.917 Y82.171 E45.33918
G1 X77.791 Y81.502 E45.43919
G1 X78.815 Y80.975 E45.54399
G1 X79.808 Y80.665 E45.63851
G1 X80.687 Y80.533 E45.71938
G1 X81.569 Y80.535 E45.79957
G1 X81.889 Y80.553 E45.82874
G1 X82.858 Y80.739 E45.91841
G1 X83.838 Y81.097 E46.01331
G1 X84.747 Y81.612 E46.10828
G1 X85.558 Y82.269 E46.20325
G1 X86.211 Y83.007 E46.29277
