; generated by PrusaSlicer 2.2.0+win64 on 2021-04-07 at 19:30:49 UTC

; 

; external perimeters extrusion width = 0.45mm
; perimeters extrusion width = 0.45mm
; infill extrusion width = 0.45mm
; solid infill extrusion width = 0.45mm
; top infill extrusion width = 0.40mm
; first layer extrusion width = 0.42mm

M73 P0 R87
M73 Q0 S88
M201 X1000 Y1000 Z200 E5000 ; sets maximum accelerations, mm/sec^2
M203 X200 Y200 Z12 E120 ; sets maximum feedrates, mm/sec
M204 P1250 R1250 T1250 ; sets acceleration (P, T) and retract acceleration (R), mm/sec^2
M205 X8.00 Y8.00 Z0.40 E4.50 ; sets the jerk limits, mm/sec
M205 S0 T0 ; sets the minimum extruding and travel feed rate, mm/sec
M107
M862.3 P "MK3S" ; printer model check
M862.1 P0.4 ; nozzle diameter check
M115 U3.9.3 ; tell printer latest fw version
G90 ; use absolute coordinates
M83 ; extruder relative mode
M104 S215 ; set extruder temp
M140 S60 ; set bed temp
M190 S60 ; wait for bed temp
M109 S215 ; wait for extruder temp
G28 W ; home all without mesh bed level
G80 ; mesh bed leveling
G1 Y-3.0 F1000.0 ; go outside print area
G92 E0.0
G1 X60.0 E9.0 F1000.0 ; intro line
M73 Q0 S88
M73 P0 R87
G1 X100.0 E12.5 F1000.0 ; intro line
G92 E0.0
M221 S95

; Don't change E values below. Excessive value can damage the printer.

M907 E538 ; set extruder motor current
G21 ; set units to millimeters
G90 ; use absolute coordinates
M83 ; use relative distances for extrusion
M900 K0.05 ; Filament gcode LA 1.5
M900 K30 ; Filament gcode LA 1.0
;BEFORE_LAYER_CHANGE
G92 E0.0
;0.2


G1 E-0.80000 F2100.00000
G1 Z0.400 F10800.000
;AFTER_LAYER_CHANGE
;0.2
G1 X99.201 Y95.634
G1 Z0.200
G1 E0.80000 F2100.00000
M204 S1000
G1 F1200.000
G1 X100.358 Y95.395 E0.03704
G1 X124.969 Y93.858 E0.77315
G1 X127.302 Y93.997 E0.07327
G1 X129.748 Y94.473 E0.07816
G1 X132.050 Y95.253 E0.07619
G1 X134.183 Y96.307 E0.07460
G1 X136.222 Y97.676 E0.07699
G1 X138.046 Y99.296 E0.07651
G1 X139.652 Y101.166 E0.07730
G1 X140.904 Y103.086 E0.07186
G1 X141.263 Y104.030 E0.03168
G1 X141.381 Y105.093 E0.03351
G1 X141.236 Y106.073 E0.03109
G1 X140.825 Y107.055 E0.03337
G1 X139.686 Y108.788 E0.06502
G1 X138.331 Y110.406 E0.06618
G1 X136.753 Y111.895 E0.06802
G1 X135.158 Y113.087 E0.06242
G1 X132.826 Y114.402 E0.08394
G1 X131.530 Y114.952 E0.04414
G1 X130.258 Y115.382 E0.04212
G1 X128.988 Y115.711 E0.04112
G1 X127.492 Y115.977 E0.04764
G1 X124.937 Y116.141 E0.08029
G1 X100.129 Y114.581 E0.77937
G1 X99.205 Y114.366 E0.02975
G1 X98.343 Y113.962 E0.02984
G1 X97.592 Y113.387 E0.02967
G1 X96.976 Y112.658 E0.02993
G1 X96.437 Y111.555 E0.03848
G1 X96.207 Y110.347 E0.03856
G1 X96.209 Y99.617 E0.33641
G1 X96.410 Y98.532 E0.03462
G1 X96.796 Y97.634 E0.03064
G1 X97.380 Y96.828 E0.03122
G1 X98.141 Y96.167 E0.03159
G1 X99.148 Y95.661 E0.03533
G1 X99.315 Y95.996 F10800.000
G1 F1200.000
G1 X100.396 Y95.770 E0.03464
G1 X124.971 Y94.235 E0.77202
G1 X127.256 Y94.371 E0.07176
G1 X129.649 Y94.837 E0.07646
G1 X131.907 Y95.602 E0.07474
G1 X133.992 Y96.632 E0.07291
G1 X135.992 Y97.975 E0.07552
G1 X137.776 Y99.559 E0.07483
G1 X139.351 Y101.393 E0.07581
G1 X140.563 Y103.249 E0.06948
G1 X140.895 Y104.112 E0.02901
G1 X141.004 Y105.093 E0.03093
G1 X140.846 Y106.064 E0.03086
G1 X140.474 Y106.909 E0.02896
G1 X139.380 Y108.567 E0.06226
G1 X138.050 Y110.154 E0.06492
G1 X136.507 Y111.610 E0.06653
G1 X134.925 Y112.789 E0.06185
G1 X132.664 Y114.061 E0.08135
G1 X131.395 Y114.600 E0.04323
G1 X130.149 Y115.021 E0.04123
G1 X128.909 Y115.342 E0.04017
G1 X127.439 Y115.604 E0.04682
G1 X124.943 Y115.764 E0.07843
G1 X100.186 Y114.208 E0.77777
G1 X99.330 Y114.010 E0.02755
G1 X98.537 Y113.639 E0.02745
G1 X97.847 Y113.110 E0.02725
G1 X97.277 Y112.429 E0.02786
G1 X96.792 Y111.428 E0.03487
G1 X96.583 Y110.315 E0.03550
G1 X96.585 Y99.648 E0.33444
G1 X96.770 Y98.642 E0.03208
G1 X97.127 Y97.815 E0.02825
G1 X97.663 Y97.077 E0.02859
G1 X98.373 Y96.466 E0.02936
G1 X99.261 Y96.023 E0.03113
; printing object 3DBenchy id:0 copy 0
G1 F8640.000
G1 X100.396 Y95.770 E-0.26853
G1 X102.521 Y95.637 E-0.49147
G1 E-0.04000 F2100.00000
G1 Z0.600 F10800.000
G1 X124.267 Y103.091
G1 Z0.200
G1 E0.80000 F2100.00000
G1 F1200.000
G1 X124.434 Y103.149 E0.00553
G1 X124.587 Y103.238 E0.00556
G1 X124.725 Y103.373 E0.00605
G1 X124.920 Y103.704 E0.01204
G1 X124.967 Y103.933 E0.00735
G1 X125.051 Y104.114 E0.00623
G1 X125.176 Y104.174 E0.00437
G1 X125.244 Y104.012 E0.00551
G1 X125.356 Y104.087 E0.00421
G1 X125.412 Y103.959 E0.00437
G1 X125.481 Y103.666 E0.00944
G1 X125.602 Y103.457 E0.00757
G1 X125.861 Y103.209 E0.01125
G1 X126.112 Y103.093 E0.00866
G1 X126.387 Y103.101 E0.00864
G1 X126.558 Y103.168 E0.00575
G1 X126.702 Y103.260 E0.00535
G1 X126.834 Y103.380 E0.00561
G1 X126.932 Y103.521 E0.00535
G1 X127.005 Y103.860 E0.01087
G1 X126.961 Y104.283 E0.01334
G1 X126.654 Y104.876 E0.02094
G1 X126.283 Y105.489 E0.02247
G1 X126.209 Y105.709 E0.00728
G1 X126.245 Y105.852 E0.00460
G1 X126.970 Y107.062 E0.04425
G1 X127.102 Y107.423 E0.01203
G1 X127.119 Y107.725 E0.00950
G1 X127.051 Y108.013 E0.00928
G1 X126.893 Y108.250 E0.00891
G1 X126.670 Y108.411 E0.00861
G1 X126.401 Y108.495 E0.00885
G1 X126.115 Y108.497 E0.00895
G1 X125.916 Y108.440 E0.00651
G1 X125.704 Y108.294 E0.00808
G1 X125.586 Y108.157 E0.00567
G1 X125.492 Y107.991 E0.00596
G1 X125.381 Y107.649 E0.01128
G1 X125.357 Y107.476 E0.00548
G1 X125.321 Y107.409 E0.00239
G1 X125.114 Y107.328 E0.00698
G1 X125.103 Y107.303 E0.00086
G1 X124.967 Y107.364 E0.00466
G1 X124.918 Y107.462 E0.00346
G1 X124.904 Y107.572 E0.00347
G1 X124.798 Y107.889 E0.01047
G1 X124.685 Y108.098 E0.00747
G1 X124.505 Y108.311 E0.00872
G1 X124.266 Y108.436 E0.00846
G1 X123.985 Y108.450 E0.00884
G1 X123.732 Y108.368 E0.00833
G1 X123.582 Y108.253 E0.00594
G1 X123.452 Y108.105 E0.00619
G1 X123.379 Y107.870 E0.00772
G1 X123.372 Y107.673 E0.00617
G1 X123.491 Y107.066 E0.01938
G1 X123.801 Y106.355 E0.02435
G1 X123.926 Y106.133 E0.00797
G1 X124.191 Y105.767 E0.01416
G1 X123.962 Y105.418 E0.01308
G1 X123.392 Y104.392 E0.03680
G1 X123.295 Y104.101 E0.00961
G1 X123.278 Y103.758 E0.01079
G1 X123.372 Y103.494 E0.00878
G1 X123.549 Y103.288 E0.00851
G1 X123.795 Y103.144 E0.00893
G1 X124.100 Y103.078 E0.00981
G1 X124.207 Y103.086 E0.00336
G1 X124.382 Y102.957 F10800.000
G1 F8640.000
G1 X124.434 Y103.149 E-0.05425
G1 X124.587 Y103.238 E-0.04094
G1 X124.725 Y103.373 E-0.04452
G1 X124.920 Y103.704 E-0.08868
G1 X124.967 Y103.933 E-0.05416
G1 X125.051 Y104.114 E-0.04591
G1 X125.176 Y104.174 E-0.03215
G1 X125.244 Y104.012 E-0.04057
G1 X125.356 Y104.087 E-0.03098
G1 X125.412 Y103.959 E-0.03216
G1 X125.481 Y103.666 E-0.06953
G1 X125.602 Y103.457 E-0.05577
G1 X125.861 Y103.209 E-0.08285
G1 X126.112 Y103.093 E-0.06380
G1 X126.215 Y103.096 E-0.02373
G1 E-0.04000 F2100.00000
G1 Z0.600 F10800.000
G1 X122.946 Y106.643
G1 Z0.200
G1 E0.80000 F2100.00000
G1 F1200.000
G1 X123.043 Y107.002 E0.01167
G1 X123.039 Y107.241 E0.00747
G1 X122.943 Y107.911 E0.02123
G1 X122.907 Y108.047 E0.00441
G1 X122.732 Y108.346 E0.01088
G1 X122.526 Y108.531 E0.00867
G1 X122.309 Y108.663 E0.00798
G1 X122.060 Y108.743 E0.00817
G1 X121.690 Y108.772 E0.01164
G1 X121.327 Y108.697 E0.01162
G1 X121.093 Y108.589 E0.00808
G1 X120.888 Y108.438 E0.00799
G1 X120.723 Y108.247 E0.00792
G1 X120.594 Y108.021 E0.00814
G1 X120.516 Y107.656 E0.01170
G1 X120.615 Y107.048 E0.01933
G1 X120.689 Y106.845 E0.00676
G1 X120.799 Y106.657 E0.00684
G1 X121.214 Y106.213 E0.01906
G1 X121.537 Y106.038 E0.01150
G1 X121.792 Y105.990 E0.00815
G1 X122.045 Y105.996 E0.00794
G1 X122.293 Y106.059 E0.00802
G1 X122.525 Y106.175 E0.00813
G1 X122.723 Y106.340 E0.00809
G1 X122.910 Y106.595 E0.00990
G1 X123.316 Y106.681 F10800.000
G1 F8640.000
G1 X123.043 Y107.002 E-0.09899
G1 X123.039 Y107.241 E-0.05504
G1 X122.943 Y107.911 E-0.15634
G1 X122.907 Y108.047 E-0.03248
G1 X122.732 Y108.346 E-0.08011
G1 X122.526 Y108.531 E-0.06383
G1 X122.309 Y108.663 E-0.05880
G1 X122.060 Y108.743 E-0.06019
G1 X121.690 Y108.772 E-0.08574
G1 X121.400 Y108.712 E-0.06848
G1 E-0.04000 F2100.00000
G1 Z0.600 F10800.000
G1 X115.922 Y101.904
G1 Z0.200
G1 E0.80000 F2100.00000
G1 F1200.000
G1 X116.070 Y101.789 E0.00589
G1 X116.402 Y101.659 E0.01118
G1 X116.740 Y101.623 E0.01063
G1 X118.370 Y101.660 E0.05114
G1 X118.978 Y101.750 E0.01928
G1 X119.451 Y101.896 E0.01551
G1 X119.855 Y102.122 E0.01451
G1 X120.185 Y102.407 E0.01367
G1 X120.501 Y102.805 E0.01593
G1 X120.750 Y103.281 E0.01685
G1 X120.925 Y103.822 E0.01784
G1 X121.025 Y104.457 E0.02016
G1 X121.041 Y104.991 E0.01675
G1 X120.969 Y105.543 E0.01746
G1 X120.850 Y105.884 E0.01133
G1 X120.708 Y106.151 E0.00947
G1 X120.515 Y106.638 E0.01643
G1 X120.329 Y106.975 E0.01205
G1 X120.199 Y107.154 E0.00695
G1 X120.032 Y107.473 E0.01131
G1 X119.767 Y107.778 E0.01265
G1 X119.553 Y107.933 E0.00830
G1 X119.325 Y108.057 E0.00815
G1 X118.846 Y108.202 E0.01568
G1 X118.404 Y108.266 E0.01401
G1 X117.868 Y108.293 E0.01682
G1 X117.058 Y108.285 E0.02541
G1 X116.520 Y108.328 E0.01691
G1 X116.264 Y108.279 E0.00818
G1 X116.095 Y108.189 E0.00601
G1 X115.961 Y108.066 E0.00569
G1 X115.825 Y107.845 E0.00814
G1 X115.745 Y107.575 E0.00882
G1 X115.719 Y107.269 E0.00965
G1 X115.736 Y106.663 E0.01899
G1 X115.740 Y103.055 E0.11314
G1 X115.701 Y102.599 E0.01435
G1 X115.708 Y102.327 E0.00851
G1 X115.802 Y102.054 E0.00906
G1 X115.884 Y101.951 E0.00413
G1 X115.869 Y101.724 F10800.000
G1 F8640.000
G1 X116.070 Y101.789 E-0.05695
G1 X116.402 Y101.659 E-0.08231
G1 X116.740 Y101.623 E-0.07831
G1 X118.370 Y101.660 E-0.37660
G1 X118.978 Y101.750 E-0.14197
G1 X119.077 Y101.780 E-0.02386
G1 E-0.04000 F2100.00000
G1 Z0.600 F10800.000
G1 X111.539 Y103.590
G1 Z0.200
G1 E0.80000 F2100.00000
G1 F1200.000
G1 X111.353 Y103.520 E0.00624
G1 X111.181 Y103.381 E0.00694
G1 X111.003 Y103.183 E0.00833
G1 X110.902 Y102.982 E0.00707
G1 X110.883 Y102.574 E0.01280
G1 X110.957 Y102.269 E0.00984
G1 X111.065 Y102.094 E0.00644
G1 X111.281 Y101.899 E0.00912
G1 X111.557 Y101.716 E0.01039
G1 X111.889 Y101.582 E0.01124
G1 X112.247 Y101.500 E0.01151
G1 X112.624 Y101.463 E0.01188
G1 X113.015 Y101.466 E0.01226
G1 X113.315 Y101.498 E0.00945
G1 X113.667 Y101.574 E0.01130
G1 X113.893 Y101.654 E0.00752
G1 X114.189 Y101.814 E0.01053
G1 X114.365 Y101.950 E0.00697
G1 X114.525 Y102.110 E0.00711
G1 X114.710 Y102.373 E0.01009
G1 X114.829 Y102.659 E0.00970
G1 X114.873 Y102.865 E0.00661
G1 X114.886 Y103.080 E0.00674
G1 X114.880 Y103.322 E0.00761
G1 X114.760 Y103.842 E0.01672
G1 X114.636 Y104.031 E0.00708
G1 X114.462 Y104.174 E0.00707
G1 X114.332 Y104.317 E0.00606
G1 X114.119 Y104.455 E0.00797
G1 X114.002 Y104.508 E0.00403
G1 X114.319 Y104.651 E0.01091
G1 X114.495 Y104.818 E0.00762
G1 X114.621 Y104.893 E0.00457
G1 X114.795 Y105.056 E0.00748
G1 X115.000 Y105.488 E0.01500
G1 X115.102 Y105.880 E0.01271
G1 X115.134 Y106.114 E0.00741
G1 X115.111 Y106.565 E0.01414
G1 X114.983 Y107.027 E0.01503
G1 X114.816 Y107.372 E0.01201
G1 X114.528 Y107.761 E0.01519
G1 X114.352 Y107.931 E0.00766
G1 X113.958 Y108.199 E0.01497
G1 X113.734 Y108.302 E0.00772
G1 X113.283 Y108.425 E0.01465
G1 X112.882 Y108.465 E0.01263
G1 X112.448 Y108.458 E0.01363
G1 X112.053 Y108.403 E0.01248
G1 X111.724 Y108.311 E0.01071
G1 X111.432 Y108.181 E0.01003
G1 X111.187 Y108.007 E0.00942
G1 X110.991 Y107.780 E0.00940
G1 X110.870 Y107.533 E0.00862
G1 X110.808 Y107.243 E0.00929
G1 X110.826 Y106.947 E0.00931
G1 X110.930 Y106.679 E0.00901
G1 X111.112 Y106.475 E0.00858
G1 X111.272 Y106.376 E0.00591
G1 X111.445 Y106.311 E0.00578
G1 X111.728 Y106.272 E0.00896
G1 X112.075 Y106.321 E0.01098
G1 X112.334 Y106.437 E0.00891
G1 X112.747 Y106.737 E0.01599
G1 X112.825 Y106.757 E0.00254
G1 X112.942 Y106.732 E0.00375
G1 X113.068 Y106.658 E0.00458
G1 X113.160 Y106.555 E0.00432
G1 X113.217 Y106.424 E0.00448
G1 X113.231 Y106.279 E0.00456
G1 X113.198 Y106.130 E0.00480
G1 X113.102 Y105.951 E0.00637
G1 X112.990 Y105.822 E0.00535
G1 X112.854 Y105.714 E0.00544
G1 X112.704 Y105.638 E0.00527
G1 X112.519 Y105.585 E0.00604
G1 X112.095 Y105.509 E0.01350
G1 X111.852 Y105.414 E0.00818
G1 X111.650 Y105.243 E0.00830
G1 X111.553 Y105.075 E0.00608
G1 X111.501 Y104.899 E0.00577
G1 X111.492 Y104.711 E0.00590
G1 X111.526 Y104.517 E0.00617
G1 X111.620 Y104.258 E0.00862
G1 X111.738 Y104.078 E0.00676
G1 X111.896 Y103.963 E0.00614
G1 X112.098 Y103.865 E0.00702
G1 X112.693 Y103.693 E0.01944
G1 X112.782 Y103.641 E0.00324
G1 X112.910 Y103.498 E0.00601
G1 X112.935 Y103.413 E0.00278
G1 X112.902 Y103.267 E0.00467
G1 X112.820 Y103.198 E0.00337
G1 X112.671 Y103.191 E0.00470
G1 X112.494 Y103.242 E0.00576
G1 X112.277 Y103.367 E0.00786
G1 X111.940 Y103.524 E0.01166
G1 X111.732 Y103.584 E0.00680
G1 X111.599 Y103.588 E0.00417
G1 X111.410 Y103.741 F10800.000
G1 X111.382 Y103.934
G1 F1200.000
G1 X111.280 Y104.089 E0.00581
G1 X111.161 Y104.419 E0.01101
G1 X111.113 Y104.686 E0.00851
G1 X111.127 Y104.962 E0.00866
G1 X111.204 Y105.225 E0.00860
G1 X111.357 Y105.489 E0.00956
G1 X111.657 Y105.742 E0.01231
G1 X111.993 Y105.874 E0.01130
G1 X112.434 Y105.952 E0.01405
G1 X112.650 Y106.033 E0.00723
G1 X112.790 Y106.166 E0.00607
G1 X112.841 Y106.262 E0.00339
G1 X112.847 Y106.329 E0.00211
G1 X112.842 Y106.340 E0.00041
G1 X112.524 Y106.109 E0.01233
G1 X112.180 Y105.956 E0.01181
G1 X111.729 Y105.892 E0.01427
G1 X111.352 Y105.943 E0.01194
G1 X111.105 Y106.036 E0.00828
G1 X110.867 Y106.183 E0.00878
G1 X110.603 Y106.479 E0.01242
G1 X110.453 Y106.865 E0.01300
G1 X110.429 Y107.272 E0.01279
G1 X110.511 Y107.657 E0.01233
G1 X110.673 Y107.990 E0.01160
G1 X110.932 Y108.288 E0.01238
G1 X111.244 Y108.510 E0.01201
G1 X111.596 Y108.667 E0.01207
G1 X111.976 Y108.773 E0.01239
G1 X112.419 Y108.834 E0.01400
G1 X112.898 Y108.842 E0.01502
G1 X113.352 Y108.797 E0.01430
G1 X113.863 Y108.657 E0.01661
G1 X114.135 Y108.533 E0.00938
G1 X114.376 Y108.386 E0.00885
G1 X114.598 Y108.218 E0.00875
G1 X114.813 Y108.011 E0.00935
G1 X115.140 Y107.567 E0.01729
G1 X115.345 Y107.129 E0.01516
G1 X115.372 Y107.646 E0.01622
G1 X115.478 Y108.000 E0.01159
G1 X115.667 Y108.309 E0.01136
G1 X115.875 Y108.499 E0.00884
G1 X116.136 Y108.639 E0.00930
G1 X116.499 Y108.708 E0.01158
G1 X117.071 Y108.663 E0.01797
G1 X117.876 Y108.671 E0.02525
G1 X118.441 Y108.642 E0.01773
G1 X118.928 Y108.571 E0.01544
G1 X119.471 Y108.407 E0.01777
G1 X119.755 Y108.253 E0.01013
G1 X120.024 Y108.057 E0.01042
G1 X120.178 Y107.879 E0.00739
G1 X120.238 Y108.157 E0.00891
G1 X120.414 Y108.465 E0.01112
G1 X120.630 Y108.717 E0.01041
G1 X120.900 Y108.915 E0.01050
G1 X121.208 Y109.058 E0.01064
G1 X121.666 Y109.152 E0.01466
G1 X122.134 Y109.116 E0.01470
G1 X122.467 Y109.009 E0.01097
G1 X122.752 Y108.835 E0.01048
G1 X123.027 Y108.587 E0.01160
G1 X123.166 Y108.351 E0.00859
G1 X123.323 Y108.530 E0.00747
G1 X123.554 Y108.707 E0.00915
G1 X123.935 Y108.830 E0.01252
G1 X124.368 Y108.809 E0.01361
G1 X124.746 Y108.610 E0.01337
G1 X124.998 Y108.312 E0.01224
G1 X125.124 Y108.080 E0.00831
G1 X125.276 Y108.374 E0.01040
G1 X125.449 Y108.577 E0.00835
G1 X125.753 Y108.786 E0.01157
G1 X126.064 Y108.874 E0.01014
G1 X126.460 Y108.871 E0.01241
G1 X126.842 Y108.752 E0.01253
G1 X127.169 Y108.516 E0.01266
G1 X127.403 Y108.166 E0.01318
G1 X127.499 Y107.758 E0.01314
G1 X127.475 Y107.346 E0.01295
G1 X127.312 Y106.900 E0.01489
G1 X126.599 Y105.709 E0.04353
G1 X126.983 Y105.061 E0.02361
G1 X127.131 Y104.775 E0.01009
G1 X128.001 Y107.095 E0.07769
G1 X128.265 Y107.716 E0.02115
G1 X128.076 Y108.118 E0.01393
G1 X127.866 Y108.670 E0.01851
G1 X127.797 Y108.784 E0.00417
G1 X127.752 Y108.821 E0.00185
G1 X127.264 Y108.967 E0.01595
G1 X127.033 Y109.075 E0.00799
G1 X126.737 Y109.323 E0.01212
G1 X126.553 Y109.687 E0.01277
G1 X126.509 Y109.992 E0.00965
G1 X126.549 Y110.372 E0.01198
G1 X126.739 Y110.813 E0.01507
G1 X126.913 Y111.030 E0.00872
G1 X127.119 Y111.204 E0.00847
G1 X127.380 Y111.335 E0.00915
G1 X127.741 Y111.409 E0.01154
G1 X128.098 Y111.393 E0.01122
G1 X128.366 Y111.341 E0.00856
G1 X128.760 Y111.214 E0.01297
G1 X129.123 Y111.034 E0.01270
G1 X129.511 Y110.721 E0.01561
G1 X129.749 Y110.417 E0.01213
G1 X129.897 Y110.167 E0.00911
G1 X130.190 Y109.522 E0.02220
G1 X130.575 Y108.530 E0.03337
G1 X131.536 Y105.844 E0.08945
G1 X131.867 Y104.788 E0.03468
G1 X131.922 Y104.855 E0.00271
