; generated by PrusaSlicer 2.2.0+win64 on 2021-02-28 at 05:39:13 UTC

; 

; external perimeters extrusion width = 0.61mm
; perimeters extrusion width = 0.65mm
; infill extrusion width = 0.70mm
; solid infill extrusion width = 0.65mm
; top infill extrusion width = 0.60mm
; first layer extrusion width = 0.65mm

M73 P0 R22
M201 X9000 Y9000 Z500 E10000 ; sets maximum accelerations, mm/sec^2
M203 X500 Y500 Z12 E120 ; sets maximum feedrates, mm/sec
M204 P2000 R1500 T2000 ; sets acceleration (P, T) and retract acceleration (R), mm/sec^2
M205 X10.00 Y10.00 Z0.20 E4.50 ; sets the jerk limits, mm/sec
M205 S0 T0 ; sets the minimum extruding and travel feed rate, mm/sec
M107
M862.3 P "MK2.5S" ; printer model check
M862.1 P0.6 ; nozzle diameter check
M115 U3.9.3 ; tell printer latest fw version
G90 ; use absolute coordinates
M83 ; extruder relative mode
M104 S230 ; set extruder temp
M140 S85 ; set bed temp
M190 S85 ; wait for bed temp
M109 S230 ; wait for extruder temp
G28 W ; home all without mesh bed level
G80 ; mesh bed leveling
G1 Y-3.0 F1000.0 ; go outside print area
G92 E0.0
G1 X60.0 E9.0 F1000.0 ; intro line
M73 P0 R22
G1 X100.0 E12.5 F1000.0 ; intro line
G92 E0.0
G21 ; set units to millimeters
G90 ; use absolute coordinates
M83 ; use relative distances for extrusion
M900 K0.04 ; Filament gcode LA 1.5
M900 K24 ; Filament gcode LA 1.0
;BEFORE_LAYER_CHANGE
G92 E0.0
;0.2


G1 E-1.40000 F2100.00000
G1 Z0.200 F10800.000
;AFTER_LAYER_CHANGE
;0.2
G1 Z0.400
G1 X111.654 Y86.781
G1 Z0.200
G1 E1.40000 F2100.00000
M204 S1000
G1 F1200.000
G1 X112.046 Y86.279 E0.03214
G1 X112.548 Y85.888 E0.03214
G1 X113.130 Y85.630 E0.03214
G1 X113.753 Y85.521 E0.03194
G1 X136.116 Y85.518 E1.12886
G1 X137.078 Y85.703 E0.04944
G1 X137.904 Y86.230 E0.04944
G1 X138.476 Y87.025 E0.04944
G1 X138.715 Y87.975 E0.04944
G1 X138.719 Y121.113 E1.67279
G1 X138.589 Y122.013 E0.04591
G1 X138.262 Y122.782 E0.04216
G1 X137.728 Y123.481 E0.04441
G1 X137.027 Y124.020 E0.04464
G1 X136.290 Y124.340 E0.04055
G1 X135.448 Y124.479 E0.04311
G1 X114.629 Y124.482 E1.05088
G1 X113.744 Y124.350 E0.04520
G1 X112.983 Y124.026 E0.04174
G1 X112.277 Y123.486 E0.04484
G1 X111.736 Y122.779 E0.04493
G1 X111.418 Y122.038 E0.04075
G1 X111.282 Y121.174 E0.04411
G1 X111.281 Y88.097 E1.66972
G1 X111.379 Y87.416 E0.03473
G1 X111.618 Y86.863 E0.03039
; printing object feet prusa mk2 tall.STL id:0 copy 0
G1 F8640.000
G1 X112.046 Y86.279 E-0.16719
G1 X112.548 Y85.888 E-0.14700
G1 X113.130 Y85.630 E-0.14700
G1 X113.753 Y85.521 E-0.14609
G1 X116.883 Y85.521 E-0.72271
G1 E-0.07000 F2100.00000
G1 Z0.400 F10800.000
G1 X115.020 Y89.257
G1 Z0.200
G1 E1.40000 F2100.00000
G1 F1200.000
G1 X134.980 Y89.257 E1.00760
G1 X134.980 Y120.743 E1.58938
G1 X130.739 Y120.743 E0.21411
G1 X130.915 Y120.264 E0.02577
G1 X131.104 Y119.256 E0.05175
G1 X131.123 Y118.232 E0.05175
G1 X130.971 Y117.218 E0.05175
G1 X130.652 Y116.244 E0.05175
G1 X130.175 Y115.336 E0.05175
G1 X129.554 Y114.520 E0.05175
G1 X128.806 Y113.820 E0.05175
G1 X127.951 Y113.253 E0.05175
G1 X127.015 Y112.837 E0.05175
G1 X126.022 Y112.582 E0.05175
G1 X125.000 Y112.497 E0.05175
G1 X123.978 Y112.582 E0.05175
G1 X122.985 Y112.837 E0.05175
G1 X122.049 Y113.253 E0.05175
G1 X121.194 Y113.820 E0.05175
G1 X120.446 Y114.520 E0.05175
G1 X119.825 Y115.336 E0.05175
G1 X119.348 Y116.244 E0.05175
G1 X119.029 Y117.218 E0.05175
G1 X118.877 Y118.232 E0.05175
G1 X118.896 Y119.256 E0.05175
G1 X119.085 Y120.264 E0.05175
G1 X119.261 Y120.743 E0.02577
G1 X115.020 Y120.743 E0.21411
G1 X115.020 Y89.347 E1.58484
G1 X114.412 Y88.650 F10800.000
G1 F1200.000
G1 X135.588 Y88.650 E1.06889
G1 X135.588 Y121.048 E1.63545
G1 X135.570 Y121.163 E0.00587
G1 X135.526 Y121.248 E0.00480
G1 X135.428 Y121.324 E0.00628
G1 X135.286 Y121.350 E0.00730
G1 X130.286 Y121.350 E0.25239
G1 X130.164 Y121.330 E0.00624
G1 X130.075 Y121.281 E0.00510
G1 X130.008 Y121.184 E0.00597
G1 X129.985 Y121.054 E0.00665
G1 X130.328 Y120.102 E0.05108
G1 X130.498 Y119.195 E0.04661
G1 X130.515 Y118.271 E0.04661
G1 X130.378 Y117.358 E0.04661
G1 X130.091 Y116.481 E0.04661
G1 X129.661 Y115.663 E0.04661
G1 X129.102 Y114.929 E0.04661
G1 X128.428 Y114.298 E0.04661
G1 X127.658 Y113.787 E0.04661
G1 X126.815 Y113.412 E0.04661
G1 X125.920 Y113.183 E0.04661
G1 X125.000 Y113.106 E0.04661
G1 X124.080 Y113.183 E0.04661
G1 X123.185 Y113.412 E0.04661
G1 X122.342 Y113.787 E0.04661
G1 X121.572 Y114.298 E0.04661
G1 X120.898 Y114.929 E0.04661
G1 X120.339 Y115.663 E0.04661
G1 X119.909 Y116.481 E0.04661
G1 X119.622 Y117.358 E0.04661
G1 X119.485 Y118.271 E0.04661
G1 X119.502 Y119.195 E0.04661
G1 X119.672 Y120.102 E0.04661
G1 X120.012 Y121.041 E0.05040
G1 X119.999 Y121.172 E0.00667
G1 X119.924 Y121.281 E0.00668
G1 X119.836 Y121.330 E0.00509
G1 X119.714 Y121.350 E0.00624
G1 X114.702 Y121.350 E0.25301
G1 X114.561 Y121.317 E0.00729
G1 X114.474 Y121.248 E0.00562
G1 X114.430 Y121.163 E0.00480
G1 X114.412 Y121.048 E0.00587
G1 X114.412 Y88.740 E1.63090
G1 X114.932 Y88.950 F10800.000
G1 F8640.000
G1 X120.172 Y88.715 E-1.33000
G1 E-0.07000 F2100.00000
G1 Z0.400 F10800.000
G1 X134.798 Y90.671
G1 Z0.200
G1 E1.40000 F2100.00000
G1 F1200.000
G1 X133.840 Y89.712 E0.06869
G1 X132.978 Y89.712 E0.04366
G1 X134.525 Y91.259 E0.11086
G1 X134.525 Y92.121 E0.04366
G1 X132.116 Y89.712 E0.17260
G1 X131.255 Y89.712 E0.04366
G1 X134.525 Y92.983 E0.23434
G1 X134.525 Y93.845 E0.04366
G1 X130.393 Y89.712 E0.29608
G1 X129.531 Y89.712 E0.04366
G1 X134.525 Y94.706 E0.35782
G1 X134.525 Y95.568 E0.04366
G1 X128.669 Y89.712 E0.41956
G1 X127.808 Y89.712 E0.04366
G1 X134.525 Y96.430 E0.48130
G1 X134.525 Y97.291 E0.04366
G1 X126.946 Y89.712 E0.54304
G1 X126.084 Y89.712 E0.04366
G1 X134.525 Y98.153 E0.60478
G1 X134.525 Y99.015 E0.04366
G1 X125.223 Y89.712 E0.66652
G1 X124.361 Y89.712 E0.04366
G1 X134.525 Y99.876 E0.72826
G1 X134.525 Y100.738 E0.04366
G1 X123.499 Y89.712 E0.79000
G1 X122.638 Y89.712 E0.04366
G1 X134.525 Y101.600 E0.85174
G1 X134.525 Y102.461 E0.04366
G1 X121.776 Y89.712 E0.91348
G1 X120.914 Y89.712 E0.04366
G1 X134.525 Y103.323 E0.97522
G1 X134.525 Y104.185 E0.04366
G1 X120.052 Y89.712 E1.03696
G1 X119.191 Y89.712 E0.04366
G1 X134.525 Y105.047 E1.09870
G1 X134.525 Y105.908 E0.04366
G1 X118.329 Y89.712 E1.16045
G1 X117.467 Y89.712 E0.04366
G1 X134.525 Y106.770 E1.22219
G1 X134.525 Y107.632 E0.04366
G1 X116.606 Y89.712 E1.28393
G1 X115.744 Y89.712 E0.04366
G1 X134.525 Y108.493 E1.34567
G1 X134.525 Y109.355 E0.04366
G1 X115.475 Y90.305 E1.36495
G1 X115.475 Y91.166 E0.04366
G1 X134.525 Y110.217 E1.36495
G1 X134.525 Y111.078 E0.04366
G1 X115.475 Y92.028 E1.36495
G1 X115.475 Y92.890 E0.04366
G1 X134.525 Y111.940 E1.36495
G1 X134.525 Y112.802 E0.04366
G1 X115.475 Y93.752 E1.36495
G1 X115.475 Y94.613 E0.04366
G1 X134.525 Y113.663 E1.36495
G1 X134.525 Y114.525 E0.04366
G1 X115.475 Y95.475 E1.36495
G1 X115.475 Y96.337 E0.04366
G1 X134.525 Y115.387 E1.36495
G1 X134.525 Y116.249 E0.04366
G1 X115.475 Y97.198 E1.36495
G1 X115.475 Y98.060 E0.04366
G1 X134.525 Y117.110 E1.36495
G1 X134.525 Y117.972 E0.04366
G1 X115.475 Y98.922 E1.36495
G1 X115.475 Y99.783 E0.04366
G1 X134.525 Y118.834 E1.36495
G1 X134.525 Y119.695 E0.04366
G1 X131.159 Y116.329 E0.24120
G1 X131.415 Y117.112 E0.04176
G1 X131.474 Y117.506 E0.02018
G1 X134.256 Y120.288 E0.19929
G1 X133.394 Y120.288 E0.04366
G1 X131.574 Y118.468 E0.13042
G1 X131.557 Y119.312 E0.04281
G1 X132.532 Y120.288 E0.06989
G1 X131.671 Y120.288 E0.04366
G1 X131.187 Y119.804 E0.03467
G1 F8640.000
G1 X131.671 Y120.288 E-0.15802
G1 X132.532 Y120.288 E-0.19897
G1 X131.557 Y119.312 E-0.31853
G1 X131.574 Y118.468 E-0.19509
G1 X132.981 Y119.874 E-0.45940
G1 E-0.07000 F2100.00000
G1 Z0.400 F10800.000
G1 X127.830 Y113.000
G1 Z0.200
G1 E1.40000 F2100.00000
G1 F1200.000
G1 X115.475 Y100.645 E0.88522
G1 X115.475 Y101.507 E0.04366
G1 X126.101 Y112.133 E0.76135
G1 X125.160 Y112.053 E0.04785
G1 X115.475 Y102.368 E0.69392
G1 X115.475 Y103.230 E0.04366
G1 X124.340 Y112.095 E0.63518
G1 X123.902 Y112.132 E0.02225
G1 X123.594 Y112.211 E0.01613
M73 P4 R21
G1 X115.475 Y104.092 E0.58173
G1 X115.475 Y104.954 E0.04366
G1 X122.908 Y112.387 E0.53259
G1 X122.302 Y112.642 E0.03333
G1 X115.475 Y105.815 E0.48917
G1 X115.475 Y106.677 E0.04366
G1 X121.722 Y112.924 E0.44758
G1 X121.203 Y113.267 E0.03150
G1 X115.475 Y107.539 E0.41045
G1 X115.475 Y108.400 E0.04366
G1 X120.717 Y113.643 E0.37561
G1 X120.272 Y114.059 E0.03089
G1 X115.475 Y109.262 E0.34373
G1 X115.475 Y110.124 E0.04366
G1 X119.873 Y114.522 E0.31511
G1 X119.500 Y115.011 E0.03115
G1 X115.475 Y110.985 E0.28842
G1 X115.475 Y111.847 E0.04366
G1 X119.191 Y115.563 E0.26627
G1 X118.904 Y116.138 E0.03254
G1 X115.475 Y112.709 E0.24568
G1 X115.475 Y113.570 E0.04366
G1 X118.691 Y116.787 E0.23046
G1 X118.585 Y117.112 E0.01735
G1 X118.529 Y117.486 E0.01914
G1 X115.475 Y114.432 E0.21880
G1 X115.475 Y115.294 E0.04366
G1 X118.422 Y118.241 E0.21115
G1 X118.438 Y119.119 E0.04447
G1 X115.475 Y116.156 E0.21230
G1 X115.475 Y117.017 E0.04366
G1 X118.598 Y120.141 E0.22380
G1 X118.626 Y120.288 E0.00758
G1 X117.884 Y120.288 E0.03761
G1 X115.475 Y117.879 E0.17259
G1 X115.475 Y118.741 E0.04366
G1 X117.022 Y120.288 E0.11085
G1 X116.160 Y120.288 E0.04366
G1 X115.202 Y119.329 E0.06869
; stop printing object feet prusa mk2 tall.STL id:0 copy 0
;BEFORE_LAYER_CHANGE
G92 E0.0
;0.55


G1 F8640.000
G1 X116.160 Y120.288 E-0.31303
G1 X117.022 Y120.288 E-0.19897
G1 X115.475 Y118.741 E-0.50521
G1 X115.475 Y117.879 E-0.19897
G1 X115.823 Y118.228 E-0.11382
G1 E-0.07000 F2100.00000
G1 Z0.400 F10800.000
G1 Z0.550
;AFTER_LAYER_CHANGE
;0.55
M104 S240 ; set temperature
M140 S90 ; set bed temperature
G1 Z0.750
G1 X137.078 Y85.703
G1 Z0.550
G1 E1.40000 F2100.00000
G1 F2385.552
G1 X137.904 Y86.230 E0.08193
G1 X138.476 Y87.025 E0.08193
G1 X138.715 Y87.975 E0.08193
G1 X138.719 Y121.113 E2.77216
G1 X138.589 Y122.013 E0.07608
G1 X138.262 Y122.782 E0.06986
G1 X137.728 Y123.481 E0.07359
G1 X137.027 Y124.020 E0.07398
G1 X136.290 Y124.340 E0.06719
G1 X135.448 Y124.479 E0.07144
G1 X114.629 Y124.482 E1.74152
G1 X113.744 Y124.350 E0.07491
G1 X112.983 Y124.026 E0.06918
G1 X112.277 Y123.486 E0.07430
G1 X111.736 Y122.779 E0.07446
G1 X111.418 Y122.038 E0.06752
G1 X111.282 Y121.174 E0.07309
G1 X111.281 Y88.097 E2.76706
G1 X111.379 Y87.416 E0.05756
G1 X111.654 Y86.781 E0.05789
G1 X112.046 Y86.279 E0.05326
G1 X112.548 Y85.888 E0.05326
G1 X113.130 Y85.630 E0.05326
G1 X113.753 Y85.521 E0.05293
G1 X136.116 Y85.518 E1.87075
G1 X136.990 Y85.686 E0.07440
; printing object feet prusa mk2 tall.STL id:0 copy 0
G1 F8640.000
G1 X137.904 Y86.230 E-0.24559
G1 X138.476 Y87.025 E-0.22615
G1 X138.715 Y87.975 E-0.22615
G1 X138.716 Y90.712 E-0.63210
G1 E-0.07000 F2100.00000
G1 Z0.750 F10800.000
G1 X135.253 Y88.985
G1 Z0.550
G1 E1.40000 F2100.00000
M204 S800
G1 F2385.552
G1 X135.253 Y121.006 E2.67869
G1 X130.349 Y121.015 E0.41023
G1 X130.652 Y120.191 E0.07342
G1 X130.833 Y119.229 E0.08194
G1 X130.850 Y118.249 E0.08194
G1 X130.705 Y117.281 E0.08194
G1 X130.400 Y116.350 E0.08194
G1 X129.945 Y115.483 E0.08194
G1 X129.351 Y114.703 E0.08194
G1 X128.636 Y114.034 E0.08194
G1 X127.820 Y113.493 E0.08194
G1 X126.925 Y113.095 E0.08194
G1 X125.976 Y112.852 E0.08194
G1 X125.000 Y112.770 E0.08194
G1 X124.024 Y112.852 E0.08194
G1 X123.075 Y113.095 E0.08194
G1 X122.180 Y113.493 E0.08194
G1 X121.364 Y114.034 E0.08194
G1 X120.649 Y114.703 E0.08194
G1 X120.055 Y115.484 E0.08204
G1 X119.595 Y116.364 E0.08310
G1 X119.295 Y117.281 E0.08066
G1 X119.150 Y118.249 E0.08194
G1 X119.167 Y119.229 E0.08194
G1 X119.348 Y120.191 E0.08194
G1 X119.651 Y121.015 E0.07344
G1 X114.748 Y121.015 E0.41021
G1 X114.747 Y88.985 E2.67948
G1 X135.163 Y88.985 E1.70781
M204 S1000
G1 X135.808 Y88.430 F10800.000
M204 S800
G1 F2400.000
G1 X135.808 Y121.057 E2.53951
G1 X135.780 Y121.231 E0.01370
G1 X135.711 Y121.366 E0.01181
G1 X135.551 Y121.510 E0.01675
G1 X135.394 Y121.560 E0.01278
G1 X130.276 Y121.570 E0.39836
G1 X130.092 Y121.539 E0.01455
G1 X129.939 Y121.455 E0.01357
G1 X129.798 Y121.259 E0.01881
G1 X129.768 Y121.019 E0.01881
G1 X130.115 Y120.043 E0.08061
G1 X130.279 Y119.172 E0.06900
G1 X130.295 Y118.286 E0.06900
G1 X130.163 Y117.409 E0.06900
G1 X129.887 Y116.567 E0.06900
G1 X129.475 Y115.782 E0.06900
G1 X128.938 Y115.077 E0.06900
G1 X128.291 Y114.471 E0.06900
G1 X127.552 Y113.981 E0.06900
G1 X126.742 Y113.621 E0.06900
G1 X125.883 Y113.401 E0.06900
G1 X125.000 Y113.327 E0.06900
G1 X124.117 Y113.401 E0.06900
G1 X123.258 Y113.621 E0.06900
G1 X122.448 Y113.981 E0.06900
G1 X121.709 Y114.471 E0.06900
G1 X121.062 Y115.077 E0.06900
G1 X120.525 Y115.782 E0.06903
G1 X120.108 Y116.581 E0.07008
G1 X119.837 Y117.409 E0.06787
G1 X119.705 Y118.286 E0.06900
G1 X119.721 Y119.172 E0.06900
G1 X119.885 Y120.043 E0.06900
G1 X120.232 Y121.019 E0.08061
G1 X120.202 Y121.259 E0.01882
G1 X120.061 Y121.455 E0.01883
G1 X119.908 Y121.539 E0.01354
G1 X119.724 Y121.570 E0.01457
G1 X114.693 Y121.570 E0.39152
G1 X114.617 Y121.564 E0.00595
G1 X114.405 Y121.482 E0.01770
G1 X114.289 Y121.366 E0.01276
G1 X114.220 Y121.231 E0.01181
G1 X114.192 Y121.057 E0.01370
G1 X114.192 Y88.430 E2.53951
G1 X135.718 Y88.430 E1.67536
M204 S1000
G1 X135.691 Y89.018 F10800.000
G1 F8640.000
G1 X135.733 Y94.190 E-1.33000
G1 E-0.07000 F2100.00000
G1 Z0.750 F10800.000
G1 X116.099 Y89.157
G1 Z0.550
G1 E1.40000 F2100.00000
M204 S2000
G1 F2351.957
G1 X115.179 Y90.078 E0.11048
G1 X115.179 Y90.903 E0.06997
G1 X116.665 Y89.416 E0.17839
G1 X117.490 Y89.416 E0.06997
G1 X115.179 Y91.727 E0.27734
G1 X115.179 Y92.552 E0.06997
G1 X118.314 Y89.416 E0.37629
G1 X119.139 Y89.416 E0.06997
G1 X115.179 Y93.376 E0.47524
G1 X115.179 Y94.201 E0.06997
G1 X119.964 Y89.416 E0.57419
G1 X120.788 Y89.416 E0.06997
G1 X115.179 Y95.026 E0.67314
G1 X115.179 Y95.850 E0.06997
G1 X121.613 Y89.416 E0.77209
G1 X122.438 Y89.416 E0.06997
G1 X115.179 Y96.675 E0.87104
G1 X115.179 Y97.500 E0.06997
G1 X123.262 Y89.416 E0.96999
G1 X124.087 Y89.416 E0.06997
G1 X115.179 Y98.324 E1.06894
G1 X115.179 Y99.149 E0.06997
G1 X124.912 Y89.416 E1.16789
G1 X125.736 Y89.416 E0.06997
G1 X115.179 Y99.973 E1.26684
G1 X115.179 Y100.798 E0.06997
G1 X126.561 Y89.416 E1.36579
G1 X127.385 Y89.416 E0.06997
G1 X115.179 Y101.623 E1.46474
G1 X115.179 Y102.447 E0.06997
G1 X128.210 Y89.416 E1.56369
G1 X129.035 Y89.416 E0.06997
G1 X115.179 Y103.272 E1.66264
G1 X115.179 Y104.097 E0.06997
G1 X129.859 Y89.416 E1.76159
G1 X130.684 Y89.416 E0.06997
G1 X115.179 Y104.921 E1.86054
G1 X115.179 Y105.746 E0.06997
G1 X131.509 Y89.416 E1.95949
G1 X132.333 Y89.416 E0.06997
G1 X115.179 Y106.570 E2.05844
G1 X115.179 Y107.395 E0.06997
G1 X133.158 Y89.416 E2.15739
G1 X133.982 Y89.416 E0.06997
G1 X115.179 Y108.220 E2.25634
G1 X115.179 Y109.044 E0.06997
G1 X134.807 Y89.416 E2.35529
G1 X134.821 Y89.416 E0.00122
G1 X134.821 Y90.226 E0.06875
G1 X115.179 Y109.869 E2.35702
G1 X115.179 Y110.694 E0.06997
G1 X134.821 Y91.051 E2.35702
G1 X134.821 Y91.875 E0.06997
G1 X115.179 Y111.518 E2.35701
G1 X115.179 Y112.343 E0.06997
G1 X134.821 Y92.700 E2.35701
G1 X134.821 Y93.525 E0.06997
G1 X115.179 Y113.167 E2.35701
G1 X115.179 Y113.992 E0.06997
G1 X134.821 Y94.349 E2.35701
G1 X134.821 Y95.174 E0.06997
G1 X115.179 Y114.817 E2.35701
G1 X115.179 Y115.641 E0.06997
G1 X134.821 Y95.999 E2.35701
G1 X134.821 Y96.823 E0.06997
G1 X115.179 Y116.466 E2.35701
G1 X115.179 Y117.291 E0.06997
G1 X134.821 Y97.648 E2.35701
G1 X134.821 Y98.472 E0.06997
G1 X115.179 Y118.115 E2.35701
G1 X115.179 Y118.940 E0.06997
G1 X134.821 Y99.297 E2.35701
G1 X134.821 Y100.122 E0.06997
G1 X114.920 Y120.023 E2.38805
M204 S1000
G1 F8640.000
G1 X118.993 Y115.950 E-1.33000
G1 E-0.07000 F2100.00000
G1 Z0.750 F10800.000
G1 X118.224 Y120.843
G1 Z0.550
G1 E1.40000 F2100.00000
M204 S2000
G1 F2351.957
G1 X118.904 Y120.162 E0.08164
G1 X118.774 Y119.468 E0.05994
G1 X117.658 Y120.584 E0.13392
G1 X116.833 Y120.584 E0.06997
G1 X118.726 Y118.691 E0.22721
G1 X118.718 Y118.221 E0.03984
G1 X118.779 Y117.813 E0.03499
G1 X116.008 Y120.584 E0.33248
G1 X115.184 Y120.584 E0.06997
G1 X119.419 Y116.349 E0.50816
M204 S1000
G1 F8640.000
G1 X115.346 Y120.422 E-1.33000
G1 E-0.07000 F2100.00000
G1 Z0.750 F10800.000
G1 X122.691 Y113.077
G1 Z0.550
