; generated by PrusaSlicer 2.2.0+win64 on 2021-02-24 at 05:08:40 UTC

; 

; external perimeters extrusion width = 0.45mm
; perimeters extrusion width = 0.45mm
; infill extrusion width = 0.45mm
; solid infill extrusion width = 0.45mm
; top infill extrusion width = 0.40mm
; support material extrusion width = 0.35mm
; first layer extrusion width = 0.42mm

M73 P0 R103
M73 Q0 S104
M201 X1000 Y1000 Z200 E5000 ; sets maximum accelerations, mm/sec^2
M203 X200 Y200 Z12 E120 ; sets maximum feedrates, mm/sec
M204 P1250 R1250 T1250 ; sets acceleration (P, T) and retract acceleration (R), mm/sec^2
M205 X8.00 Y8.00 Z0.40 E4.50 ; sets the jerk limits, mm/sec
M205 S0 T0 ; sets the minimum extruding and travel feed rate, mm/sec
M107
M862.3 P "MK3S" ; printer model check
M862.1 P0.4 ; nozzle diameter check
M115 U3.9.3 ; tell printer latest fw version
G90 ; use absolute coordinates
M83 ; extruder relative mode
M104 S230 ; set extruder temp
M140 S85 ; set bed temp
M190 S85 ; wait for bed temp
M109 S230 ; wait for extruder temp
G28 W ; home all without mesh bed level
G80 ; mesh bed leveling
G1 Y-3.0 F1000.0 ; go outside print area
G92 E0.0
G1 X60.0 E9.0 F1000.0 ; intro line
M73 Q0 S104
M73 P0 R103
G1 X100.0 E12.5 F1000.0 ; intro line
G92 E0.0
M221 S95

; Don't change E values below. Excessive value can damage the printer.
M907 E430 ; set extruder motor current
G21 ; set units to millimeters
G90 ; use absolute coordinates
M83 ; use relative distances for extrusion
M900 K0.08 ; Filament gcode LA 1.5
M900 K45 ; Filament gcode LA 1.0
;BEFORE_LAYER_CHANGE
G92 E0.0
;0.2


G1 E-1.40000 F2100.00000
G1 Z0.200 F10800.000
;AFTER_LAYER_CHANGE
;0.2
G1 Z0.400
G1 X52.687 Y5.950
G1 Z0.200
G1 E1.40000 F2100.00000
M204 S1000
G1 F1200.000
G1 X53.323 Y5.787 E0.02060
G1 X148.583 Y5.772 E2.98680
G1 X157.227 Y7.226 E0.27484
G1 X158.768 Y8.050 E0.05480
G1 X161.262 Y10.550 E0.11070
G1 X164.532 Y15.241 E0.17930
G1 X179.812 Y44.942 E1.04728
G1 X214.967 Y130.006 E2.88592
G1 X216.308 Y133.583 E0.11976
G1 X217.642 Y137.585 E0.13228
G1 X218.982 Y142.501 E0.15974
G1 X219.894 Y147.074 E0.14620
G1 X220.346 Y150.759 E0.11642
G1 X220.349 Y157.788 E0.22038
G1 X219.872 Y160.830 E0.09656
G1 X219.400 Y162.732 E0.06144
G1 X217.530 Y168.314 E0.18457
G1 X216.130 Y171.108 E0.09800
G1 X214.780 Y173.359 E0.08229
G1 X213.803 Y174.820 E0.05510
G1 X209.210 Y179.447 E0.20442
G1 X206.246 Y181.469 E0.11250
G1 X203.961 Y182.841 E0.08358
G1 X201.394 Y183.888 E0.08693
G1 X198.554 Y184.824 E0.09375
G1 X111.589 Y204.818 E2.79787
G1 X109.469 Y204.842 E0.06649
G1 X108.861 Y204.746 E0.01929
G1 X63.858 Y190.744 E1.47774
G1 X62.819 Y190.223 E0.03643
G1 X62.410 Y189.933 E0.01574
G1 X61.681 Y189.183 E0.03279
G1 X61.322 Y188.515 E0.02378
G1 X37.446 Y116.018 E2.39319
G1 X36.952 Y114.064 E0.06321
G1 X36.478 Y111.652 E0.07708
G1 X36.462 Y103.129 E0.26721
G1 X36.904 Y78.241 E0.78048
G1 X39.081 Y54.728 E0.74040
G1 X43.858 Y18.245 E1.15366
G1 X44.054 Y17.570 E0.02201
G1 X45.520 Y14.667 E0.10199
G1 X49.986 Y8.414 E0.24092
G1 X52.120 Y6.281 E0.09459
G1 X52.635 Y5.980 E0.01871
; printing object katswol.stl id:0 copy 0
G1 F8640.000
G1 X53.323 Y5.787 E-0.16504
G1 X58.368 Y5.786 E-1.16496
G1 E-0.07000 F2100.00000
G1 Z0.400 F10800.000
G1 X142.880 Y100.042
G1 Z0.200
G1 E1.40000 F2100.00000
G1 F1200.000
G1 X142.998 Y100.042 E0.00370
G1 X142.998 Y100.160 E0.00369
G1 X142.880 Y100.160 E0.00370
G1 X142.880 Y100.102 E0.00181
G1 X143.314 Y99.726 F10800.000
G1 F1200.000
G1 X143.314 Y99.608 E0.00369
G1 X143.432 Y99.608 E0.00369
G1 X143.432 Y99.726 E0.00369
G1 X143.374 Y99.726 E0.00181
G1 X143.748 Y99.292 F10800.000
G1 F1200.000
G1 X143.748 Y99.175 E0.00369
G1 X143.866 Y99.175 E0.00369
G1 X143.866 Y99.292 E0.00369
G1 X143.808 Y99.292 E0.00181
G1 X144.182 Y98.859 F10800.000
G1 F1200.000
G1 X144.182 Y98.741 E0.00369
G1 X144.299 Y98.741 E0.00369
G1 X144.299 Y98.859 E0.00369
G1 X144.242 Y98.859 E0.00181
G1 X144.615 Y98.425 F10800.000
G1 F1200.000
G1 X144.615 Y98.307 E0.00369
G1 X144.733 Y98.307 E0.00369
G1 X144.733 Y98.425 E0.00369
G1 X144.675 Y98.425 E0.00181
G1 X145.049 Y97.991 F10800.000
G1 F1200.000
G1 X145.049 Y97.873 E0.00369
G1 X145.167 Y97.873 E0.00369
G1 X145.167 Y97.991 E0.00369
G1 X145.109 Y97.991 E0.00181
G1 F8640.000
G1 X145.049 Y97.873 E-0.03053
G1 X145.167 Y97.873 E-0.02720
G1 X145.167 Y97.991 E-0.02720
G1 X145.109 Y97.991 E-0.01335
G1 E-1.30171 F2100.00000
G1 Z0.400 F10800.000
G1 X153.292 Y92.351
G1 Z0.200
G1 E1.40000 F2100.00000
G1 F1200.000
G1 X153.292 Y92.233 E0.00369
G1 X153.844 Y92.233 E0.01730
G1 X153.844 Y92.351 E0.00369
G1 X153.352 Y92.351 E0.01542
G1 X154.160 Y91.917 F10800.000
G1 F1200.000
G1 X154.160 Y91.799 E0.00369
G1 X154.712 Y91.799 E0.01730
G1 X154.712 Y91.917 E0.00369
G1 X154.220 Y91.917 E0.01542
G1 F8640.000
G1 X154.160 Y91.799 E-0.03053
G1 X154.712 Y91.799 E-0.12738
G1 X154.712 Y91.917 E-0.02720
G1 X154.220 Y91.917 E-0.11352
G1 E-1.10137 F2100.00000
G1 Z0.400 F10800.000
G1 X155.461 Y91.483
G1 Z0.200
G1 E1.40000 F2100.00000
G1 F1200.000
G1 X155.461 Y91.360 E0.00388
G1 X155.580 Y91.358 E0.00372
G1 X155.580 Y91.483 E0.00392
G1 X155.521 Y91.483 E0.00184
G1 F8640.000
G1 X155.461 Y91.360 E-0.03176
G1 X155.580 Y91.358 E-0.02742
G1 X155.580 Y91.483 E-0.02886
G1 X155.521 Y91.483 E-0.01353
G1 E-1.29842 F2100.00000
G1 Z0.400 F10800.000
G1 X154.712 Y68.056
G1 Z0.200
G1 E1.40000 F2100.00000
G1 F1200.000
G1 X154.594 Y68.056 E0.00372
G1 X154.594 Y67.938 E0.00371
G1 X154.713 Y67.937 E0.00373
G1 X154.712 Y67.996 E0.00183
G1 F8640.000
G1 X154.594 Y68.056 E-0.03072
G1 X154.594 Y67.938 E-0.02734
G1 X154.713 Y67.937 E-0.02743
G1 X154.712 Y67.996 E-0.01351
G1 E-1.30100 F2100.00000
G1 Z0.400 F10800.000
G1 X176.404 Y67.070
G1 Z0.200
G1 E1.40000 F2100.00000
G1 F1200.000
G1 X178.139 Y67.070 E0.05441
G1 X178.139 Y67.188 E0.00369
G1 X177.705 Y67.188 E0.01360
G1 X177.705 Y70.492 E0.10359
G1 X178.139 Y70.926 E0.01924
G1 X178.139 Y71.794 E0.02721
G1 X178.573 Y72.228 E0.01924
G1 X178.573 Y73.095 E0.02721
G1 X179.007 Y73.529 E0.01924
G1 X179.007 Y73.963 E0.01360
G1 X179.440 Y74.397 E0.01924
G1 X179.440 Y75.265 E0.02721
G1 X179.874 Y75.698 E0.01924
G1 X179.874 Y76.132 E0.01360
G1 X180.308 Y76.566 E0.01924
G1 X180.308 Y77.434 E0.02721
G1 X180.742 Y77.868 E0.01924
G1 X180.742 Y78.735 E0.02721
G1 X181.176 Y79.169 E0.01924
G1 X181.176 Y79.603 E0.01360
G1 X181.610 Y80.037 E0.01924
G1 X181.610 Y80.904 E0.02721
G1 X182.043 Y81.338 E0.01924
G1 X182.043 Y82.640 E0.04081
G1 X182.477 Y83.074 E0.01924
G1 X182.477 Y84.375 E0.04081
G1 X182.911 Y84.809 E0.01924
G1 X182.911 Y86.544 E0.05441
G1 X183.345 Y86.978 E0.01924
G1 X183.345 Y90.883 E0.12242
G1 X183.779 Y91.317 E0.01924
G1 X183.779 Y92.184 E0.02721
G1 X184.213 Y92.618 E0.01924
G1 X184.213 Y93.052 E0.01360
G1 X192.456 Y101.295 E0.36551
G1 X192.456 Y101.729 E0.01360
G1 X195.059 Y104.332 E0.11542
G1 X195.059 Y104.766 E0.01360
G1 X197.228 Y106.935 E0.09619
G1 X197.228 Y107.369 E0.01360
G1 X198.963 Y109.104 E0.07695
G1 X198.963 Y109.538 E0.01360
G1 X200.265 Y110.839 E0.05771
G1 X200.265 Y111.273 E0.01360
G1 X201.566 Y112.575 E0.05771
G1 X201.566 Y113.009 E0.01360
G1 X202.434 Y113.876 E0.03847
G1 X202.434 Y114.310 E0.01360
G1 X203.302 Y115.178 E0.03847
G1 X203.302 Y115.612 E0.01360
G1 X204.169 Y116.479 E0.03847
G1 X204.169 Y116.913 E0.01360
G1 X205.037 Y117.781 E0.03847
G1 X205.037 Y118.215 E0.01360
G1 X205.471 Y118.648 E0.01924
G1 X205.471 Y119.082 E0.01360
G1 X206.338 Y119.950 E0.03847
G1 X206.338 Y120.384 E0.01360
G1 X206.772 Y120.818 E0.01924
G1 X206.772 Y121.252 E0.01360
G1 X207.640 Y122.119 E0.03847
G1 X207.640 Y122.553 E0.01360
G1 X208.074 Y122.987 E0.01924
G1 X208.074 Y123.421 E0.01360
G1 X208.508 Y123.855 E0.01924
G1 X208.508 Y124.288 E0.01360
G1 X208.941 Y124.722 E0.01924
G1 X208.941 Y125.156 E0.01360
G1 X209.375 Y125.590 E0.01924
G1 X209.375 Y126.024 E0.01360
G1 X209.809 Y126.458 E0.01924
G1 X209.809 Y126.891 E0.01360
G1 X210.243 Y127.325 E0.01924
G1 X210.243 Y127.759 E0.01360
G1 X210.677 Y128.193 E0.01924
G1 X210.677 Y129.061 E0.02721
G1 X211.111 Y129.494 E0.01924
G1 X211.111 Y129.928 E0.01360
G1 X211.544 Y130.362 E0.01924
G1 X211.544 Y130.796 E0.01360
G1 X211.978 Y131.230 E0.01924
G1 X211.978 Y132.098 E0.02721
G1 X212.412 Y132.531 E0.01924
G1 X212.412 Y133.399 E0.02721
G1 X212.846 Y133.833 E0.01924
G1 X212.846 Y134.267 E0.01360
G1 X213.280 Y134.701 E0.01924
G1 X213.280 Y135.568 E0.02721
G1 X213.714 Y136.002 E0.01924
G1 X213.714 Y136.870 E0.02720
G1 X214.148 Y137.304 E0.01924
G1 X214.148 Y138.171 E0.02721
G1 X214.581 Y138.605 E0.01924
G1 X214.581 Y139.907 E0.04081
G1 X215.015 Y140.340 E0.01924
G1 X215.015 Y141.208 E0.02721
G1 X215.449 Y141.642 E0.01924
G1 X215.449 Y142.943 E0.04081
G1 X215.883 Y143.377 E0.01924
G1 X215.883 Y145.113 E0.05441
G1 X216.317 Y145.547 E0.01924
G1 X216.317 Y147.282 E0.05441
G1 X216.751 Y147.716 E0.01924
G1 X216.751 Y150.753 E0.09522
G1 X217.184 Y151.186 E0.01924
G1 X217.184 Y156.993 E0.18206
G1 X216.751 Y156.993 E0.01360
G1 X216.751 Y159.596 E0.08162
G1 X216.317 Y159.596 E0.01360
G1 X216.317 Y161.331 E0.05441
G1 X215.883 Y161.331 E0.01360
G1 X215.883 Y162.633 E0.04081
G1 X215.449 Y162.633 E0.01360
G1 X215.449 Y163.935 E0.04081
G1 X215.015 Y163.935 E0.01360
G1 X215.015 Y165.236 E0.04081
G1 X214.581 Y165.236 E0.01360
G1 X214.581 Y166.538 E0.04081
G1 X214.148 Y166.538 E0.01360
G1 X214.148 Y167.405 E0.02721
G1 X213.714 Y167.405 E0.01360
G1 X213.714 Y168.273 E0.02721
G1 X213.280 Y168.273 E0.01360
G1 X213.280 Y169.141 E0.02721
G1 X212.846 Y169.141 E0.01360
G1 X212.846 Y169.574 E0.01360
G1 X212.412 Y169.574 E0.01360
G1 X212.412 Y170.442 E0.02721
G1 X211.978 Y170.442 E0.01360
G1 X211.978 Y171.310 E0.02721
G1 X211.544 Y171.310 E0.01360
G1 X211.544 Y171.744 E0.01360
G1 X211.111 Y171.744 E0.01360
G1 X211.111 Y172.611 E0.02721
G1 X210.677 Y172.611 E0.01360
G1 X210.677 Y173.045 E0.01360
G1 X210.243 Y173.045 E0.01360
G1 X210.243 Y173.479 E0.01360
G1 X209.809 Y173.479 E0.01360
G1 X209.809 Y173.913 E0.01360
G1 X209.375 Y173.913 E0.01360
G1 X209.375 Y174.347 E0.01360
G1 X208.941 Y174.347 E0.01360
G1 X208.941 Y174.780 E0.01360
G1 X208.508 Y174.780 E0.01360
G1 X208.508 Y175.214 E0.01360
G1 X208.074 Y175.214 E0.01360
G1 X208.074 Y175.648 E0.01360
G1 X207.640 Y175.648 E0.01360
G1 X207.640 Y176.082 E0.01360
G1 X207.206 Y176.082 E0.01360
G1 X207.206 Y176.516 E0.01360
G1 X206.772 Y176.516 E0.01360
G1 X206.772 Y176.950 E0.01360
G1 X206.221 Y176.950 E0.01730
G1 X206.221 Y176.832 E0.00369
G1 X206.654 Y176.832 E0.01360
G1 X206.654 Y176.398 E0.01360
G1 X207.088 Y176.398 E0.01360
G1 X207.088 Y175.964 E0.01360
G1 X207.522 Y175.964 E0.01360
G1 X207.522 Y175.530 E0.01360
G1 X207.956 Y175.530 E0.01360
G1 X207.956 Y175.097 E0.01360
G1 X208.390 Y175.097 E0.01360
G1 X208.390 Y174.663 E0.01360
G1 X208.824 Y174.663 E0.01360
G1 X208.824 Y174.229 E0.01360
G1 X209.257 Y174.229 E0.01360
G1 X209.257 Y173.795 E0.01360
G1 X209.691 Y173.795 E0.01360
G1 X209.691 Y173.361 E0.01360
G1 X210.125 Y173.361 E0.01360
G1 X210.125 Y172.493 E0.02721
G1 X210.559 Y172.493 E0.01360
G1 X210.559 Y172.060 E0.01360
G1 X210.993 Y172.060 E0.01360
G1 X210.993 Y171.192 E0.02721
G1 X211.427 Y171.192 E0.01360
G1 X211.427 Y170.758 E0.01360
G1 X211.861 Y170.758 E0.01360
G1 X211.861 Y169.890 E0.02721
G1 X212.294 Y169.890 E0.01360
G1 X212.294 Y169.457 E0.01360
G1 X212.728 Y169.457 E0.01360
G1 X212.728 Y168.589 E0.02721
G1 X213.162 Y168.589 E0.01360
G1 X213.162 Y167.721 E0.02721
G1 X213.596 Y167.721 E0.01360
G1 X213.596 Y166.420 E0.04081
G1 X214.030 Y166.420 E0.01360
G1 X214.030 Y165.552 E0.02721
G1 X214.464 Y165.552 E0.01360
G1 X214.464 Y164.251 E0.04081
G1 X214.897 Y164.251 E0.01360
G1 X214.897 Y162.949 E0.04081
G1 X215.331 Y162.949 E0.01360
G1 X215.331 Y161.214 E0.05441
G1 X215.765 Y161.214 E0.01360
G1 X215.765 Y159.044 E0.06801
G1 X216.199 Y159.044 E0.01360
G1 X216.199 Y149.233 E0.30764
G1 X215.765 Y148.799 E0.01924
G1 X215.765 Y146.196 E0.08162
G1 X215.331 Y145.762 E0.01924
G1 X215.331 Y144.027 E0.05441
G1 X214.897 Y143.593 E0.01924
G1 X214.897 Y142.291 E0.04081
G1 X214.464 Y141.858 E0.01924
G1 X214.464 Y140.556 E0.04081
G1 X214.030 Y140.122 E0.01924
G1 X214.030 Y139.255 E0.02721
G1 X213.596 Y138.821 E0.01924
G1 X213.596 Y137.953 E0.02721
G1 X213.162 Y137.519 E0.01924
G1 X213.162 Y136.652 E0.02721
G1 X212.728 Y136.218 E0.01924
G1 X212.728 Y135.350 E0.02721
G1 X212.294 Y134.916 E0.01924
G1 X212.294 Y134.048 E0.02721
G1 X211.861 Y133.615 E0.01924
G1 X211.861 Y132.747 E0.02721
G1 X211.427 Y132.313 E0.01924
G1 X211.427 Y131.879 E0.01360
G1 X210.993 Y131.445 E0.01924
G1 X210.993 Y130.578 E0.02721
G1 X210.559 Y130.144 E0.01924
G1 X210.559 Y129.710 E0.01360
G1 X210.125 Y129.276 E0.01924
G1 X210.125 Y128.409 E0.02721
G1 X209.691 Y127.975 E0.01924
G1 X209.691 Y127.541 E0.01360
G1 X209.257 Y127.107 E0.01924
G1 X209.257 Y126.673 E0.01360
G1 X208.824 Y126.239 E0.01924
G1 X208.824 Y125.806 E0.01360
G1 X208.390 Y125.372 E0.01924
G1 X208.390 Y124.938 E0.01360
G1 X207.956 Y124.504 E0.01924
G1 X207.956 Y124.070 E0.01360
G1 X207.522 Y123.636 E0.01924
G1 X207.522 Y123.203 E0.01360
G1 X206.654 Y122.335 E0.03847
G1 X206.654 Y121.901 E0.01360
G1 X206.221 Y121.467 E0.01924
G1 X206.221 Y121.033 E0.01360
G1 X205.787 Y120.599 E0.01924
G1 X205.787 Y120.166 E0.01360
G1 X204.919 Y119.298 E0.03847
G1 X204.919 Y118.864 E0.01360
G1 X204.485 Y118.430 E0.01924
G1 X204.485 Y117.996 E0.01360
G1 X203.618 Y117.129 E0.03847
G1 X203.618 Y116.695 E0.01360
G1 X202.750 Y115.827 E0.03847
G1 X202.750 Y115.393 E0.01360
G1 X201.882 Y114.526 E0.03847
G1 X201.882 Y114.092 E0.01360
G1 X200.581 Y112.790 E0.05771
G1 X200.581 Y112.357 E0.01360
G1 X199.279 Y111.055 E0.05771
G1 X199.279 Y110.621 E0.01360
G1 X197.978 Y109.320 E0.05771
G1 X197.978 Y108.886 E0.01360
G1 X196.242 Y107.150 E0.07695
G1 X196.242 Y106.717 E0.01360
G1 X194.073 Y104.547 E0.09619
G1 X194.073 Y104.114 E0.01360
G1 X191.036 Y101.077 E0.13466
G1 X191.036 Y100.643 E0.01360
G1 X184.751 Y94.357 E0.27872
G1 X183.779 Y94.760 E0.03298
G1 X183.779 Y97.557 E0.08771
G1 X183.345 Y97.557 E0.01360
G1 X183.345 Y100.160 E0.08162
G1 X182.911 Y100.160 E0.01360
G1 X182.911 Y105.633 E0.17161
G1 X183.345 Y106.067 E0.01924
G1 X183.345 Y107.969 E0.05964
G1 X182.911 Y107.969 E0.01360
G1 X182.911 Y111.707 E0.11720
G1 X184.379 Y113.175 E0.06510
G1 X182.911 Y113.175 E0.04604
G1 X182.911 Y115.344 E0.06801
G1 X182.477 Y115.344 E0.01360
G1 X182.477 Y117.080 E0.05441
G1 X182.043 Y117.080 E0.01360
G1 X182.043 Y118.381 E0.04081
G1 X181.610 Y118.381 E0.01360
G1 X181.610 Y119.249 E0.02721
G1 X181.176 Y119.249 E0.01360
G1 X181.176 Y120.117 E0.02721
G1 X180.742 Y120.117 E0.01360
G1 X180.742 Y120.984 E0.02721
G1 X180.308 Y120.984 E0.01360
G1 X180.308 Y121.852 E0.02721
G1 X179.874 Y121.852 E0.01360
G1 X179.874 Y122.286 E0.01360
G1 X179.440 Y122.286 E0.01360
G1 X179.440 Y123.154 E0.02721
G1 X179.007 Y123.154 E0.01360
G1 X179.007 Y123.587 E0.01360
G1 X178.573 Y123.587 E0.01360
G1 X178.573 Y124.455 E0.02721
G1 X178.139 Y124.455 E0.01360
G1 X178.139 Y124.889 E0.01360
G1 X177.705 Y124.889 E0.01360
G1 X177.705 Y125.323 E0.01360
G1 X177.271 Y125.323 E0.01360
G1 X177.271 Y125.757 E0.01360
G1 X176.837 Y125.757 E0.01360
G1 X176.837 Y126.190 E0.01360
G1 X176.404 Y126.190 E0.01360
G1 X176.404 Y126.624 E0.01360
G1 X175.970 Y126.624 E0.01360
G1 X175.970 Y127.058 E0.01360
G1 X175.536 Y127.058 E0.01360
G1 X175.536 Y127.492 E0.01360
G1 X175.102 Y127.492 E0.01360
G1 X175.102 Y127.926 E0.01360
G1 X174.668 Y127.926 E0.01360
G1 X174.668 Y128.360 E0.01360
G1 X174.234 Y128.360 E0.01360
G1 X174.234 Y128.794 E0.01360
G1 X173.367 Y128.794 E0.02721
G1 X173.367 Y129.227 E0.01360
G1 X172.933 Y129.227 E0.01360
G1 X172.933 Y129.661 E0.01360
G1 X172.499 Y129.661 E0.01360
G1 X172.499 Y130.095 E0.01360
G1 X171.631 Y130.095 E0.02721
G1 X171.631 Y130.529 E0.01360
G1 X171.197 Y130.529 E0.01360
G1 X171.197 Y130.963 E0.01360
G1 X170.330 Y130.963 E0.02721
G1 X170.330 Y131.397 E0.01360
G1 X169.896 Y131.397 E0.01360
G1 X169.896 Y131.830 E0.01360
G1 X169.028 Y131.830 E0.02721
G1 X169.028 Y132.264 E0.01360
G1 X168.161 Y132.264 E0.02721
G1 X168.161 Y132.698 E0.01360
G1 X167.293 Y132.698 E0.02721
G1 X167.293 Y133.132 E0.01360
G1 X166.859 Y133.132 E0.01360
