; generated by PrusaSlicer 2.2.0+win64 on 2021-04-20 at 02:38:32 UTC

; 

; external perimeters extrusion width = 0.45mm
; perimeters extrusion width = 0.45mm
; infill extrusion width = 0.45mm
; solid infill extrusion width = 0.45mm
; top infill extrusion width = 0.40mm
; first layer extrusion width = 0.42mm

M73 P0 R22
M73 Q0 S22
M201 X1000 Y1000 Z200 E5000 ; sets maximum accelerations, mm/sec^2
M203 X200 Y200 Z12 E120 ; sets maximum feedrates, mm/sec
M204 P1250 R1250 T1250 ; sets acceleration (P, T) and retract acceleration (R), mm/sec^2
M205 X8.00 Y8.00 Z0.40 E4.50 ; sets the jerk limits, mm/sec
M205 S0 T0 ; sets the minimum extruding and travel feed rate, mm/sec
M107
M862.3 P "MK3S" ; printer model check
M862.1 P0.4 ; nozzle diameter check
M115 U3.9.3 ; tell printer latest fw version
G90 ; use absolute coordinates
M83 ; extruder relative mode
M104 S215 ; set extruder temp
M140 S60 ; set bed temp
M190 S60 ; wait for bed temp
M109 S215 ; wait for extruder temp
G28 W ; home all without mesh bed level
G80 ; mesh bed leveling
G1 Y-3.0 F1000.0 ; go outside print area
G92 E0.0
G1 X60.0 E9.0 F1000.0 ; intro line
M73 Q0 S22
M73 P0 R22
G1 X100.0 E12.5 F1000.0 ; intro line
G92 E0.0
M221 S95

; Don't change E values below. Excessive value can damage the printer.

M907 E538 ; set extruder motor current
G21 ; set units to millimeters
G90 ; use absolute coordinates
M83 ; use relative distances for extrusion
M900 K0.05 ; Filament gcode LA 1.5
M900 K30 ; Filament gcode LA 1.0
;BEFORE_LAYER_CHANGE
G92 E0.0
;0.2


G1 E-0.80000 F2100.00000
G1 Z0.400 F10800.000
;AFTER_LAYER_CHANGE
;0.2
G1 X113.909 Y87.396
G1 Z0.200
G1 E0.80000 F2100.00000
M204 S1000
G1 F1200.000
G1 X114.651 Y86.417 E0.03851
G1 X115.391 Y85.624 E0.03402
G1 X116.268 Y84.854 E0.03659
G1 X117.210 Y84.187 E0.03620
G1 X118.278 Y83.589 E0.03838
G1 X119.285 Y83.153 E0.03440
G1 X120.449 Y82.788 E0.03825
G1 X121.585 Y82.559 E0.03633
G1 X123.241 Y82.436 E0.05207
G1 X124.911 Y82.561 E0.05250
G1 X126.181 Y82.828 E0.04069
G1 X127.206 Y83.159 E0.03376
G1 X128.156 Y83.570 E0.03248
G1 X129.328 Y84.226 E0.04210
G1 X130.218 Y84.861 E0.03428
G1 X130.992 Y85.537 E0.03222
G1 X131.876 Y86.476 E0.04043
G1 X132.645 Y87.516 E0.04056
G1 X133.173 Y88.402 E0.03235
G1 X133.622 Y89.354 E0.03299
G1 X134.041 Y90.535 E0.03928
G1 X134.317 Y91.710 E0.03787
G1 X137.922 Y114.894 E0.73562
G1 X138.010 Y116.024 E0.03556
G1 X137.975 Y117.260 E0.03875
G1 X137.805 Y118.475 E0.03849
G1 X137.502 Y119.674 E0.03875
G1 X137.068 Y120.835 E0.03888
G1 X136.515 Y121.931 E0.03849
G1 X135.838 Y122.970 E0.03888
G1 X135.140 Y123.826 E0.03464
G1 X134.037 Y124.899 E0.04823
G1 X133.146 Y125.585 E0.03528
G1 X132.011 Y126.270 E0.04157
G1 X130.984 Y126.749 E0.03554
G1 X129.822 Y127.147 E0.03849
G1 X128.625 Y127.417 E0.03849
G1 X127.486 Y127.547 E0.03592
G1 X126.018 Y127.546 E0.04605
G1 X124.912 Y127.419 E0.03490
G1 X123.841 Y127.184 E0.03438
G1 X122.529 Y126.746 E0.04336
G1 X121.293 Y126.153 E0.04298
G1 X120.347 Y125.566 E0.03490
G1 X119.473 Y124.891 E0.03464
G1 X118.477 Y123.937 E0.04324
G1 X117.610 Y122.865 E0.04324
G1 X117.012 Y121.942 E0.03451
G1 X116.488 Y120.913 E0.03618
G1 X116.020 Y119.682 E0.04131
G1 X115.703 Y118.411 E0.04106
G1 X112.066 Y95.039 E0.74164
G1 X111.987 Y93.966 E0.03373
G1 X112.019 Y92.808 E0.03633
G1 X112.167 Y91.667 E0.03607
G1 X112.439 Y90.524 E0.03684
G1 X112.815 Y89.445 E0.03582
G1 X113.311 Y88.389 E0.03659
G1 X113.878 Y87.447 E0.03445
G1 X114.200 Y87.642 F10800.000
G1 F1200.000
G1 X114.933 Y86.668 E0.03820
G1 X115.652 Y85.896 E0.03308
G1 X116.499 Y85.152 E0.03535
G1 X117.410 Y84.506 E0.03499
G1 X118.436 Y83.931 E0.03690
G1 X119.415 Y83.507 E0.03344
G1 X120.534 Y83.155 E0.03678
G1 X121.632 Y82.933 E0.03511
G1 X123.242 Y82.813 E0.05062
G1 X124.859 Y82.935 E0.05084
G1 X126.074 Y83.190 E0.03893
G1 X127.071 Y83.511 E0.03285
G1 X128.001 Y83.913 E0.03177
G1 X129.120 Y84.541 E0.04024
G1 X129.985 Y85.159 E0.03332
G1 X130.743 Y85.820 E0.03153
G1 X131.590 Y86.722 E0.03880
G1 X132.324 Y87.714 E0.03869
G1 X133.284 Y89.522 E0.06418
G1 X133.681 Y90.646 E0.03738
G1 X133.945 Y91.773 E0.03631
G1 X137.546 Y114.925 E0.73462
G1 X137.633 Y116.028 E0.03471
G1 X137.599 Y117.226 E0.03757
G1 X137.435 Y118.406 E0.03734
G1 X137.142 Y119.564 E0.03746
G1 X136.722 Y120.686 E0.03757
G1 X136.186 Y121.745 E0.03722
G1 X135.532 Y122.749 E0.03757
G1 X134.849 Y123.586 E0.03387
G1 X133.805 Y124.602 E0.04567
G1 X132.937 Y125.271 E0.03435
G1 X131.843 Y125.932 E0.04007
G1 X130.844 Y126.399 E0.03459
G1 X129.717 Y126.785 E0.03734
G1 X128.559 Y127.045 E0.03722
G1 X127.452 Y127.172 E0.03495
G1 X126.052 Y127.170 E0.04389
G1 X124.971 Y127.047 E0.03411
G1 X123.924 Y126.816 E0.03364
G1 X122.668 Y126.396 E0.04150
G1 X121.485 Y125.828 E0.04115
G1 X120.563 Y125.257 E0.03399
G1 X119.709 Y124.597 E0.03387
G1 X118.753 Y123.680 E0.04150
G1 X117.925 Y122.658 E0.04127
G1 X117.337 Y121.751 E0.03387
G1 X116.822 Y120.737 E0.03567
G1 X116.378 Y119.563 E0.03936
G1 X116.074 Y118.345 E0.03936
G1 X112.442 Y95.008 E0.74053
G1 X112.365 Y93.963 E0.03284
G1 X112.394 Y92.840 E0.03523
G1 X112.538 Y91.737 E0.03488
G1 X112.799 Y90.636 E0.03547
G1 X113.164 Y89.589 E0.03476
G1 X113.642 Y88.569 E0.03535
G1 X114.169 Y87.693 E0.03204
; printing object base.STL id:1 copy 0
G1 F8640.000
G1 X114.933 Y86.668 E-0.29511
G1 X115.652 Y85.896 E-0.24364
G1 X116.372 Y85.264 E-0.22124
G1 E-0.04000 F2100.00000
G1 Z0.600 F10800.000
G1 X125.611 Y113.776
G1 Z0.200
G1 E0.80000 F2100.00000
G1 F1200.000
G1 X126.057 Y113.618 E0.01484
G1 X126.523 Y113.538 E0.01484
G1 X126.997 Y113.538 E0.01484
G1 X127.463 Y113.618 E0.01484
G1 X127.909 Y113.776 E0.01484
G1 X128.322 Y114.007 E0.01484
G1 X128.690 Y114.304 E0.01484
G1 X129.003 Y114.659 E0.01484
G1 X129.251 Y115.062 E0.01484
G1 X129.428 Y115.501 E0.01484
G1 X129.527 Y115.964 E0.01484
G1 X129.547 Y116.436 E0.01484
G1 X129.487 Y116.906 E0.01484
G1 X129.349 Y117.358 E0.01484
G1 X129.136 Y117.781 E0.01484
G1 X128.854 Y118.161 E0.01484
G1 X128.513 Y118.489 E0.01484
G1 X128.121 Y118.754 E0.01484
G1 X127.689 Y118.949 E0.01484
G1 X127.231 Y119.068 E0.01484
G1 X126.760 Y119.108 E0.01484
G1 X126.288 Y119.068 E0.01484
G1 X125.831 Y118.949 E0.01484
G1 X125.399 Y118.754 E0.01484
G1 X125.007 Y118.489 E0.01484
G1 X124.666 Y118.161 E0.01484
G1 X124.384 Y117.781 E0.01484
G1 X124.171 Y117.358 E0.01484
G1 X124.033 Y116.906 E0.01484
G1 X123.973 Y116.436 E0.01484
G1 X123.993 Y115.964 E0.01484
G1 X124.092 Y115.501 E0.01484
G1 X124.269 Y115.062 E0.01484
G1 X124.517 Y114.659 E0.01484
G1 X124.830 Y114.304 E0.01484
G1 X125.198 Y114.007 E0.01484
G1 X125.558 Y113.805 E0.01296
G1 X125.742 Y114.134 F10800.000
G1 F1200.000
G1 X126.152 Y113.984 E0.01369
G1 X126.555 Y113.915 E0.01282
G1 X126.965 Y113.915 E0.01282
G1 X127.368 Y113.984 E0.01282
G1 X127.753 Y114.121 E0.01282
G1 X128.110 Y114.320 E0.01282
G1 X128.429 Y114.577 E0.01282
G1 X128.699 Y114.884 E0.01282
G1 X128.913 Y115.232 E0.01282
G1 X129.066 Y115.612 E0.01282
G1 X129.152 Y116.012 E0.01282
G1 X129.169 Y116.420 E0.01282
G1 X129.117 Y116.826 E0.01282
G1 X128.998 Y117.217 E0.01282
G1 X128.813 Y117.582 E0.01282
G1 X128.570 Y117.911 E0.01282
G1 X128.275 Y118.194 E0.01282
G1 X127.936 Y118.423 E0.01282
G1 X127.563 Y118.592 E0.01282
G1 X127.168 Y118.695 E0.01282
G1 X126.760 Y118.729 E0.01282
G1 X126.352 Y118.695 E0.01282
G1 X125.957 Y118.592 E0.01282
G1 X125.584 Y118.423 E0.01282
G1 X125.245 Y118.194 E0.01282
G1 X124.950 Y117.911 E0.01282
G1 X124.707 Y117.582 E0.01282
G1 X124.522 Y117.217 E0.01282
G1 X124.403 Y116.826 E0.01282
G1 X124.351 Y116.420 E0.01282
G1 X124.368 Y116.012 E0.01282
G1 X124.454 Y115.612 E0.01282
G1 X124.607 Y115.232 E0.01282
G1 X124.821 Y114.884 E0.01282
G1 X125.091 Y114.577 E0.01282
G1 X125.410 Y114.320 E0.01282
G1 X125.690 Y114.163 E0.01007
G1 X125.779 Y113.736 F10800.000
G1 F8640.000
G1 X126.152 Y113.984 E-0.11450
G1 X126.555 Y113.915 E-0.09444
G1 X126.965 Y113.915 E-0.09444
G1 X127.368 Y113.984 E-0.09444
G1 X127.753 Y114.121 E-0.09444
G1 X128.110 Y114.320 E-0.09444
G1 X128.429 Y114.577 E-0.09444
G1 X128.654 Y114.833 E-0.07884
G1 E-0.04000 F2100.00000
G1 Z0.600 F10800.000
G1 X130.405 Y115.550
G1 Z0.200
G1 E0.80000 F2100.00000
G1 F1200.000
G1 X130.562 Y115.238 E0.01095
G1 X130.770 Y114.957 E0.01095
G1 X131.022 Y114.715 E0.01095
G1 X131.312 Y114.520 E0.01095
G1 X131.630 Y114.376 E0.01095
G1 X131.968 Y114.288 E0.01095
G1 X132.316 Y114.258 E0.01096
G1 X132.664 Y114.288 E0.01095
G1 X133.002 Y114.376 E0.01095
G1 X133.321 Y114.520 E0.01096
G1 X133.610 Y114.715 E0.01095
G1 X133.863 Y114.957 E0.01095
G1 X134.070 Y115.238 E0.01095
G1 X134.228 Y115.550 E0.01095
G1 X134.330 Y115.884 E0.01095
G1 X134.374 Y116.231 E0.01095
G1 X134.359 Y116.580 E0.01096
G1 X134.286 Y116.921 E0.01095
G1 X134.156 Y117.245 E0.01095
G1 X133.972 Y117.543 E0.01095
G1 X133.742 Y117.805 E0.01095
G1 X133.470 Y118.025 E0.01095
G1 X133.165 Y118.195 E0.01095
G1 X132.835 Y118.311 E0.01095
G1 X132.495 Y118.370 E0.01082
G1 X132.137 Y118.370 E0.01122
G1 X131.797 Y118.311 E0.01082
G1 X131.468 Y118.195 E0.01095
G1 X131.163 Y118.025 E0.01095
G1 X130.891 Y117.805 E0.01095
G1 X130.660 Y117.543 E0.01095
G1 X130.477 Y117.245 E0.01095
G1 X130.347 Y116.921 E0.01095
G1 X130.273 Y116.580 E0.01095
G1 X130.258 Y116.231 E0.01095
G1 X130.303 Y115.884 E0.01095
G1 X130.387 Y115.607 E0.00907
G1 X130.748 Y115.718 F10800.000
G1 F1200.000
G1 X130.884 Y115.436 E0.00981
G1 X131.054 Y115.207 E0.00894
G1 X131.260 Y115.010 E0.00894
G1 X131.496 Y114.850 E0.00894
G1 X131.756 Y114.733 E0.00894
G1 X132.032 Y114.661 E0.00894
G1 X132.316 Y114.637 E0.00894
G1 X132.600 Y114.661 E0.00894
G1 X132.876 Y114.733 E0.00894
G1 X133.136 Y114.850 E0.00894
G1 X133.373 Y115.010 E0.00894
G1 X133.578 Y115.207 E0.00894
G1 X133.748 Y115.436 E0.00894
G1 X133.876 Y115.691 E0.00894
G1 X133.960 Y115.964 E0.00894
G1 X133.996 Y116.247 E0.00894
G1 X133.984 Y116.532 E0.00894
G1 X133.924 Y116.810 E0.00894
G1 X133.818 Y117.075 E0.00894
G1 X133.668 Y117.318 E0.00894
G1 X133.480 Y117.532 E0.00894
G1 X133.258 Y117.711 E0.00894
G1 X133.009 Y117.850 E0.00894
G1 X132.740 Y117.945 E0.00894
G1 X132.463 Y117.993 E0.00881
G1 X132.169 Y117.993 E0.00921
G1 X131.893 Y117.945 E0.00881
G1 X131.624 Y117.850 E0.00894
G1 X131.375 Y117.711 E0.00894
G1 X131.153 Y117.532 E0.00894
G1 X130.964 Y117.318 E0.00894
G1 X130.815 Y117.075 E0.00894
G1 X130.708 Y116.810 E0.00894
G1 X130.648 Y116.532 E0.00894
G1 X130.636 Y116.247 E0.00894
G1 X130.673 Y115.964 E0.00894
G1 X130.730 Y115.775 E0.00619
G1 X130.552 Y115.474 F10800.000
G1 F8640.000
G1 X130.884 Y115.436 E-0.08593
G1 X131.054 Y115.207 E-0.06585
G1 X131.260 Y115.010 E-0.06585
G1 X131.496 Y114.850 E-0.06585
G1 X131.756 Y114.733 E-0.06585
G1 X132.032 Y114.661 E-0.06585
G1 X132.316 Y114.637 E-0.06585
G1 X132.600 Y114.661 E-0.06585
G1 X132.876 Y114.733 E-0.06585
G1 X133.136 Y114.850 E-0.06586
G1 X133.373 Y115.010 E-0.06585
G1 X133.421 Y115.056 E-0.01554
G1 E-0.04000 F2100.00000
G1 Z0.600 F10800.000
G1 X123.262 Y116.231
G1 Z0.200
G1 E0.80000 F2100.00000
G1 F1200.000
G1 X123.247 Y116.580 E0.01095
G1 X123.173 Y116.921 E0.01095
G1 X123.043 Y117.245 E0.01095
G1 X122.860 Y117.543 E0.01095
G1 X122.629 Y117.805 E0.01095
G1 X122.357 Y118.025 E0.01095
G1 X122.052 Y118.195 E0.01095
G1 X121.723 Y118.311 E0.01095
G1 X121.383 Y118.370 E0.01082
G1 X121.025 Y118.370 E0.01122
G1 X120.685 Y118.311 E0.01082
G1 X120.355 Y118.195 E0.01095
G1 X120.050 Y118.025 E0.01095
G1 X119.778 Y117.805 E0.01095
G1 X119.548 Y117.543 E0.01095
G1 X119.364 Y117.245 E0.01095
G1 X119.234 Y116.921 E0.01095
G1 X119.161 Y116.580 E0.01095
G1 X119.146 Y116.231 E0.01095
G1 X119.190 Y115.884 E0.01096
G1 X119.292 Y115.550 E0.01095
G1 X119.450 Y115.238 E0.01096
G1 X119.657 Y114.957 E0.01095
G1 X119.910 Y114.715 E0.01095
G1 X120.199 Y114.520 E0.01096
G1 X120.518 Y114.376 E0.01095
G1 X120.856 Y114.288 E0.01095
G1 X121.204 Y114.258 E0.01096
G1 X121.552 Y114.288 E0.01095
G1 X121.890 Y114.376 E0.01095
G1 X122.208 Y114.520 E0.01096
G1 X122.498 Y114.715 E0.01095
G1 X122.750 Y114.957 E0.01095
G1 X122.958 Y115.238 E0.01095
G1 X123.115 Y115.550 E0.01095
G1 X123.217 Y115.884 E0.01096
G1 X123.254 Y116.171 E0.00907
G1 X122.880 Y116.219 F10800.000
G1 F1200.000
G1 X122.872 Y116.532 E0.00981
G1 X122.812 Y116.810 E0.00894
G1 X122.705 Y117.075 E0.00894
G1 X122.556 Y117.318 E0.00894
G1 X122.367 Y117.532 E0.00894
G1 X122.145 Y117.711 E0.00894
G1 X121.896 Y117.850 E0.00894
G1 X121.627 Y117.945 E0.00894
G1 X121.351 Y117.993 E0.00881
G1 X121.057 Y117.993 E0.00921
G1 X120.780 Y117.945 E0.00881
G1 X120.511 Y117.850 E0.00894
G1 X120.262 Y117.711 E0.00894
G1 X120.040 Y117.532 E0.00894
G1 X119.852 Y117.318 E0.00894
G1 X119.702 Y117.075 E0.00894
G1 X119.596 Y116.810 E0.00894
G1 X119.536 Y116.532 E0.00894
G1 X119.524 Y116.247 E0.00894
G1 X119.560 Y115.964 E0.00894
G1 X119.644 Y115.691 E0.00894
G1 X119.772 Y115.436 E0.00894
G1 X119.942 Y115.207 E0.00894
G1 X120.147 Y115.010 E0.00894
G1 X120.384 Y114.850 E0.00894
G1 X120.644 Y114.733 E0.00894
G1 X120.920 Y114.661 E0.00894
G1 X121.204 Y114.637 E0.00894
G1 X121.488 Y114.661 E0.00894
G1 X121.764 Y114.733 E0.00894
G1 X122.024 Y114.850 E0.00894
G1 X122.260 Y115.010 E0.00894
G1 X122.466 Y115.207 E0.00894
G1 X122.636 Y115.436 E0.00894
G1 X122.764 Y115.691 E0.00894
G1 X122.847 Y115.964 E0.00894
G1 X122.873 Y116.159 E0.00619
G1 X123.159 Y116.360 F10800.000
G1 F8640.000
G1 X122.872 Y116.532 E-0.08593
G1 X122.812 Y116.810 E-0.06585
G1 X122.705 Y117.075 E-0.06585
G1 X122.556 Y117.318 E-0.06585
G1 X122.367 Y117.532 E-0.06585
G1 X122.145 Y117.711 E-0.06585
G1 X121.896 Y117.850 E-0.06585
G1 X121.627 Y117.945 E-0.06585
G1 X121.351 Y117.993 E-0.06487
G1 X121.057 Y117.993 E-0.06780
G1 X120.780 Y117.945 E-0.06487
G1 X120.716 Y117.923 E-0.01557
G1 E-0.04000 F2100.00000
G1 Z0.600 F10800.000
G1 X119.051 Y116.106
G1 Z0.200
G1 E0.80000 F2100.00000
G1 F1200.000
G1 X119.121 Y115.259 E0.02664
G1 X119.284 Y114.425 E0.02664
G1 X119.538 Y113.614 E0.02664
G1 X119.879 Y112.836 E0.02664
G1 X120.304 Y112.100 E0.02664
G1 X120.807 Y111.415 E0.02664
G1 X121.383 Y110.790 E0.02664
G1 X122.023 Y110.232 E0.02664
G1 X122.722 Y109.748 E0.02664
G1 X123.469 Y109.344 E0.02664
G1 X124.256 Y109.024 E0.02664
G1 X125.074 Y108.793 E0.02664
G1 X125.912 Y108.653 E0.02664
G1 X126.760 Y108.606 E0.02664
G1 X127.583 Y108.652 E0.02586
G1 X128.447 Y108.793 E0.02745
G1 X129.264 Y109.024 E0.02661
G1 X130.051 Y109.344 E0.02664
G1 X130.798 Y109.748 E0.02664
G1 X131.497 Y110.232 E0.02664
G1 X132.137 Y110.790 E0.02664
G1 X132.713 Y111.415 E0.02664
G1 X133.216 Y112.100 E0.02664
G1 X133.641 Y112.836 E0.02664
G1 X133.982 Y113.614 E0.02664
G1 X134.236 Y114.425 E0.02664
G1 X134.399 Y115.259 E0.02664
G1 X134.469 Y116.106 E0.02664
G1 X134.445 Y116.955 E0.02664
G1 X134.329 Y117.796 E0.02664
G1 X134.120 Y118.620 E0.02664
G1 X133.822 Y119.416 E0.02664
G1 X133.439 Y120.174 E0.02664
G1 X132.974 Y120.885 E0.02664
G1 X132.434 Y121.541 E0.02664
G1 X131.825 Y122.133 E0.02664
G1 X131.154 Y122.655 E0.02664
G1 X130.430 Y123.100 E0.02664
G1 X129.662 Y123.463 E0.02664
G1 X128.858 Y123.739 E0.02664
G1 X128.029 Y123.925 E0.02664
G1 X127.185 Y124.018 E0.02664
G1 X126.335 Y124.018 E0.02664
G1 X125.491 Y123.925 E0.02664
G1 X124.662 Y123.739 E0.02664
G1 X123.858 Y123.463 E0.02664
G1 X123.090 Y123.100 E0.02664
G1 X122.366 Y122.655 E0.02664
G1 X121.695 Y122.133 E0.02664
G1 X121.086 Y121.541 E0.02664
G1 X120.546 Y120.885 E0.02664
G1 X120.081 Y120.174 E0.02664
G1 X119.698 Y119.416 E0.02664
G1 X119.400 Y118.620 E0.02664
G1 X119.191 Y117.796 E0.02664
G1 X119.075 Y116.955 E0.02664
G1 X119.053 Y116.165 E0.02476
G1 X118.676 Y116.176 F10800.000
G1 F1200.000
G1 X118.747 Y115.207 E0.03046
G1 X118.918 Y114.332 E0.02794
G1 X119.184 Y113.482 E0.02794
G1 X119.542 Y112.665 E0.02794
G1 X119.988 Y111.894 E0.02794
G1 X120.516 Y111.175 E0.02794
G1 X121.119 Y110.520 E0.02794
G1 X121.791 Y109.934 E0.02794
G1 X122.524 Y109.427 E0.02794
G1 X123.308 Y109.002 E0.02794
G1 X124.133 Y108.667 E0.02794
G1 X124.991 Y108.424 E0.02794
G1 X125.870 Y108.278 E0.02794
G1 X126.760 Y108.229 E0.02794
G1 X127.624 Y108.276 E0.02714
G1 X128.529 Y108.425 E0.02875
G1 X129.387 Y108.667 E0.02793
G1 X130.212 Y109.002 E0.02794
