; generated by PrusaSlicer 2.2.0+win64 on 2021-01-28 at 17:47:27 UTC

; 

; external perimeters extrusion width = 0.45mm
; perimeters extrusion width = 0.45mm
; infill extrusion width = 0.45mm
; solid infill extrusion width = 0.45mm
; top infill extrusion width = 0.40mm
; first layer extrusion width = 0.42mm

M73 P0 R73
M73 Q0 S73
M201 X1000 Y1000 Z200 E5000 ; sets maximum accelerations, mm/sec^2
M203 X200 Y200 Z12 E120 ; sets maximum feedrates, mm/sec
M204 P1250 R1250 T1250 ; sets acceleration (P, T) and retract acceleration (R), mm/sec^2
M205 X8.00 Y8.00 Z0.40 E4.50 ; sets the jerk limits, mm/sec
M205 S0 T0 ; sets the minimum extruding and travel feed rate, mm/sec
M107
M862.3 P "MK3S" ; printer model check
M862.1 P0.4 ; nozzle diameter check
M115 U3.9.3 ; tell printer latest fw version
G90 ; use absolute coordinates
M83 ; extruder relative mode
M104 S230 ; set extruder temp
M140 S85 ; set bed temp
M190 S85 ; wait for bed temp
M109 S230 ; wait for extruder temp
G28 W ; home all without mesh bed level
G80 ; mesh bed leveling
G1 Y-3.0 F1000.0 ; go outside print area
G92 E0.0
G1 X60.0 E9.0 F1000.0 ; intro line
M73 Q0 S73
M73 P0 R73
G1 X100.0 E12.5 F1000.0 ; intro line
G92 E0.0
M221 S95

; Don't change E values below. Excessive value can damage the printer.

M907 E538 ; set extruder motor current
G21 ; set units to millimeters
G90 ; use absolute coordinates
M83 ; use relative distances for extrusion
M900 K0.08 ; Filament gcode LA 1.5
M900 K45 ; Filament gcode LA 1.0
;BEFORE_LAYER_CHANGE
G92 E0.0
;0.2


G1 E-1.40000 F2100.00000
G1 Z0.200 F10800.000
;AFTER_LAYER_CHANGE
;0.2
G1 Z0.400
G1 X111.860 Y79.509
G1 Z0.200
G1 E1.40000 F2100.00000
M204 S1000
G1 F1200.000
G1 X112.218 Y79.014 E0.01917
G1 X112.688 Y78.628 E0.01906
G1 X113.240 Y78.373 E0.01906
G1 X113.838 Y78.268 E0.01906
G1 X138.454 Y78.265 E0.77180
G1 X139.093 Y78.354 E0.02024
G1 X139.688 Y78.613 E0.02036
G1 X140.191 Y79.024 E0.02036
G1 X140.562 Y79.552 E0.02024
G1 X140.776 Y80.153 E0.02000
G1 X141.562 Y84.298 E0.13226
G1 X141.577 Y123.786 E1.23813
G1 X141.502 Y124.363 E0.01823
G1 X141.290 Y124.904 E0.01823
G1 X140.919 Y125.413 E0.01977
G1 X140.430 Y125.805 E0.01965
G1 X137.361 Y127.427 E0.10882
G1 X136.780 Y127.628 E0.01929
G1 X113.688 Y131.712 E0.73527
G1 X110.644 Y131.730 E0.09544
G1 X110.142 Y131.642 E0.01597
G1 X109.667 Y131.448 E0.01609
G1 X109.169 Y131.087 E0.01929
G1 X108.780 Y130.610 E0.01929
G1 X108.527 Y130.053 E0.01917
G1 X108.425 Y129.447 E0.01929
G1 X108.425 Y98.259 E0.97787
G1 X110.872 Y84.014 E0.45319
G1 X111.628 Y80.132 E0.12400
G1 X111.839 Y79.566 E0.01895
; printing object Rambo-heatbed-cable-clip.stl id:1 copy 0
G1 F8640.000
G1 X112.218 Y79.014 E-0.15461
G1 X112.688 Y78.628 E-0.14034
G1 X113.240 Y78.373 E-0.14034
G1 X113.838 Y78.268 E-0.14034
G1 X117.105 Y78.267 E-0.75438
G1 E-0.07000 F2100.00000
G1 Z0.400 F10800.000
G1 X116.600 Y85.665
G1 Z0.200
G1 E1.40000 F2100.00000
G1 F1200.000
G1 X117.004 Y85.371 E0.01567
G1 X117.461 Y85.168 E0.01568
G1 X117.950 Y85.064 E0.01568
G1 X118.450 Y85.064 E0.01567
G1 X118.939 Y85.168 E0.01568
G1 X119.396 Y85.371 E0.01568
G1 X119.800 Y85.665 E0.01567
G1 X120.135 Y86.036 E0.01567
G1 X120.385 Y86.469 E0.01568
G1 X120.539 Y86.945 E0.01567
G1 X120.591 Y87.442 E0.01568
G1 X120.539 Y87.939 E0.01568
G1 X120.385 Y88.415 E0.01567
G1 X120.135 Y88.848 E0.01568
G1 X119.800 Y89.219 E0.01567
G1 X119.396 Y89.513 E0.01567
G1 X118.939 Y89.716 E0.01568
G1 X118.450 Y89.820 E0.01568
G1 X117.950 Y89.820 E0.01567
G1 X117.461 Y89.716 E0.01568
G1 X117.004 Y89.513 E0.01568
G1 X116.600 Y89.219 E0.01567
G1 X116.265 Y88.848 E0.01567
G1 X116.015 Y88.415 E0.01568
G1 X115.861 Y87.939 E0.01567
G1 X115.809 Y87.442 E0.01568
G1 X115.861 Y86.945 E0.01568
G1 X116.015 Y86.469 E0.01567
G1 X116.265 Y86.036 E0.01568
G1 X116.560 Y85.709 E0.01379
G1 X116.840 Y85.962 F10800.000
G1 F1200.000
G1 X117.194 Y85.699 E0.01381
G1 X117.578 Y85.528 E0.01319
G1 X117.990 Y85.441 E0.01319
G1 X118.410 Y85.441 E0.01319
G1 X118.822 Y85.528 E0.01319
G1 X119.206 Y85.699 E0.01319
G1 X119.546 Y85.947 E0.01319
G1 X119.828 Y86.259 E0.01319
G1 X120.038 Y86.624 E0.01319
G1 X120.168 Y87.024 E0.01319
G1 X120.212 Y87.442 E0.01319
G1 X120.168 Y87.860 E0.01319
G1 X120.038 Y88.260 E0.01319
G1 X119.828 Y88.625 E0.01319
G1 X119.546 Y88.937 E0.01319
G1 X119.206 Y89.185 E0.01319
G1 X118.822 Y89.356 E0.01319
G1 X118.410 Y89.443 E0.01319
G1 X117.990 Y89.443 E0.01319
G1 X117.578 Y89.356 E0.01319
G1 X117.194 Y89.185 E0.01319
G1 X116.854 Y88.937 E0.01319
G1 X116.572 Y88.625 E0.01319
G1 X116.362 Y88.260 E0.01319
G1 X116.232 Y87.860 E0.01319
G1 X116.188 Y87.442 E0.01319
G1 X116.232 Y87.024 E0.01319
G1 X116.362 Y86.624 E0.01319
G1 X116.572 Y86.259 E0.01319
G1 X116.800 Y86.006 E0.01067
G1 X116.754 Y85.571 F10800.000
G1 F8640.000
G1 X117.194 Y85.699 E-0.11534
G1 X117.578 Y85.528 E-0.09715
G1 X117.990 Y85.441 E-0.09714
G1 X118.410 Y85.441 E-0.09710
G1 X118.822 Y85.528 E-0.09714
G1 X119.206 Y85.699 E-0.09715
G1 X119.546 Y85.947 E-0.09712
G1 X119.828 Y86.259 E-0.09712
G1 X120.038 Y86.624 E-0.09716
G1 X120.168 Y87.024 E-0.09713
G1 X120.212 Y87.442 E-0.09714
G1 X120.168 Y87.860 E-0.09714
G1 X120.038 Y88.260 E-0.09713
G1 X119.932 Y88.444 E-0.04903
G1 E-0.07000 F2100.00000
G1 Z0.400 F10800.000
G1 X114.737 Y85.229
G1 Z0.200
G1 E1.40000 F2100.00000
G1 F1200.000
G1 X114.737 Y81.429 E0.11915
G1 X121.513 Y81.426 E0.21245
G1 X121.577 Y81.912 E0.01538
G1 X121.469 Y82.894 E0.03097
G1 X121.440 Y83.424 E0.01666
G1 X121.440 Y85.460 E0.06381
G1 X121.469 Y85.990 E0.01666
G1 X121.573 Y86.942 E0.03003
G1 X121.469 Y87.894 E0.03003
G1 X121.440 Y88.426 E0.01670
G1 X121.440 Y89.458 E0.03236
G1 X121.469 Y89.990 E0.01670
G1 X121.573 Y90.942 E0.03003
G1 X121.469 Y91.894 E0.03003
G1 X121.439 Y92.655 E0.02388
G1 X117.396 Y92.655 E0.12675
G1 X113.998 Y90.956 E0.11914
G1 X113.998 Y85.229 E0.17955
G1 X114.677 Y85.229 E0.02130
G1 X114.360 Y84.852 F10800.000
G1 F1200.000
G1 X114.360 Y81.052 E0.11915
G1 X121.845 Y81.049 E0.23467
G1 X121.934 Y81.734 E0.02168
G1 X122.327 Y81.777 E0.01241
G1 X122.327 Y82.107 E0.01033
G1 X121.930 Y82.150 E0.01252
G1 X121.845 Y82.925 E0.02444
G1 X121.817 Y83.436 E0.01604
G1 X121.812 Y84.442 E0.03155
G1 X121.817 Y85.448 E0.03155
G1 X121.845 Y85.959 E0.01604
G1 X121.930 Y86.734 E0.02444
G1 X122.327 Y86.777 E0.01252
G1 X122.327 Y87.107 E0.01033
G1 X121.930 Y87.150 E0.01252
G1 X121.845 Y87.925 E0.02444
G1 X121.817 Y88.436 E0.01606
G1 X121.817 Y89.448 E0.03171
G1 X121.845 Y89.959 E0.01606
G1 X121.930 Y90.734 E0.02444
G1 X122.327 Y90.777 E0.01252
G1 X122.327 Y91.107 E0.01033
G1 X121.930 Y91.150 E0.01252
G1 X121.845 Y91.925 E0.02444
G1 X121.817 Y92.436 E0.01604
G1 X121.813 Y93.032 E0.01870
G1 X117.307 Y93.032 E0.14129
G1 X113.621 Y91.189 E0.12924
G1 X113.621 Y84.852 E0.19868
G1 X114.300 Y84.852 E0.02130
G1 X114.714 Y84.666 F10800.000
G1 F8640.000
G1 X114.360 Y81.052 E-0.87756
G1 X116.319 Y81.051 E-0.45244
G1 E-0.07000 F2100.00000
G1 Z0.400 F10800.000
G1 X114.111 Y90.107
G1 Z0.200
G1 E1.40000 F2100.00000
G1 F1200.000
G1 X115.288 Y91.284 E0.05278
G1 X116.366 Y91.824 E0.03823
G1 X114.280 Y89.738 E0.09352
G1 X114.280 Y89.199 E0.01709
G1 X117.445 Y92.363 E0.14187
G1 X117.993 Y92.372 E0.01739
G1 X114.280 Y88.659 E0.16646
G1 X114.280 Y88.120 E0.01709
G1 X118.702 Y92.542 E0.19824
G1 F8640.000
G1 X114.629 Y88.469 E-1.33000
G1 E-0.07000 F2100.00000
G1 Z0.400 F10800.000
G1 X121.433 Y87.185
G1 Z0.200
G1 E1.40000 F2100.00000
G1 F1200.000
G1 X120.665 Y86.417 E0.03444
G1 X120.817 Y86.886 E0.01563
G1 X120.843 Y87.134 E0.00793
G1 X121.226 Y87.517 E0.01716
G1 X121.180 Y88.010 E0.01569
G1 X120.851 Y87.681 E0.01475
G1 X120.817 Y87.998 E0.01012
G1 X120.771 Y88.140 E0.00474
G1 X121.157 Y88.527 E0.01732
G1 X121.157 Y89.066 E0.01709
G1 X120.636 Y88.545 E0.02337
G1 X120.439 Y88.887 E0.01251
G1 X121.165 Y89.613 E0.03258
G1 X121.207 Y90.194 E0.01846
G1 X120.205 Y89.192 E0.04493
G1 X119.941 Y89.467 E0.01209
G1 X121.273 Y90.800 E0.05976
G1 X121.289 Y90.942 E0.00454
G1 X121.248 Y91.314 E0.01185
G1 X119.628 Y89.694 E0.07264
G1 X119.538 Y89.759 E0.00354
G1 X119.273 Y89.877 E0.00920
G1 X121.195 Y91.800 E0.08619
G1 X121.169 Y92.313 E0.01630
G1 X118.875 Y90.019 E0.10286
G1 X118.420 Y90.103 E0.01467
G1 X120.689 Y92.372 E0.10173
G1 X120.150 Y92.372 E0.01709
G1 X117.870 Y90.092 E0.10221
G1 X117.373 Y89.987 E0.01611
G1 X117.107 Y89.868 E0.00925
G1 X119.611 Y92.372 E0.11227
G1 X119.071 Y92.372 E0.01709
G1 X114.280 Y87.581 E0.21481
G1 X114.280 Y87.042 E0.01709
G1 X115.749 Y88.511 E0.06585
G1 X115.583 Y87.998 E0.01707
G1 X115.560 Y87.782 E0.00689
G1 X114.280 Y86.503 E0.05737
G1 X114.280 Y85.963 E0.01709
G1 X115.547 Y87.230 E0.05677
G1 X115.583 Y86.886 E0.01096
G1 X115.622 Y86.766 E0.00400
G1 X114.368 Y85.512 E0.05621
G1 X114.907 Y85.512 E0.01709
G1 X115.754 Y86.359 E0.03796
G1 X115.951 Y86.016 E0.01252
G1 X115.020 Y85.085 E0.04173
G1 X115.020 Y84.546 E0.01709
G1 X116.181 Y85.707 E0.05206
G1 X116.443 Y85.430 E0.01209
G1 X115.020 Y84.007 E0.06379
G1 X115.020 Y83.468 E0.01709
G1 X116.755 Y85.203 E0.07779
G1 X116.862 Y85.125 E0.00420
G1 X117.107 Y85.016 E0.00850
G1 X115.020 Y82.928 E0.09358
G1 X115.020 Y82.389 E0.01709
G1 X117.501 Y84.870 E0.11123
G1 X117.951 Y84.781 E0.01455
G1 X115.020 Y81.850 E0.13141
G1 X115.020 Y81.711 E0.00439
G1 X115.420 Y81.711 E0.01270
G1 X118.493 Y84.784 E0.13775
G1 X119.027 Y84.897 E0.01731
G1 X119.241 Y84.992 E0.00742
G1 X115.959 Y81.711 E0.14712
G1 X116.498 Y81.711 E0.01709
G1 X121.235 Y86.447 E0.21236
G1 X121.178 Y85.852 E0.01897
G1 X117.037 Y81.711 E0.18567
G1 X117.576 Y81.710 E0.01709
G1 X121.157 Y85.292 E0.16056
G1 X121.157 Y84.752 E0.01709
G1 X118.115 Y81.710 E0.13640
G1 X118.654 Y81.710 E0.01709
G1 X121.157 Y84.213 E0.11223
G1 X121.157 Y83.674 E0.01709
G1 X119.193 Y81.710 E0.08807
G1 X119.732 Y81.709 E0.01709
G1 X121.172 Y83.149 E0.06456
G1 X121.212 Y82.650 E0.01589
G1 X120.271 Y81.709 E0.04216
G1 X120.810 Y81.709 E0.01709
G1 X121.419 Y82.317 E0.02728
G1 F8640.000
G1 X120.810 Y81.709 E-0.19870
G1 X120.271 Y81.709 E-0.12445
G1 X121.212 Y82.650 E-0.30708
G1 X121.172 Y83.149 E-0.11575
G1 X119.732 Y81.709 E-0.47019
G1 X119.239 Y81.710 E-0.11383
G1 E-0.07000 F2100.00000
G1 Z0.400 F10800.000
G1 X132.015 Y86.469
G1 Z0.200
G1 E1.40000 F2100.00000
G1 F1200.000
G1 X132.265 Y86.036 E0.01568
G1 X132.600 Y85.665 E0.01567
G1 X133.004 Y85.371 E0.01567
G1 X133.461 Y85.168 E0.01568
G1 X133.950 Y85.064 E0.01568
G1 X134.450 Y85.064 E0.01567
G1 X134.939 Y85.168 E0.01568
G1 X135.396 Y85.371 E0.01568
G1 X135.800 Y85.665 E0.01567
G1 X136.135 Y86.036 E0.01567
G1 X136.385 Y86.469 E0.01568
G1 X136.539 Y86.945 E0.01567
G1 X136.591 Y87.442 E0.01568
G1 X136.539 Y87.939 E0.01568
G1 X136.385 Y88.415 E0.01567
G1 X136.135 Y88.848 E0.01568
G1 X135.800 Y89.219 E0.01567
G1 X135.396 Y89.513 E0.01567
G1 X134.939 Y89.716 E0.01568
G1 X134.450 Y89.820 E0.01568
G1 X133.950 Y89.820 E0.01567
G1 X133.461 Y89.716 E0.01568
G1 X133.004 Y89.513 E0.01568
G1 X132.600 Y89.219 E0.01567
G1 X132.265 Y88.848 E0.01567
G1 X132.015 Y88.415 E0.01568
G1 X131.861 Y87.939 E0.01567
G1 X131.809 Y87.442 E0.01568
G1 X131.861 Y86.945 E0.01568
G1 X131.997 Y86.526 E0.01379
G1 X132.355 Y86.643 F10800.000
G1 F1200.000
G1 X132.572 Y86.259 E0.01382
G1 X132.854 Y85.947 E0.01319
G1 X133.194 Y85.699 E0.01319
G1 X133.578 Y85.528 E0.01319
G1 X133.990 Y85.441 E0.01319
G1 X134.410 Y85.441 E0.01319
G1 X134.822 Y85.528 E0.01319
G1 X135.206 Y85.699 E0.01319
G1 X135.546 Y85.947 E0.01319
G1 X135.828 Y86.259 E0.01319
G1 X136.038 Y86.624 E0.01319
G1 X136.168 Y87.024 E0.01319
G1 X136.212 Y87.442 E0.01319
G1 X136.168 Y87.860 E0.01319
G1 X136.038 Y88.260 E0.01319
G1 X135.828 Y88.625 E0.01319
G1 X135.546 Y88.937 E0.01319
G1 X135.206 Y89.185 E0.01319
G1 X134.822 Y89.356 E0.01319
G1 X134.410 Y89.443 E0.01319
G1 X133.990 Y89.443 E0.01319
G1 X133.578 Y89.356 E0.01319
G1 X133.194 Y89.185 E0.01319
G1 X132.854 Y88.937 E0.01319
G1 X132.572 Y88.625 E0.01319
G1 X132.362 Y88.260 E0.01319
G1 X132.232 Y87.860 E0.01319
G1 X132.188 Y87.442 E0.01319
G1 X132.232 Y87.024 E0.01319
G1 X132.337 Y86.700 E0.01067
G1 X132.118 Y86.321 F10800.000
G1 F8640.000
G1 X132.572 Y86.259 E-0.11536
G1 X132.854 Y85.947 E-0.09712
G1 X133.194 Y85.699 E-0.09712
G1 X133.578 Y85.528 E-0.09715
G1 X133.990 Y85.441 E-0.09714
G1 X134.410 Y85.441 E-0.09710
G1 X134.822 Y85.528 E-0.09714
G1 X135.206 Y85.699 E-0.09715
G1 X135.546 Y85.947 E-0.09712
G1 X135.828 Y86.259 E-0.09712
G1 X136.038 Y86.624 E-0.09716
G1 X136.168 Y87.024 E-0.09713
G1 X136.212 Y87.442 E-0.09714
G1 X136.190 Y87.653 E-0.04904
G1 E-0.07000 F2100.00000
G1 Z0.400 F10800.000
G1 X137.663 Y85.229
G1 Z0.200
G1 E1.40000 F2100.00000
G1 F1200.000
G1 X138.402 Y85.229 E0.02319
G1 X138.402 Y90.956 E0.17955
G1 X135.004 Y92.655 E0.11914
G1 X130.961 Y92.655 E0.12675
G1 X130.931 Y91.894 E0.02388
G1 X130.827 Y90.942 E0.03003
G1 X130.931 Y89.990 E0.03003
G1 X130.960 Y89.458 E0.01670
G1 X130.960 Y88.426 E0.03236
G1 X130.931 Y87.894 E0.01670
G1 X130.827 Y86.942 E0.03003
G1 X130.931 Y85.990 E0.03003
G1 X130.960 Y85.460 E0.01666
G1 X130.960 Y83.424 E0.06381
G1 X130.931 Y82.894 E0.01666
G1 X130.826 Y81.936 E0.03020
G1 X130.883 Y81.429 E0.01602
G1 X137.663 Y81.429 E0.21257
G1 X137.663 Y85.169 E0.11727
G1 X138.040 Y84.852 F10800.000
G1 F1200.000
G1 X138.779 Y84.852 E0.02319
G1 X138.779 Y91.189 E0.19868
G1 X135.093 Y93.032 E0.12924
G1 X130.587 Y93.032 E0.14129
G1 X130.583 Y92.436 E0.01870
G1 X130.555 Y91.925 E0.01604
G1 X130.470 Y91.150 E0.02444
G1 X130.073 Y91.107 E0.01252
G1 X130.073 Y90.777 E0.01033
G1 X130.470 Y90.734 E0.01252
G1 X130.555 Y89.959 E0.02444
G1 X130.583 Y89.448 E0.01606
G1 X130.583 Y88.436 E0.03171
G1 X130.555 Y87.925 E0.01606
G1 X130.470 Y87.150 E0.02444
G1 X130.073 Y87.107 E0.01252
G1 X130.073 Y86.777 E0.01033
G1 X130.470 Y86.734 E0.01252
G1 X130.555 Y85.959 E0.02444
G1 X130.583 Y85.448 E0.01604
G1 X130.588 Y84.442 E0.03155
G1 X130.583 Y83.436 E0.03155
G1 X130.555 Y82.925 E0.01604
G1 X130.470 Y82.150 E0.02444
G1 X130.073 Y82.107 E0.01252
G1 X130.073 Y81.777 E0.01033
G1 X130.469 Y81.734 E0.01250
G1 X130.547 Y81.050 E0.02157
G1 X138.040 Y81.052 E0.23495
G1 X138.040 Y84.792 E0.11727
G1 X138.184 Y85.225 F10800.000
G1 X137.550 Y85.070
G1 F1200.000
G1 X134.191 Y81.712 E0.15319
G1 X134.740 Y81.712 E0.01769
G1 X137.380 Y84.352 E0.12043
G1 X137.380 Y83.803 E0.01769
G1 X135.288 Y81.712 E0.09541
G1 X135.837 Y81.712 E0.01769
G1 X137.380 Y83.255 E0.07038
G1 X137.380 Y82.706 E0.01769
G1 X136.386 Y81.712 E0.04536
G1 X136.934 Y81.712 E0.01769
G1 X137.550 Y82.327 E0.02808
G1 F8640.000
G1 X136.934 Y81.712 E-0.20101
G1 X136.386 Y81.712 E-0.12667
G1 X137.380 Y82.706 E-0.32474
G1 X137.380 Y83.255 E-0.12667
G1 X135.837 Y81.712 E-0.50388
G1 X135.633 Y81.712 E-0.04703
G1 E-0.07000 F2100.00000
G1 Z0.400 F10800.000
G1 X137.822 Y85.342
G1 Z0.200
G1 E1.40000 F2100.00000
G1 F1200.000
G1 X138.289 Y85.810 E0.02133
G1 X138.289 Y86.358 F10800.000
G1 F1200.000
G1 X133.643 Y81.712 E0.21195
G1 X133.094 Y81.712 E0.01769
G1 X138.120 Y86.737 E0.22923
G1 X138.120 Y87.286 E0.01769
G1 X132.546 Y81.712 E0.25426
G1 X131.997 Y81.712 E0.01769
G1 X135.308 Y85.022 E0.15101
G1 X135.027 Y84.897 E0.00991
G1 X134.528 Y84.791 E0.01645
G1 X131.448 Y81.712 E0.14047
G1 X131.136 Y81.712 E0.01007
G1 X131.112 Y81.924 E0.00689
G1 X133.969 Y84.781 E0.13033
G1 X133.508 Y84.869 E0.01513
G1 X131.176 Y82.536 E0.10637
G1 X131.227 Y83.136 E0.01941
G1 X133.107 Y85.016 E0.08574
G1 X132.862 Y85.125 E0.00864
G1 X132.749 Y85.207 E0.00450
G1 X131.243 Y83.700 E0.06873
G1 X131.243 Y84.249 E0.01769
G1 X132.432 Y85.438 E0.05423
G1 X132.168 Y85.722 E0.01252
G1 X131.243 Y84.797 E0.04219
G1 X131.243 Y85.346 E0.01769
G1 X131.937 Y86.040 E0.03166
G1 X131.742 Y86.394 E0.01303
G1 X131.220 Y85.872 E0.02381
G1 X131.173 Y86.374 E0.01624
G1 X131.608 Y86.808 E0.01983
G1 X131.583 Y86.886 E0.00263
G1 X131.540 Y87.289 E0.01309
G1 X131.119 Y86.868 E0.01921
G1 X131.111 Y86.942 E0.00240
G1 X131.168 Y87.466 E0.01700
G1 X131.790 Y88.088 E0.02836
G1 F8640.000
G1 X131.168 Y87.466 E-0.20306
G1 X131.111 Y86.942 E-0.12168
G1 X131.119 Y86.868 E-0.01718
G1 X131.540 Y87.289 E-0.13754
G1 X131.583 Y86.886 E-0.09370
G1 X131.608 Y86.808 E-0.01880
G1 X131.173 Y86.374 E-0.14194
