; generated by PrusaSlicer 2.2.0+win64 on 2021-01-28 at 17:47:01 UTC

; 

; external perimeters extrusion width = 0.45mm
; perimeters extrusion width = 0.45mm
; infill extrusion width = 0.45mm
; solid infill extrusion width = 0.45mm
; top infill extrusion width = 0.40mm
; first layer extrusion width = 0.42mm

M73 P0 R172
M73 Q0 S174
M201 X1000 Y1000 Z200 E5000 ; sets maximum accelerations, mm/sec^2
M203 X200 Y200 Z12 E120 ; sets maximum feedrates, mm/sec
M204 P1250 R1250 T1250 ; sets acceleration (P, T) and retract acceleration (R), mm/sec^2
M205 X8.00 Y8.00 Z0.40 E4.50 ; sets the jerk limits, mm/sec
M205 S0 T0 ; sets the minimum extruding and travel feed rate, mm/sec
M107
M862.3 P "MK3S" ; printer model check
M862.1 P0.4 ; nozzle diameter check
M115 U3.9.3 ; tell printer latest fw version
G90 ; use absolute coordinates
M83 ; extruder relative mode
M104 S230 ; set extruder temp
M140 S85 ; set bed temp
M190 S85 ; wait for bed temp
M109 S230 ; wait for extruder temp
G28 W ; home all without mesh bed level
G80 ; mesh bed leveling
G1 Y-3.0 F1000.0 ; go outside print area
G92 E0.0
G1 X60.0 E9.0 F1000.0 ; intro line
M73 Q0 S174
M73 P0 R172
G1 X100.0 E12.5 F1000.0 ; intro line
G92 E0.0
M221 S95

; Don't change E values below. Excessive value can damage the printer.

M907 E538 ; set extruder motor current
G21 ; set units to millimeters
G90 ; use absolute coordinates
M83 ; use relative distances for extrusion
M900 K0.08 ; Filament gcode LA 1.5
M900 K45 ; Filament gcode LA 1.0
;BEFORE_LAYER_CHANGE
G92 E0.0
;0.2


G1 E-1.40000 F2100.00000
G1 Z0.200 F10800.000
;AFTER_LAYER_CHANGE
;0.2
G1 Z0.400
G1 X69.912 Y73.741
G1 Z0.200
G1 E1.40000 F2100.00000
M204 S1000
G1 F1200.000
G1 X70.135 Y73.083 E0.02178
G1 X70.539 Y72.518 E0.02178
G1 X85.927 Y57.152 E0.68185
G1 X86.617 Y56.770 E0.02473
G1 X87.394 Y56.635 E0.02473
G1 X177.754 Y56.635 E2.83316
G1 X178.656 Y56.815 E0.02884
G1 X179.420 Y57.320 E0.02872
G1 X179.935 Y58.077 E0.02872
G1 X180.127 Y58.973 E0.02872
G1 X180.127 Y148.428 E2.80479
G1 X180.063 Y148.952 E0.01657
G1 X179.887 Y149.446 E0.01645
G1 X179.604 Y149.893 E0.01657
G1 X179.230 Y150.265 E0.01657
G1 X178.539 Y150.647 E0.02473
G1 X177.763 Y150.782 E0.02473
G1 X93.567 Y150.775 E2.63988
G1 X92.933 Y150.637 E0.02036
G1 X71.403 Y142.658 E0.71993
G1 X70.846 Y142.355 E0.01989
G1 X70.388 Y141.916 E0.01989
G1 X70.009 Y141.229 E0.02461
G1 X69.873 Y140.456 E0.02461
G1 X69.912 Y73.801 E2.08992
; printing object Rambo-doors.stl id:0 copy 0
G1 F8640.000
G1 X70.135 Y73.083 E-0.17355
G1 X70.539 Y72.518 E-0.16037
G1 X73.592 Y69.470 E-0.99607
G1 E-0.07000 F2100.00000
G1 Z0.400 F10800.000
G1 X123.463 Y68.725
G1 Z0.200
G1 E1.40000 F2100.00000
G1 F1200.000
G1 X128.687 Y68.725 E0.16380
G1 X128.687 Y139.299 E2.21280
G1 X123.463 Y139.299 E0.16380
G1 X123.463 Y68.785 E2.21092
G1 X123.840 Y69.102 F10800.000
G1 F1200.000
G1 X128.310 Y69.102 E0.14015
G1 X128.310 Y138.922 E2.18916
G1 X123.840 Y138.922 E0.14015
G1 X123.840 Y69.162 E2.18728
G1 X123.831 Y68.702 F10800.000
G1 F8640.000
G1 X128.310 Y69.102 E-1.03223
G1 X128.310 Y70.392 E-0.29777
G1 E-0.07000 F2100.00000
G1 Z0.400 F10800.000
G1 X117.463 Y68.725
G1 Z0.200
G1 E1.40000 F2100.00000
G1 F1200.000
G1 X122.687 Y68.725 E0.16380
G1 X122.687 Y139.299 E2.21280
G1 X117.463 Y139.299 E0.16380
G1 X117.463 Y68.785 E2.21092
G1 X117.840 Y69.102 F10800.000
G1 F1200.000
G1 X122.310 Y69.102 E0.14015
G1 X122.310 Y138.922 E2.18916
G1 X117.840 Y138.922 E0.14015
G1 X117.840 Y69.162 E2.18728
G1 X117.831 Y68.702 F10800.000
G1 F8640.000
G1 X122.310 Y69.102 E-1.03223
G1 X122.310 Y70.392 E-0.29777
G1 E-0.07000 F2100.00000
G1 Z0.400 F10800.000
G1 X111.463 Y68.725
G1 Z0.200
G1 E1.40000 F2100.00000
G1 F1200.000
G1 X116.687 Y68.725 E0.16380
G1 X116.687 Y139.299 E2.21280
G1 X111.463 Y139.299 E0.16380
G1 X111.463 Y68.785 E2.21092
M73 Q0 S173
M73 P0 R171
G1 X111.840 Y69.102 F10800.000
G1 F1200.000
G1 X116.310 Y69.102 E0.14015
G1 X116.310 Y138.922 E2.18916
G1 X111.840 Y138.922 E0.14015
G1 X111.840 Y69.162 E2.18728
G1 X111.831 Y68.702 F10800.000
G1 F8640.000
G1 X116.310 Y69.102 E-1.03223
G1 X116.310 Y70.392 E-0.29777
G1 E-0.07000 F2100.00000
G1 Z0.400 F10800.000
G1 X105.463 Y68.725
G1 Z0.200
G1 E1.40000 F2100.00000
G1 F1200.000
G1 X110.687 Y68.725 E0.16380
G1 X110.687 Y139.299 E2.21280
G1 X105.463 Y139.299 E0.16380
G1 X105.463 Y68.785 E2.21092
G1 X105.840 Y69.102 F10800.000
G1 F1200.000
G1 X110.310 Y69.102 E0.14015
G1 X110.310 Y138.922 E2.18916
G1 X105.840 Y138.922 E0.14015
G1 X105.840 Y69.162 E2.18728
G1 X105.831 Y68.702 F10800.000
G1 F8640.000
G1 X110.310 Y69.102 E-1.03223
G1 X110.310 Y70.392 E-0.29777
G1 E-0.07000 F2100.00000
G1 Z0.400 F10800.000
G1 X99.463 Y68.725
G1 Z0.200
G1 E1.40000 F2100.00000
G1 F1200.000
G1 X104.687 Y68.725 E0.16380
G1 X104.687 Y139.299 E2.21280
G1 X99.463 Y139.299 E0.16380
G1 X99.463 Y68.785 E2.21092
G1 X99.840 Y69.102 F10800.000
G1 F1200.000
G1 X104.310 Y69.102 E0.14015
G1 X104.310 Y138.922 E2.18916
G1 X99.840 Y138.922 E0.14015
G1 X99.840 Y69.162 E2.18728
G1 X99.831 Y68.702 F10800.000
G1 F8640.000
G1 X104.310 Y69.102 E-1.03223
G1 X104.310 Y70.392 E-0.29777
G1 E-0.07000 F2100.00000
G1 Z0.400 F10800.000
G1 X93.463 Y68.725
G1 Z0.200
G1 E1.40000 F2100.00000
G1 F1200.000
G1 X98.687 Y68.725 E0.16380
G1 X98.687 Y139.299 E2.21280
G1 X93.463 Y139.299 E0.16380
G1 X93.463 Y68.785 E2.21092
G1 X93.840 Y69.102 F10800.000
G1 F1200.000
G1 X98.310 Y69.102 E0.14015
G1 X98.310 Y138.922 E2.18916
G1 X93.840 Y138.922 E0.14015
G1 X93.840 Y69.162 E2.18728
G1 X93.831 Y68.702 F10800.000
G1 F8640.000
G1 X98.310 Y69.102 E-1.03223
G1 X98.310 Y70.392 E-0.29777
G1 E-0.07000 F2100.00000
G1 Z0.400 F10800.000
G1 X87.463 Y68.725
G1 Z0.200
G1 E1.40000 F2100.00000
G1 F1200.000
G1 X92.687 Y68.725 E0.16380
G1 X92.687 Y139.299 E2.21280
G1 X87.463 Y139.299 E0.16380
G1 X87.463 Y68.785 E2.21092
M73 Q1 S172
M73 P1 R170
G1 X87.840 Y69.102 F10800.000
G1 F1200.000
G1 X92.310 Y69.102 E0.14015
G1 X92.310 Y138.922 E2.18916
G1 X87.840 Y138.922 E0.14015
G1 X87.840 Y69.162 E2.18728
G1 X87.831 Y68.702 F10800.000
G1 F8640.000
G1 X92.310 Y69.102 E-1.03223
G1 X92.310 Y70.392 E-0.29777
G1 E-0.07000 F2100.00000
G1 Z0.400 F10800.000
G1 X86.687 Y78.725
G1 Z0.200
G1 E1.40000 F2100.00000
G1 F1200.000
G1 X86.687 Y139.299 E1.89926
G1 X81.463 Y139.299 E0.16380
G1 X81.463 Y78.725 E1.89926
G1 X86.627 Y78.725 E0.16192
G1 X86.310 Y79.102 F10800.000
G1 F1200.000
G1 X86.310 Y138.922 E1.87561
G1 X81.840 Y138.922 E0.14015
G1 X81.840 Y79.102 E1.87561
G1 X86.250 Y79.102 E0.13827
G1 X86.661 Y78.911 F10800.000
G1 F8640.000
G1 X86.256 Y84.862 E-1.33000
G1 E-0.07000 F2100.00000
G1 Z0.400 F10800.000
G1 X75.463 Y78.725
G1 Z0.200
G1 E1.40000 F2100.00000
G1 F1200.000
G1 X80.687 Y78.725 E0.16380
G1 X80.687 Y139.299 E1.89926
G1 X75.463 Y139.299 E0.16380
G1 X75.463 Y78.785 E1.89738
G1 X75.840 Y79.102 F10800.000
G1 F1200.000
G1 X80.310 Y79.102 E0.14015
G1 X80.310 Y138.922 E1.87561
G1 X75.840 Y138.922 E0.14015
G1 X75.840 Y79.162 E1.87373
G1 X75.830 Y78.702 F10800.000
G1 F8640.000
G1 X80.310 Y79.102 E-1.03223
G1 X80.310 Y80.392 E-0.29777
G1 E-0.07000 F2100.00000
G1 Z0.400 F10800.000
G1 X129.463 Y68.725
G1 Z0.200
G1 E1.40000 F2100.00000
G1 F1200.000
G1 X134.687 Y68.725 E0.16380
G1 X134.687 Y139.299 E2.21280
G1 X129.463 Y139.299 E0.16380
G1 X129.463 Y68.785 E2.21092
G1 X129.840 Y69.102 F10800.000
G1 F1200.000
G1 X134.310 Y69.102 E0.14015
G1 X134.310 Y138.922 E2.18916
G1 X129.840 Y138.922 E0.14015
G1 X129.840 Y69.162 E2.18728
G1 X129.831 Y68.702 F10800.000
G1 F8640.000
G1 X134.310 Y69.102 E-1.03223
G1 X134.310 Y70.392 E-0.29777
G1 E-0.07000 F2100.00000
G1 Z0.400 F10800.000
G1 X135.463 Y68.725
G1 Z0.200
G1 E1.40000 F2100.00000
G1 F1200.000
G1 X140.687 Y68.725 E0.16380
G1 X140.687 Y139.299 E2.21280
G1 X135.463 Y139.299 E0.16380
G1 X135.463 Y68.785 E2.21092
G1 X135.840 Y69.102 F10800.000
G1 F1200.000
G1 X140.310 Y69.102 E0.14015
G1 X140.310 Y138.922 E2.18916
M73 Q1 S171
M73 P1 R169
G1 X135.840 Y138.922 E0.14015
G1 X135.840 Y69.162 E2.18728
G1 X135.831 Y68.702 F10800.000
G1 F8640.000
G1 X140.310 Y69.102 E-1.03223
G1 X140.310 Y70.392 E-0.29777
G1 E-0.07000 F2100.00000
G1 Z0.400 F10800.000
G1 X141.463 Y68.725
G1 Z0.200
G1 E1.40000 F2100.00000
G1 F1200.000
G1 X146.687 Y68.725 E0.16380
G1 X146.687 Y139.299 E2.21280
G1 X141.463 Y139.299 E0.16380
G1 X141.463 Y68.785 E2.21092
G1 X141.840 Y69.102 F10800.000
G1 F1200.000
G1 X146.310 Y69.102 E0.14015
G1 X146.310 Y138.922 E2.18916
G1 X141.840 Y138.922 E0.14015
G1 X141.840 Y69.162 E2.18728
G1 X141.831 Y68.702 F10800.000
G1 F8640.000
G1 X146.310 Y69.102 E-1.03223
G1 X146.310 Y70.392 E-0.29777
G1 E-0.07000 F2100.00000
G1 Z0.400 F10800.000
G1 X147.463 Y68.725
G1 Z0.200
G1 E1.40000 F2100.00000
G1 F1200.000
G1 X152.687 Y68.725 E0.16380
G1 X152.687 Y139.299 E2.21280
G1 X147.463 Y139.299 E0.16380
G1 X147.463 Y68.785 E2.21092
G1 X147.840 Y69.102 F10800.000
G1 F1200.000
G1 X152.310 Y69.102 E0.14015
G1 X152.310 Y138.922 E2.18916
G1 X147.840 Y138.922 E0.14015
G1 X147.840 Y69.162 E2.18728
G1 X147.831 Y68.702 F10800.000
G1 F8640.000
G1 X152.310 Y69.102 E-1.03223
G1 X152.310 Y70.392 E-0.29777
G1 E-0.07000 F2100.00000
G1 Z0.400 F10800.000
G1 X153.463 Y68.725
G1 Z0.200
G1 E1.40000 F2100.00000
G1 F1200.000
G1 X158.687 Y68.725 E0.16380
G1 X158.687 Y139.299 E2.21280
G1 X153.463 Y139.299 E0.16380
G1 X153.463 Y68.785 E2.21092
G1 X153.840 Y69.102 F10800.000
G1 F1200.000
G1 X158.310 Y69.102 E0.14015
G1 X158.310 Y138.922 E2.18916
G1 X153.840 Y138.922 E0.14015
G1 X153.840 Y69.162 E2.18728
G1 X153.831 Y68.702 F10800.000
G1 F8640.000
G1 X158.310 Y69.102 E-1.03223
G1 X158.310 Y70.392 E-0.29777
G1 E-0.07000 F2100.00000
G1 Z0.400 F10800.000
G1 X159.463 Y68.725
G1 Z0.200
G1 E1.40000 F2100.00000
G1 F1200.000
G1 X164.687 Y68.725 E0.16380
G1 X164.687 Y139.299 E2.21280
G1 X159.463 Y139.299 E0.16380
G1 X159.463 Y68.785 E2.21092
G1 X159.840 Y69.102 F10800.000
G1 F1200.000
G1 X164.310 Y69.102 E0.14015
G1 X164.310 Y138.922 E2.18916
M73 Q2 S170
M73 P2 R168
G1 X159.840 Y138.922 E0.14015
G1 X159.840 Y69.162 E2.18728
G1 X159.831 Y68.702 F10800.000
G1 F8640.000
G1 X164.310 Y69.102 E-1.03223
G1 X164.310 Y70.392 E-0.29777
G1 E-0.07000 F2100.00000
G1 Z0.400 F10800.000
G1 X165.463 Y68.725
G1 Z0.200
G1 E1.40000 F2100.00000
G1 F1200.000
G1 X170.687 Y68.725 E0.16380
G1 X170.687 Y139.299 E2.21280
G1 X165.463 Y139.299 E0.16380
G1 X165.463 Y68.785 E2.21092
G1 X165.840 Y69.102 F10800.000
G1 F1200.000
G1 X170.310 Y69.102 E0.14015
G1 X170.310 Y138.922 E2.18916
G1 X165.840 Y138.922 E0.14015
G1 X165.840 Y69.162 E2.18728
G1 X165.831 Y68.702 F10800.000
G1 F8640.000
G1 X170.310 Y69.102 E-1.03223
G1 X170.310 Y70.392 E-0.29777
G1 E-0.07000 F2100.00000
G1 Z0.400 F10800.000
G1 X94.537 Y139.325
G1 Z0.200
G1 E1.40000 F2100.00000
G1 F1200.000
G1 X73.037 Y139.325 E0.67412
G1 X73.037 Y74.954 E2.01831
G1 X88.192 Y59.799 E0.67199
G1 X176.963 Y59.799 E2.78335
G1 X176.963 Y146.666 E2.72364
G1 X94.537 Y146.666 E2.58440
G1 X94.537 Y139.385 E0.22828
G1 X94.160 Y139.702 F10800.000
G1 F1200.000
G1 X72.660 Y139.702 E0.67412
G1 X72.660 Y74.798 E2.03503
G1 X88.036 Y59.422 E0.68179
G1 X177.340 Y59.422 E2.80007
G1 X177.340 Y147.043 E2.74729
G1 X94.160 Y147.043 E2.60805
G1 X94.160 Y139.762 E0.22828
G1 X93.970 Y139.350 F10800.000
G1 F8640.000
G1 X88.400 Y139.746 E-1.33000
G1 E-0.07000 F2100.00000
G1 Z0.400 F10800.000
G1 X92.800 Y138.350
G1 Z0.200
G1 E1.40000 F2100.00000
G1 F1200.000
G1 X93.180 Y138.730 E0.01686
G1 X93.180 Y138.197 E0.01675
G1 X92.970 Y137.986 E0.00933
G1 X92.970 Y137.453 E0.01675
G1 X93.180 Y137.663 E0.00933
G1 X93.180 Y137.129 E0.01675
G1 X92.970 Y136.919 E0.00933
G1 X92.970 Y136.385 E0.01675
G1 X93.180 Y136.595 E0.00933
G1 X93.180 Y136.062 E0.01675
G1 X92.970 Y135.851 E0.00933
G1 X92.970 Y135.318 E0.01675
G1 X93.180 Y135.528 E0.00933
G1 X93.180 Y134.994 E0.01675
G1 X92.970 Y134.784 E0.00933
G1 X92.970 Y134.250 E0.01675
G1 X93.180 Y134.460 E0.00933
G1 X93.180 Y133.927 E0.01675
G1 X92.970 Y133.716 E0.00933
G1 X92.970 Y133.183 E0.01675
G1 X93.180 Y133.393 E0.00933
G1 X93.180 Y132.859 E0.01675
G1 X92.970 Y132.649 E0.00933
G1 X92.970 Y132.115 E0.01675
G1 X93.180 Y132.325 E0.00933
G1 X93.180 Y131.792 E0.01675
G1 X92.970 Y131.581 E0.00933
G1 X92.970 Y131.048 E0.01675
G1 X93.180 Y131.258 E0.00933
G1 X93.180 Y130.724 E0.01675
G1 X92.970 Y130.514 E0.00933
G1 X92.970 Y129.980 E0.01675
G1 X93.180 Y130.190 E0.00933
G1 X93.180 Y129.657 E0.01675
G1 X92.970 Y129.446 E0.00933
G1 X92.970 Y128.913 E0.01675
G1 X93.180 Y129.123 E0.00933
G1 X93.180 Y128.589 E0.01675
G1 X92.970 Y128.379 E0.00933
G1 X92.970 Y127.845 E0.01675
G1 X93.180 Y128.055 E0.00933
G1 X93.180 Y127.522 E0.01675
G1 X92.970 Y127.311 E0.00933
G1 X92.970 Y126.778 E0.01675
G1 X93.180 Y126.988 E0.00933
G1 X93.180 Y126.454 E0.01675
G1 X92.970 Y126.244 E0.00933
G1 X92.970 Y125.710 E0.01675
G1 X93.180 Y125.920 E0.00933
G1 X93.180 Y125.387 E0.01675
G1 X92.970 Y125.176 E0.00933
G1 X92.970 Y124.643 E0.01675
G1 X93.180 Y124.853 E0.00933
G1 X93.180 Y124.319 E0.01675
G1 X92.970 Y124.109 E0.00933
G1 X92.970 Y123.575 E0.01675
M73 Q3 S169
G1 X93.180 Y123.785 E0.00933
G1 X93.180 Y123.252 E0.01675
G1 X92.970 Y123.041 E0.00933
G1 X92.970 Y122.508 E0.01675
G1 X93.180 Y122.718 E0.00933
G1 X93.180 Y122.184 E0.01675
M73 P3 R167
G1 X92.970 Y121.974 E0.00933
G1 X92.970 Y121.440 E0.01675
G1 X93.180 Y121.650 E0.00933
G1 X93.180 Y121.117 E0.01675
G1 X92.970 Y120.906 E0.00933
G1 X92.970 Y120.373 E0.01675
G1 X93.180 Y120.583 E0.00933
G1 X93.180 Y120.049 E0.01675
G1 X92.970 Y119.839 E0.00933
G1 X92.970 Y119.305 E0.01675
G1 X93.180 Y119.515 E0.00933
G1 X93.180 Y118.982 E0.01675
G1 X92.970 Y118.771 E0.00933
G1 X92.970 Y118.238 E0.01675
G1 X93.180 Y118.448 E0.00933
G1 X93.180 Y117.914 E0.01675
G1 X92.970 Y117.704 E0.00933
G1 X92.970 Y117.170 E0.01675
G1 X93.180 Y117.381 E0.00933
G1 X93.180 Y116.847 E0.01675
G1 X92.970 Y116.637 E0.00933
G1 X92.970 Y116.103 E0.01675
G1 X93.180 Y116.313 E0.00933
G1 X93.180 Y115.779 E0.01675
G1 X92.970 Y115.569 E0.00933
G1 X92.970 Y115.035 E0.01675
G1 X93.180 Y115.246 E0.00933
G1 X93.180 Y114.712 E0.01675
G1 X92.970 Y114.502 E0.00933
G1 X92.970 Y113.968 E0.01675
G1 X93.180 Y114.178 E0.00933
G1 X93.180 Y113.644 E0.01675
G1 X92.970 Y113.434 E0.00933
G1 X92.970 Y112.900 E0.01675
G1 X93.180 Y113.111 E0.00933
G1 X93.180 Y112.577 E0.01675
G1 X92.970 Y112.367 E0.00933
G1 X92.970 Y111.833 E0.01675
G1 X93.180 Y112.043 E0.00933
G1 X93.180 Y111.509 E0.01675
G1 X92.970 Y111.299 E0.00933
G1 X92.970 Y110.765 E0.01675
G1 X93.180 Y110.976 E0.00933
G1 X93.180 Y110.442 E0.01675
G1 X92.970 Y110.232 E0.00933
G1 X92.970 Y109.698 E0.01675
G1 X93.180 Y109.908 E0.00933
G1 X93.180 Y109.374 E0.01675
G1 X92.970 Y109.164 E0.00933
G1 X92.970 Y108.630 E0.01675
G1 X93.180 Y108.841 E0.00933
G1 X93.180 Y108.307 E0.01675
G1 X92.970 Y108.097 E0.00933
G1 X92.970 Y107.563 E0.01675
G1 X93.180 Y107.773 E0.00933
G1 X93.180 Y107.239 E0.01675
G1 X92.970 Y107.029 E0.00933
G1 X92.970 Y106.495 E0.01675
G1 X93.180 Y106.706 E0.00933
G1 X93.180 Y106.172 E0.01675
G1 X92.970 Y105.962 E0.00933
G1 X92.970 Y105.428 E0.01675
G1 X93.180 Y105.638 E0.00933
G1 X93.180 Y105.104 E0.01675
G1 X92.970 Y104.894 E0.00933
G1 X92.970 Y104.360 E0.01675
G1 X93.180 Y104.571 E0.00933
G1 X93.180 Y104.037 E0.01675
G1 X92.970 Y103.827 E0.00933
G1 X92.970 Y103.293 E0.01675
G1 X93.180 Y103.503 E0.00933
G1 X93.180 Y102.969 E0.01675
G1 X92.970 Y102.759 E0.00933
G1 X92.970 Y102.225 E0.01675
G1 X93.180 Y102.436 E0.00933
G1 X93.180 Y101.902 E0.01675
G1 X92.970 Y101.692 E0.00933
G1 X92.970 Y101.158 E0.01675
G1 X93.180 Y101.368 E0.00933
G1 X93.180 Y100.834 E0.01675
G1 X92.970 Y100.624 E0.00933
G1 X92.970 Y100.090 E0.01675
G1 X93.180 Y100.301 E0.00933
G1 X93.180 Y99.767 E0.01675
G1 X92.970 Y99.557 E0.00933
G1 X92.970 Y99.023 E0.01675
G1 X93.180 Y99.233 E0.00933
G1 X93.180 Y98.699 E0.01675
G1 X92.970 Y98.489 E0.00933
G1 X92.970 Y97.955 E0.01675
G1 X93.180 Y98.166 E0.00933
G1 X93.180 Y97.632 E0.01675
G1 X92.970 Y97.422 E0.00933
G1 X92.970 Y96.888 E0.01675
G1 X93.180 Y97.098 E0.00933
G1 X93.180 Y96.564 E0.01675
G1 X92.970 Y96.354 E0.00933
G1 X92.970 Y95.821 E0.01675
G1 X93.180 Y96.031 E0.00933
G1 X93.180 Y95.497 E0.01675
G1 X92.970 Y95.287 E0.00933
