; generated by PrusaSlicer 2.2.0+win64 on 2021-09-30 at 20:15:55 UTC

; 

; external perimeters extrusion width = 0.45mm
; perimeters extrusion width = 0.45mm
; infill extrusion width = 0.45mm
; solid infill extrusion width = 0.45mm
; top infill extrusion width = 0.40mm
; first layer extrusion width = 0.42mm

M73 P0 R78
M73 Q0 S79
M201 X1000 Y1000 Z200 E5000 ; sets maximum accelerations, mm/sec^2
M203 X200 Y200 Z12 E120 ; sets maximum feedrates, mm/sec
M204 P1250 R1250 T1250 ; sets acceleration (P, T) and retract acceleration (R), mm/sec^2
M205 X8.00 Y8.00 Z0.40 E4.50 ; sets the jerk limits, mm/sec
M205 S0 T0 ; sets the minimum extruding and travel feed rate, mm/sec
M107
M862.3 P "MK3S" ; printer model check
M862.1 P0.4 ; nozzle diameter check
M115 U3.10.0 ; tell printer latest fw version
G90 ; use absolute coordinates
M83 ; extruder relative mode
M104 S215 ; set extruder temp
M140 S60 ; set bed temp
M190 S60 ; wait for bed temp
M109 S215 ; wait for extruder temp
G28 W ; home all without mesh bed level
G80 ; mesh bed leveling
G1 Y-3.0 F1000.0 ; go outside print area
G92 E0.0
G1 X60.0 E9.0 F1000.0 ; intro line
M73 Q0 S79
M73 P0 R78
G1 X100.0 E12.5 F1000.0 ; intro line
G92 E0.0
M221 S95

; Don't change E values below. Excessive value can damage the printer.
M907 E430 ; set extruder motor current
G21 ; set units to millimeters
G90 ; use absolute coordinates
M83 ; use relative distances for extrusion
M900 K0.05 ; Filament gcode LA 1.5
M900 K30 ; Filament gcode LA 1.0
;BEFORE_LAYER_CHANGE
G92 E0.0
;0.2


G1 E-0.80000 F2100.00000
G1 Z0.400 F10800.000
;AFTER_LAYER_CHANGE
;0.2
G1 X107.345 Y94.767
G1 Z0.200
G1 E0.80000 F2100.00000
M204 S1000
G1 F1200.000
G1 X107.617 Y94.118 E0.02095
G1 X108.034 Y93.572 E0.02046
G1 X113.611 Y87.995 E0.23493
G1 X114.170 Y87.588 E0.02058
G1 X114.816 Y87.332 E0.02071
G1 X115.489 Y87.246 E0.02022
G1 X134.504 Y87.246 E0.56638
G1 X135.505 Y87.436 E0.03036
G1 X136.369 Y87.977 E0.03036
G1 X142.021 Y93.629 E0.23811
G1 X142.408 Y94.163 E0.01962
G1 X142.655 Y94.768 E0.01949
G1 X142.754 Y95.485 E0.02155
G1 X142.754 Y114.537 E0.56748
G1 X142.655 Y115.233 E0.02095
G1 X142.383 Y115.882 E0.02095
G1 X141.966 Y116.428 E0.02046
G1 X136.383 Y122.010 E0.23518
G1 X135.794 Y122.431 E0.02155
G1 X135.116 Y122.684 E0.02155
G1 X134.511 Y122.754 E0.01816
G1 X115.459 Y122.754 E0.56748
G1 X114.767 Y122.655 E0.02083
G1 X114.118 Y122.383 E0.02095
G1 X113.572 Y121.966 E0.02046
G1 X107.990 Y116.383 E0.23518
G1 X107.569 Y115.794 E0.02155
G1 X107.316 Y115.116 E0.02155
G1 X107.246 Y114.511 E0.01816
G1 X107.246 Y95.459 E0.56748
G1 X107.337 Y94.826 E0.01904
G1 X107.708 Y94.880 F10800.000
G1 F1200.000
G1 X107.950 Y94.298 E0.01877
G1 X108.303 Y93.836 E0.01732
G1 X113.866 Y88.274 E0.23431
G1 X114.357 Y87.916 E0.01810
G1 X114.923 Y87.694 E0.01810
G1 X115.492 Y87.623 E0.01709
G1 X134.504 Y87.623 E0.56630
G1 X135.371 Y87.788 E0.02628
G1 X136.120 Y88.261 E0.02639
G1 X141.739 Y93.879 E0.23669
G1 X142.079 Y94.347 E0.01720
G1 X142.295 Y94.882 E0.01720
G1 X142.377 Y95.492 E0.01833
G1 X142.377 Y114.527 E0.56698
G1 X142.290 Y115.136 E0.01833
G1 X142.050 Y115.702 E0.01833
G1 X141.697 Y116.164 E0.01732
G1 X136.129 Y121.731 E0.23454
G1 X135.617 Y122.099 E0.01878
G1 X135.029 Y122.317 E0.01867
G1 X134.508 Y122.377 E0.01563
G1 X115.470 Y122.377 E0.56710
G1 X114.860 Y122.289 E0.01833
G1 X114.298 Y122.050 E0.01822
G1 X113.836 Y121.697 E0.01732
G1 X108.269 Y116.129 E0.23454
G1 X107.901 Y115.617 E0.01878
G1 X107.683 Y115.029 E0.01867
G1 X107.623 Y114.508 E0.01563
G1 X107.623 Y95.470 E0.56710
G1 X107.699 Y94.939 E0.01597
; printing object Voron_Design_Cube_v7.stl id:0 copy 0
G1 F8640.000
G1 X107.950 Y94.298 E-0.15897
G1 X108.303 Y93.836 E-0.13423
G1 X109.732 Y92.406 E-0.46680
G1 E-0.04000 F2100.00000
G1 Z0.600 F10800.000
G1 X117.807 Y100.401
G1 Z0.200
G1 E0.80000 F2100.00000
G1 F1200.000
G1 X118.320 Y99.683 E0.02629
G1 X118.904 Y99.022 E0.02629
G1 X119.554 Y98.424 E0.02629
G1 X120.262 Y97.897 E0.02629
G1 X121.018 Y97.448 E0.02620
G1 X121.621 Y97.162 E0.01986
G1 X122.239 Y96.921 E0.01975
G1 X123.084 Y96.680 E0.02620
G1 X123.954 Y96.527 E0.02629
G1 X124.834 Y96.464 E0.02629
G1 X125.716 Y96.492 E0.02629
G1 X126.591 Y96.612 E0.02629
G1 X127.445 Y96.820 E0.02619
G1 X128.076 Y97.037 E0.01987
G1 X128.685 Y97.299 E0.01976
G1 X129.458 Y97.719 E0.02619
G1 X130.186 Y98.218 E0.02629
G1 X130.858 Y98.790 E0.02629
G1 X131.468 Y99.428 E0.02629
G1 X132.009 Y100.125 E0.02629
G1 X132.473 Y100.872 E0.02618
G1 X132.772 Y101.468 E0.01988
G1 X133.023 Y102.083 E0.01977
G1 X133.281 Y102.923 E0.02618
G1 X133.451 Y103.789 E0.02629
G1 X133.530 Y104.664 E0.02618
G1 X133.530 Y105.336 E0.02000
G1 X133.451 Y106.211 E0.02618
G1 X133.281 Y107.077 E0.02629
G1 X133.022 Y107.921 E0.02629
G1 X132.678 Y108.733 E0.02629
G1 X132.251 Y109.506 E0.02629
G1 X131.748 Y110.231 E0.02629
G1 X131.171 Y110.899 E0.02629
G1 X130.529 Y111.505 E0.02629
G1 X129.828 Y112.041 E0.02629
G1 X129.079 Y112.500 E0.02619
G1 X128.483 Y112.793 E0.01976
G1 X127.864 Y113.043 E0.01987
G1 X127.022 Y113.295 E0.02619
G1 X126.155 Y113.459 E0.02629
G1 X125.275 Y113.533 E0.02629
G1 X124.393 Y113.516 E0.02629
G1 X123.517 Y113.408 E0.02629
G1 X122.660 Y113.211 E0.02620
G1 X122.030 Y113.002 E0.01975
G1 X121.414 Y112.748 E0.01986
G1 X120.636 Y112.338 E0.02620
G1 X119.901 Y111.848 E0.02629
G1 X119.222 Y111.285 E0.02629
G1 X118.604 Y110.655 E0.02629
G1 X118.054 Y109.965 E0.02629
G1 X117.578 Y109.221 E0.02629
G1 X117.182 Y108.432 E0.02629
G1 X116.870 Y107.607 E0.02629
G1 X116.644 Y106.753 E0.02629
G1 X116.508 Y105.884 E0.02621
G1 X116.468 Y105.222 E0.01974
G1 X116.474 Y104.556 E0.01985
G1 X116.565 Y103.681 E0.02621
G1 X116.746 Y102.817 E0.02629
G1 X117.015 Y101.977 E0.02629
G1 X117.370 Y101.168 E0.02629
G1 X117.777 Y100.453 E0.02450
G1 X118.105 Y100.640 F10800.000
G1 F1200.000
G1 X118.615 Y99.918 E0.02633
G1 X119.174 Y99.286 E0.02513
G1 X119.795 Y98.715 E0.02513
G1 X120.472 Y98.211 E0.02513
G1 X121.196 Y97.781 E0.02510
G1 X121.770 Y97.508 E0.01893
G1 X122.359 Y97.279 E0.01883
G1 X123.169 Y97.048 E0.02509
G1 X124.000 Y96.901 E0.02513
G1 X124.841 Y96.841 E0.02513
G1 X125.684 Y96.869 E0.02513
G1 X126.520 Y96.983 E0.02513
G1 X127.339 Y97.182 E0.02509
G1 X127.940 Y97.389 E0.01894
G1 X128.521 Y97.639 E0.01883
G1 X129.261 Y98.041 E0.02509
G1 X129.957 Y98.518 E0.02513
G1 X130.599 Y99.064 E0.02513
G1 X131.182 Y99.674 E0.02513
G1 X131.699 Y100.341 E0.02513
G1 X132.143 Y101.056 E0.02509
G1 X132.428 Y101.625 E0.01894
G1 X132.668 Y102.210 E0.01883
G1 X132.915 Y103.015 E0.02509
G1 X133.077 Y103.843 E0.02513
G1 X133.153 Y104.681 E0.02509
G1 X133.153 Y105.319 E0.01898
G1 X133.077 Y106.157 E0.02509
G1 X132.915 Y106.985 E0.02513
G1 X132.667 Y107.792 E0.02513
G1 X132.338 Y108.568 E0.02513
G1 X131.931 Y109.307 E0.02513
G1 X131.449 Y109.999 E0.02513
G1 X130.899 Y110.638 E0.02513
G1 X130.285 Y111.217 E0.02513
G1 X129.615 Y111.730 E0.02513
G1 X128.896 Y112.170 E0.02509
G1 X128.329 Y112.449 E0.01883
G1 X127.740 Y112.686 E0.01894
G1 X126.933 Y112.928 E0.02509
G1 X126.104 Y113.085 E0.02513
G1 X125.263 Y113.156 E0.02513
G1 X124.420 Y113.140 E0.02513
G1 X123.583 Y113.036 E0.02513
G1 X122.762 Y112.847 E0.02509
G1 X122.161 Y112.649 E0.01883
G1 X121.574 Y112.406 E0.01893
G1 X120.829 Y112.013 E0.02510
G1 X120.127 Y111.545 E0.02513
G1 X119.477 Y111.007 E0.02513
G1 X118.886 Y110.405 E0.02513
G1 X118.361 Y109.745 E0.02513
G1 X117.907 Y109.034 E0.02513
G1 X117.528 Y108.280 E0.02513
G1 X117.229 Y107.491 E0.02513
G1 X117.014 Y106.676 E0.02513
G1 X116.883 Y105.843 E0.02510
G1 X116.845 Y105.213 E0.01882
G1 X116.851 Y104.577 E0.01893
G1 X116.938 Y103.739 E0.02510
G1 X117.111 Y102.914 E0.02513
G1 X117.368 Y102.110 E0.02513
G1 X117.708 Y101.338 E0.02513
G1 X118.075 Y100.692 E0.02213
G1 X117.919 Y100.285 F10800.000
G1 F8640.000
G1 X118.615 Y99.918 E-0.21788
G1 X119.174 Y99.286 E-0.19479
G1 X119.795 Y98.715 E-0.19479
G1 X120.325 Y98.321 E-0.15255
G1 E-0.04000 F2100.00000
G1 Z0.600 F10800.000
G1 X110.887 Y96.236
G1 Z0.200
G1 E0.80000 F2100.00000
G1 F1200.000
G1 X116.236 Y90.887 E0.22531
G1 X133.764 Y90.887 E0.52212
G1 X139.113 Y96.236 E0.22531
G1 X139.113 Y113.764 E0.52212
G1 X133.764 Y119.113 E0.22531
G1 X116.236 Y119.113 E0.52212
G1 X110.887 Y113.764 E0.22531
G1 X110.887 Y96.296 E0.52033
G1 X110.510 Y96.079 F10800.000
G1 F1200.000
G1 X116.079 Y90.510 E0.23461
G1 X133.921 Y90.510 E0.53142
G1 X139.490 Y96.079 E0.23461
G1 X139.490 Y113.921 E0.53142
G1 X133.921 Y119.490 E0.23461
G1 X116.079 Y119.490 E0.53142
G1 X110.510 Y113.921 E0.23461
G1 X110.510 Y96.139 E0.52964
G1 X110.909 Y96.048 F10800.000
G1 F8640.000
G1 X112.825 Y93.800 E-0.76000
G1 E-0.04000 F2100.00000
G1 Z0.600 F10800.000
G1 X111.000 Y113.477
G1 Z0.200
G1 E0.80000 F2100.00000
G1 F1200.000
G1 X116.354 Y118.830 E0.22631
G1 X116.889 Y118.830 E0.01600
G1 X111.170 Y113.111 E0.24176
G1 X111.170 Y112.576 E0.01600
G1 X117.424 Y118.830 E0.26438
G1 X117.959 Y118.830 E0.01600
G1 X111.170 Y112.041 E0.28701
G1 X111.170 Y111.506 E0.01600
G1 X118.494 Y118.830 E0.30963
G1 X119.029 Y118.830 E0.01600
G1 X111.170 Y110.971 E0.33225
G1 X111.170 Y110.435 E0.01600
G1 X119.565 Y118.830 E0.35487
G1 X120.100 Y118.830 E0.01600
G1 X111.170 Y109.900 E0.37750
G1 X111.170 Y109.365 E0.01600
G1 X120.635 Y118.830 E0.40012
G1 X121.170 Y118.830 E0.01600
G1 X111.170 Y108.830 E0.42274
G1 X111.170 Y108.295 E0.01600
G1 X121.705 Y118.830 E0.44536
G1 X122.240 Y118.830 E0.01600
G1 X111.170 Y107.760 E0.46799
G1 X111.170 Y107.224 E0.01600
G1 X122.776 Y118.830 E0.49061
G1 X123.311 Y118.830 E0.01600
G1 X111.170 Y106.689 E0.51323
G1 X111.170 Y106.154 E0.01600
G1 X123.846 Y118.830 E0.53585
G1 X124.381 Y118.830 E0.01600
G1 X111.170 Y105.619 E0.55848
G1 X111.170 Y105.084 E0.01600
G1 X124.916 Y118.830 E0.58110
G1 X125.451 Y118.830 E0.01600
G1 X111.170 Y104.549 E0.60372
G1 X111.170 Y104.014 E0.01600
G1 X125.986 Y118.830 E0.62634
G1 X126.522 Y118.830 E0.01600
G1 X111.170 Y103.478 E0.64897
G1 X111.170 Y102.943 E0.01600
G1 X117.075 Y108.848 E0.24962
G1 X116.923 Y108.546 E0.01010
G1 X116.689 Y107.927 E0.01979
G1 X111.170 Y102.408 E0.23329
G1 X111.170 Y101.873 E0.01600
G1 X116.460 Y107.163 E0.22362
G1 X116.367 Y106.812 E0.01086
G1 X116.316 Y106.484 E0.00993
G1 X111.170 Y101.338 E0.21753
G1 X111.170 Y100.803 E0.01600
G1 X116.223 Y105.856 E0.21361
G1 X116.189 Y105.286 E0.01706
G1 X111.170 Y100.267 E0.21216
G1 X111.170 Y99.732 E0.01600
G1 X116.189 Y104.752 E0.21218
G1 X116.221 Y104.249 E0.01507
G1 X111.170 Y99.197 E0.21354
G1 X111.170 Y98.662 E0.01600
G1 X116.272 Y103.764 E0.21567
G1 X116.353 Y103.310 E0.01377
G1 X111.170 Y98.127 E0.21912
G1 X111.170 Y97.592 E0.01600
G1 X116.446 Y102.868 E0.22305
G1 X116.566 Y102.452 E0.01293
G1 X111.170 Y97.057 E0.22810
G1 X111.170 Y96.521 E0.01600
G1 X116.696 Y102.047 E0.23359
G1 X116.845 Y101.661 E0.01237
G1 X111.353 Y96.170 E0.23215
G1 X111.621 Y95.902 E0.01131
G1 X117.008 Y101.289 E0.22774
G1 X117.182 Y100.928 E0.01199
G1 X111.888 Y95.634 E0.22377
G1 X112.156 Y95.367 E0.01131
G1 X117.376 Y100.587 E0.22066
G1 X117.570 Y100.246 E0.01173
G1 X112.423 Y95.099 E0.21756
G1 X112.691 Y94.832 E0.01131
G1 X117.793 Y99.934 E0.21568
G1 X118.016 Y99.622 E0.01147
G1 X112.959 Y94.564 E0.21380
G1 X113.226 Y94.297 E0.01131
G1 X118.257 Y99.327 E0.21266
G1 X118.508 Y99.043 E0.01133
G1 X113.494 Y94.029 E0.21197
G1 X113.761 Y93.761 E0.01131
G1 X118.765 Y98.765 E0.21154
G1 X119.044 Y98.509 E0.01132
G1 X114.029 Y93.494 E0.21201
G1 X114.296 Y93.226 E0.01131
G1 X119.323 Y98.253 E0.21249
G1 X119.625 Y98.019 E0.01140
G1 X114.564 Y92.959 E0.21393
G1 X114.832 Y92.691 E0.01131
G1 X119.932 Y97.791 E0.21559
G1 X120.251 Y97.575 E0.01152
G1 X115.099 Y92.423 E0.21777
G1 X115.367 Y92.156 E0.01131
G1 X120.586 Y97.375 E0.22065
M73 Q1 S78
G1 X120.925 Y97.179 E0.01170
G1 X115.634 Y91.888 E0.22365
M73 P1 R77
G1 X115.902 Y91.621 E0.01131
G1 X121.288 Y97.007 E0.22768
G1 X121.659 Y96.843 E0.01214
G1 X116.169 Y91.353 E0.23208
G1 X116.353 Y91.170 E0.00775
G1 X116.521 Y91.170 E0.00504
G1 X122.045 Y96.693 E0.23349
G1 X122.453 Y96.566 E0.01277
G1 X117.057 Y91.170 E0.22811
G1 X117.592 Y91.170 E0.01600
G1 X122.869 Y96.447 E0.22309
G1 X123.310 Y96.353 E0.01348
G1 X118.127 Y91.170 E0.21910
G1 X118.662 Y91.170 E0.01600
G1 X123.765 Y96.273 E0.21571
G1 X124.249 Y96.222 E0.01456
G1 X119.197 Y91.170 E0.21357
G1 X119.732 Y91.170 E0.01600
G1 X124.749 Y96.186 E0.21206
G1 X125.293 Y96.196 E0.01628
G1 X120.267 Y91.170 E0.21246
G1 X120.803 Y91.170 E0.01600
G1 X125.859 Y96.226 E0.21376
G1 X126.479 Y96.311 E0.01870
G1 X121.338 Y91.170 E0.21734
G1 X121.873 Y91.170 E0.01600
G1 X127.163 Y96.460 E0.22364
G1 X127.525 Y96.548 E0.01111
G1 X127.924 Y96.686 E0.01263
G1 X122.408 Y91.170 E0.23318
G1 X122.943 Y91.170 E0.01600
G1 X129.251 Y97.477 E0.26664
G1 F8640.000
G1 X126.923 Y95.150 E-0.76000
G1 E-0.04000 F2100.00000
G1 Z0.600 F10800.000
G1 X139.000 Y96.523
G1 Z0.200
G1 E0.80000 F2100.00000
G1 F1200.000
G1 X133.646 Y91.170 E0.22631
G1 X133.111 Y91.170 E0.01600
G1 X138.830 Y96.889 E0.24176
G1 X138.830 Y97.424 E0.01600
G1 X132.576 Y91.170 E0.26439
G1 X132.041 Y91.170 E0.01600
G1 X138.830 Y97.959 E0.28701
G1 X138.830 Y98.494 E0.01600
G1 X131.506 Y91.170 E0.30963
G1 X130.970 Y91.170 E0.01600
G1 X138.830 Y99.030 E0.33225
G1 X138.830 Y99.565 E0.01600
G1 X130.435 Y91.170 E0.35488
G1 X129.900 Y91.170 E0.01600
G1 X138.830 Y100.100 E0.37750
G1 X138.830 Y100.635 E0.01600
G1 X129.365 Y91.170 E0.40012
G1 X128.830 Y91.170 E0.01600
G1 X138.830 Y101.170 E0.42274
G1 X138.830 Y101.705 E0.01600
G1 X128.295 Y91.170 E0.44537
G1 X127.760 Y91.170 E0.01600
G1 X138.830 Y102.240 E0.46799
G1 X138.830 Y102.776 E0.01600
G1 X127.224 Y91.170 E0.49061
G1 X126.689 Y91.170 E0.01600
G1 X138.830 Y103.311 E0.51323
G1 X138.830 Y103.846 E0.01600
G1 X126.154 Y91.170 E0.53586
G1 X125.619 Y91.170 E0.01600
G1 X138.830 Y104.381 E0.55848
G1 X138.830 Y104.916 E0.01600
G1 X125.084 Y91.170 E0.58110
G1 X124.549 Y91.170 E0.01600
G1 X138.830 Y105.451 E0.60372
G1 X138.830 Y105.987 E0.01600
G1 X124.013 Y91.170 E0.62635
G1 X123.478 Y91.170 E0.01600
G1 X138.830 Y106.522 E0.64897
G1 X138.830 Y107.057 E0.01600
G1 X132.934 Y101.161 E0.24925
G1 X133.030 Y101.351 E0.00637
G1 X133.318 Y102.080 E0.02343
G1 X138.830 Y107.592 E0.23300
G1 X138.830 Y108.127 E0.01600
G1 X133.555 Y102.852 E0.22300
G1 X133.686 Y103.518 E0.02030
G1 X138.830 Y108.662 E0.21746
G1 X138.830 Y109.197 E0.01600
G1 X133.766 Y104.134 E0.21407
G1 X133.813 Y104.716 E0.01746
G1 X138.830 Y109.733 E0.21208
G1 X138.830 Y110.268 E0.01600
G1 X133.813 Y105.251 E0.21208
G1 X133.777 Y105.750 E0.01495
G1 X138.830 Y110.803 E0.21362
G1 X138.830 Y111.338 E0.01600
G1 X133.732 Y106.240 E0.21550
G1 X133.645 Y106.688 E0.01365
G1 X138.830 Y111.873 E0.21918
G1 X138.830 Y112.408 E0.01600
G1 X133.558 Y107.136 E0.22289
G1 X133.433 Y107.546 E0.01282
G1 X138.830 Y112.943 E0.22816
G1 X138.830 Y113.479 E0.01600
G1 X133.307 Y107.956 E0.23347
G1 X133.153 Y108.337 E0.01228
G1 X138.647 Y113.830 E0.23224
G1 X138.379 Y114.098 E0.01131
G1 X132.994 Y108.713 E0.22766
G1 X132.815 Y109.069 E0.01192
G1 X138.112 Y114.366 E0.22389
G1 X137.844 Y114.633 E0.01131
G1 X132.625 Y109.414 E0.22062
G1 X132.426 Y109.750 E0.01168
G1 X137.577 Y114.901 E0.21773
G1 X137.309 Y115.168 E0.01131
G1 X132.207 Y110.066 E0.21570
G1 X131.987 Y110.382 E0.01149
G1 X137.041 Y115.436 E0.21366
G1 X136.774 Y115.704 E0.01131
G1 X131.741 Y110.671 E0.21274
G1 X131.494 Y110.959 E0.01134
G1 X136.506 Y115.971 E0.21189
G1 X136.239 Y116.239 E0.01131
G1 X131.231 Y111.232 E0.21167
G1 X130.956 Y111.491 E0.01132
G1 X135.971 Y116.506 E0.21200
G1 X135.703 Y116.774 E0.01131
G1 X130.677 Y111.748 E0.21247
G1 X130.374 Y111.980 E0.01141
G1 X135.436 Y117.041 E0.21397
G1 X135.168 Y117.309 E0.01131
G1 X130.071 Y112.212 E0.21548
G1 X129.747 Y112.423 E0.01156
G1 X134.901 Y117.577 E0.21787
G1 X134.633 Y117.844 E0.01131
G1 X129.415 Y112.626 E0.22059
G1 X129.072 Y112.818 E0.01175
G1 X134.366 Y118.112 E0.22376
G1 X134.098 Y118.379 E0.01131
G1 X128.714 Y112.995 E0.22761
G1 X128.340 Y113.156 E0.01217
G1 X133.830 Y118.647 E0.23211
G1 X133.647 Y118.830 E0.00775
G1 X133.479 Y118.830 E0.00504
G1 X127.958 Y113.310 E0.23336
G1 X127.546 Y113.433 E0.01285
G1 X132.943 Y118.830 E0.22815
