; generated by PrusaSlicer 2.2.0+win64 on 2021-02-08 at 05:56:22 UTC

; 

; external perimeters extrusion width = 0.45mm
; perimeters extrusion width = 0.45mm
; infill extrusion width = 0.45mm
; solid infill extrusion width = 0.45mm
; top infill extrusion width = 0.40mm
; first layer extrusion width = 0.42mm

M73 P0 R79
M73 Q0 S79
M201 X1000 Y1000 Z200 E5000 ; sets maximum accelerations, mm/sec^2
M203 X200 Y200 Z12 E120 ; sets maximum feedrates, mm/sec
M204 P1250 R1250 T1250 ; sets acceleration (P, T) and retract acceleration (R), mm/sec^2
M205 X8.00 Y8.00 Z0.40 E4.50 ; sets the jerk limits, mm/sec
M205 S0 T0 ; sets the minimum extruding and travel feed rate, mm/sec
M107
M862.3 P "MK3S" ; printer model check
M862.1 P0.4 ; nozzle diameter check
M115 U3.9.3 ; tell printer latest fw version
G90 ; use absolute coordinates
M83 ; extruder relative mode
M104 S230 ; set extruder temp
M140 S85 ; set bed temp
M190 S85 ; wait for bed temp
M109 S230 ; wait for extruder temp
G28 W ; home all without mesh bed level
G80 ; mesh bed leveling
G1 Y-3.0 F1000.0 ; go outside print area
G92 E0.0
G1 X60.0 E9.0 F1000.0 ; intro line
M73 Q0 S79
M73 P0 R78
G1 X100.0 E12.5 F1000.0 ; intro line
G92 E0.0
M221 S95

; Don't change E values below. Excessive value can damage the printer.

M907 E538 ; set extruder motor current
G21 ; set units to millimeters
G90 ; use absolute coordinates
M83 ; use relative distances for extrusion
M900 K0.08 ; Filament gcode LA 1.5
M900 K45 ; Filament gcode LA 1.0
;BEFORE_LAYER_CHANGE
G92 E0.0
;0.2


G1 E-1.40000 F2100.00000
G1 Z0.200 F10800.000
;AFTER_LAYER_CHANGE
;0.2
G1 Z0.400
G1 X115.249 Y96.211
G1 Z0.200
G1 E1.40000 F2100.00000
M204 S1000
G1 F1200.000
G1 X116.960 Y94.627 E0.07313
G1 X118.289 Y93.717 E0.05047
G1 X119.714 Y92.987 E0.05022
G1 X120.559 Y92.652 E0.02849
G1 X122.106 Y92.195 E0.05058
G1 X123.696 Y91.939 E0.05050
G1 X124.636 Y91.886 E0.02952
G1 X126.046 Y91.914 E0.04420
G1 X127.778 Y92.172 E0.05492
G1 X129.951 Y92.842 E0.07129
G1 X131.677 Y93.697 E0.06038
G1 X133.005 Y94.602 E0.05041
G1 X134.690 Y96.148 E0.07169
G1 X136.035 Y97.888 E0.06895
G1 X137.138 Y100.010 E0.07499
G1 X137.658 Y101.518 E0.05001
G1 X137.978 Y103.052 E0.04916
G1 X138.120 Y105.355 E0.07233
G1 X137.883 Y107.525 E0.06843
G1 X137.217 Y109.793 E0.07413
G1 X136.538 Y111.262 E0.05075
G1 X135.722 Y112.567 E0.04825
G1 X135.162 Y113.305 E0.02904
G1 X134.118 Y114.445 E0.04850
G1 X132.521 Y115.760 E0.06487
G1 X130.506 Y116.912 E0.07275
G1 X128.977 Y117.511 E0.05148
G1 X127.529 Y117.876 E0.04682
G1 X126.614 Y118.025 E0.02908
G1 X125.044 Y118.128 E0.04934
G1 X122.964 Y117.969 E0.06540
G1 X120.747 Y117.415 E0.07164
G1 X119.200 Y116.777 E0.05247
G1 X117.932 Y116.054 E0.04579
G1 X117.168 Y115.533 E0.02899
G1 X115.903 Y114.465 E0.05189
G1 X114.842 Y113.310 E0.04918
G1 X114.280 Y112.570 E0.02915
G1 X113.462 Y111.263 E0.04834
G1 X112.789 Y109.806 E0.05031
G1 X112.119 Y107.536 E0.07420
G1 X111.880 Y105.439 E0.06620
G1 X112.021 Y103.059 E0.07476
G1 X112.342 Y101.518 E0.04935
G1 X112.856 Y100.026 E0.04946
G1 X113.959 Y97.897 E0.07518
G1 X115.213 Y96.259 E0.06468
G1 X115.511 Y96.486 F10800.000
G1 F1200.000
G1 X117.181 Y94.932 E0.07156
G1 X118.482 Y94.041 E0.04943
G1 X119.870 Y93.331 E0.04888
G1 X120.676 Y93.010 E0.02721
G1 X122.189 Y92.563 E0.04946
G1 X123.741 Y92.313 E0.04928
G1 X124.635 Y92.263 E0.02809
G1 X126.010 Y92.289 E0.04311
G1 X127.711 Y92.543 E0.05391
G1 X129.805 Y93.189 E0.06872
G1 X131.490 Y94.024 E0.05896
G1 X132.790 Y94.912 E0.04935
G1 X134.424 Y96.415 E0.06963
G1 X135.716 Y98.089 E0.06630
G1 X136.786 Y100.145 E0.07267
G1 X137.294 Y101.618 E0.04885
G1 X137.607 Y103.119 E0.04805
G1 X137.743 Y105.359 E0.07037
G1 X137.513 Y107.450 E0.06596
G1 X136.871 Y109.643 E0.07166
G1 X136.206 Y111.084 E0.04975
G1 X135.409 Y112.356 E0.04709
G1 X134.872 Y113.064 E0.02785
G1 X133.852 Y114.178 E0.04735
G1 X132.309 Y115.448 E0.06266
G1 X130.365 Y116.563 E0.07028
G1 X128.861 Y117.152 E0.05065
G1 X127.445 Y117.508 E0.04576
G1 X126.574 Y117.650 E0.02767
G1 X125.036 Y117.751 E0.04833
G1 X123.432 Y117.651 E0.05038
G1 X122.558 Y117.509 E0.02776
G1 X121.138 Y117.152 E0.04593
G1 X119.645 Y116.567 E0.05029
G1 X117.693 Y115.450 E0.07050
G1 X116.164 Y114.193 E0.06205
G1 X115.129 Y113.065 E0.04801
G1 X114.592 Y112.358 E0.02783
G1 X113.793 Y111.083 E0.04717
G1 X113.134 Y109.655 E0.04932
G1 X112.488 Y107.458 E0.07179
G1 X112.257 Y105.435 E0.06386
G1 X112.392 Y103.126 E0.07252
G1 X112.704 Y101.622 E0.04816
G1 X113.208 Y100.160 E0.04848
G1 X114.279 Y98.097 E0.07290
G1 X115.474 Y96.534 E0.06167
; printing object worm.STL id:0 copy 0
G1 F8640.000
G1 X117.181 Y94.932 E-0.54062
G1 X118.482 Y94.041 E-0.36402
G1 X119.870 Y93.331 E-0.35999
G1 X120.133 Y93.226 E-0.06537
G1 E-0.07000 F2100.00000
G1 Z0.400 F10800.000
G1 X123.609 Y105.000
G1 Z0.200
G1 E1.40000 F2100.00000
G1 F1200.000
G1 X123.293 Y104.833 E0.01120
G1 X122.984 Y104.480 E0.01472
G1 X122.777 Y104.102 E0.01349
G1 X122.661 Y103.696 E0.01325
G1 X122.623 Y103.288 E0.01284
G1 X122.657 Y102.884 E0.01271
G1 X122.758 Y102.494 E0.01266
G1 X122.924 Y102.126 E0.01265
G1 X123.150 Y101.792 E0.01264
G1 X123.429 Y101.501 E0.01264
G1 X123.753 Y101.261 E0.01264
G1 X124.114 Y101.080 E0.01264
G1 X124.499 Y100.961 E0.01264
G1 X124.899 Y100.910 E0.01264
G1 X125.302 Y100.927 E0.01265
G1 X125.696 Y101.012 E0.01264
G1 X126.070 Y101.163 E0.01264
G1 X126.414 Y101.374 E0.01264
G1 X126.716 Y101.640 E0.01264
G1 X126.970 Y101.954 E0.01264
G1 X127.166 Y102.306 E0.01264
G1 X127.301 Y102.687 E0.01265
G1 X127.369 Y103.085 E0.01268
G1 X127.367 Y103.492 E0.01275
G1 X127.292 Y103.901 E0.01303
G1 X127.130 Y104.297 E0.01341
G1 X126.879 Y104.656 E0.01375
G1 X126.526 Y104.959 E0.01458
G1 X126.425 Y105.000 E0.00342
G1 X126.526 Y105.041 E0.00342
G1 X126.879 Y105.344 E0.01458
G1 X127.130 Y105.703 E0.01375
G1 X127.292 Y106.099 E0.01341
G1 X127.367 Y106.508 E0.01303
G1 X127.369 Y106.915 E0.01275
G1 X127.301 Y107.313 E0.01268
G1 X127.166 Y107.694 E0.01265
G1 X126.970 Y108.046 E0.01264
G1 X126.716 Y108.360 E0.01264
G1 X126.414 Y108.626 E0.01264
G1 X126.070 Y108.837 E0.01264
G1 X125.696 Y108.988 E0.01264
G1 X125.302 Y109.073 E0.01264
G1 X124.899 Y109.090 E0.01264
G1 X124.499 Y109.039 E0.01264
G1 X124.114 Y108.920 E0.01264
G1 X123.754 Y108.739 E0.01264
G1 X123.429 Y108.499 E0.01264
G1 X123.150 Y108.208 E0.01264
G1 X122.924 Y107.874 E0.01264
G1 X122.758 Y107.506 E0.01265
G1 X122.657 Y107.116 E0.01266
G1 X122.623 Y106.712 E0.01271
G1 X122.661 Y106.304 E0.01284
G1 X122.777 Y105.898 E0.01325
G1 X122.984 Y105.520 E0.01349
G1 X123.293 Y105.167 E0.01472
G1 X123.556 Y105.028 E0.00932
G1 X124.328 Y105.047 F10800.000
G1 F1200.000
G1 X124.479 Y105.000 E0.00498
G1 X124.328 Y104.953 E0.00498
G1 X123.531 Y104.532 E0.02826
G1 X123.295 Y104.262 E0.01124
G1 X123.128 Y103.958 E0.01088
G1 X123.033 Y103.626 E0.01083
G1 X123.002 Y103.287 E0.01069
G1 X123.030 Y102.948 E0.01065
G1 X123.115 Y102.620 E0.01064
G1 X123.255 Y102.311 E0.01063
G1 X123.445 Y102.030 E0.01063
G1 X123.679 Y101.785 E0.01063
G1 X123.952 Y101.583 E0.01063
G1 X124.255 Y101.431 E0.01063
G1 X124.579 Y101.331 E0.01063
G1 X124.915 Y101.288 E0.01063
G1 X125.254 Y101.303 E0.01063
G1 X125.585 Y101.374 E0.01063
G1 X125.900 Y101.501 E0.01063
G1 X126.189 Y101.678 E0.01063
G1 X126.443 Y101.902 E0.01063
G1 X126.656 Y102.166 E0.01063
G1 X126.822 Y102.462 E0.01063
G1 X126.934 Y102.782 E0.01063
G1 X126.992 Y103.116 E0.01064
G1 X126.990 Y103.457 E0.01067
G1 X126.928 Y103.794 E0.01076
G1 X126.797 Y104.115 E0.01087
G1 X126.597 Y104.401 E0.01094
G1 X126.327 Y104.633 E0.01116
G1 X126.039 Y104.750 E0.00974
G1 X125.810 Y104.891 E0.00846
G1 X125.539 Y105.000 E0.00915
G1 X125.810 Y105.109 E0.00915
G1 X126.039 Y105.250 E0.00846
G1 X126.327 Y105.367 E0.00974
G1 X126.597 Y105.599 E0.01116
G1 X126.797 Y105.885 E0.01094
G1 X126.928 Y106.206 E0.01087
G1 X126.990 Y106.543 E0.01076
G1 X126.992 Y106.884 E0.01067
G1 X126.934 Y107.218 E0.01064
G1 X126.822 Y107.538 E0.01063
G1 X126.656 Y107.834 E0.01063
G1 X126.443 Y108.098 E0.01063
G1 X126.189 Y108.322 E0.01063
G1 X125.900 Y108.499 E0.01063
G1 X125.585 Y108.626 E0.01063
G1 X125.254 Y108.697 E0.01063
G1 X124.915 Y108.712 E0.01063
G1 X124.579 Y108.669 E0.01063
G1 X124.255 Y108.569 E0.01063
G1 X123.952 Y108.417 E0.01063
G1 X123.679 Y108.215 E0.01063
G1 X123.445 Y107.970 E0.01063
G1 X123.255 Y107.689 E0.01063
G1 X123.115 Y107.380 E0.01063
G1 X123.030 Y107.052 E0.01064
G1 X123.002 Y106.713 E0.01065
G1 X123.033 Y106.374 E0.01069
G1 X123.128 Y106.042 E0.01083
G1 X123.295 Y105.738 E0.01088
G1 X123.531 Y105.468 E0.01124
G1 X124.275 Y105.075 E0.02638
G1 X124.348 Y104.889 F10800.000
G1 F8640.000
G1 X124.479 Y105.000 E-0.05035
G1 X124.328 Y104.953 E-0.03668
G1 X123.531 Y104.532 E-0.20810
G1 X123.295 Y104.262 E-0.08280
G1 X123.128 Y103.958 E-0.08010
G1 X123.033 Y103.626 E-0.07973
G1 X123.002 Y103.287 E-0.07876
G1 X123.030 Y102.948 E-0.07846
G1 X123.115 Y102.620 E-0.07832
G1 X123.255 Y102.311 E-0.07829
G1 X123.445 Y102.030 E-0.07829
G1 X123.679 Y101.785 E-0.07829
G1 X123.952 Y101.583 E-0.07829
G1 X124.255 Y101.431 E-0.07829
G1 X124.579 Y101.331 E-0.07829
G1 X124.915 Y101.288 E-0.07827
G1 X124.953 Y101.290 E-0.00869
G1 E-0.07000 F2100.00000
G1 Z0.400 F10800.000
G1 X115.422 Y105.372
G1 Z0.200
G1 E1.40000 F2100.00000
G1 F1200.000
G1 X115.485 Y103.853 E0.04766
G1 X115.758 Y102.459 E0.04455
G1 X116.237 Y101.118 E0.04464
G1 X116.959 Y99.784 E0.04756
G1 X117.842 Y98.626 E0.04567
G1 X118.934 Y97.580 E0.04741
G1 X120.100 Y96.762 E0.04465
G1 X121.367 Y96.131 E0.04440
G1 X122.826 Y95.665 E0.04801
G1 X124.239 Y95.445 E0.04483
G1 X125.740 Y95.443 E0.04708
G1 X127.273 Y95.692 E0.04870
G1 X128.583 Y96.110 E0.04309
G1 X129.901 Y96.763 E0.04614
G1 X131.068 Y97.581 E0.04466
G1 X132.161 Y98.628 E0.04747
G1 X133.081 Y99.848 E0.04790
G1 X133.747 Y101.080 E0.04392
G1 X134.208 Y102.358 E0.04260
G1 X134.265 Y102.561 E0.00659
G1 X134.522 Y103.899 E0.04275
G1 X134.578 Y105.372 E0.04620
G1 X134.389 Y106.912 E0.04864
G1 X134.020 Y108.242 E0.04327
G1 X133.470 Y109.475 E0.04236
G1 X133.371 Y109.661 E0.00658
G1 X132.623 Y110.810 E0.04301
G1 X131.644 Y111.908 E0.04613
G1 X130.451 Y112.881 E0.04828
G1 X129.248 Y113.593 E0.04381
G1 X128.006 Y114.094 E0.04200
G1 X127.807 Y114.161 E0.00657
G1 X126.463 Y114.473 E0.04327
G1 X124.999 Y114.585 E0.04603
G1 X123.471 Y114.460 E0.04807
G1 X122.102 Y114.137 E0.04411
G1 X120.769 Y113.601 E0.04505
G1 X119.484 Y112.839 E0.04685
G1 X118.357 Y111.910 E0.04578
G1 X117.343 Y110.764 E0.04797
G1 X116.576 Y109.574 E0.04440
G1 X115.991 Y108.271 E0.04477
G1 X115.589 Y106.818 E0.04727
G1 X115.429 Y105.431 E0.04377
G1 X115.054 Y105.475 F10800.000
G1 F1200.000
G1 X115.044 Y105.386 E0.00281
G1 X115.109 Y103.809 E0.04949
G1 X115.394 Y102.358 E0.04634
G1 X115.892 Y100.964 E0.04643
G1 X116.641 Y99.579 E0.04938
G1 X117.560 Y98.374 E0.04751
G1 X118.694 Y97.287 E0.04923
G1 X119.906 Y96.437 E0.04644
G1 X121.225 Y95.781 E0.04619
G1 X122.739 Y95.297 E0.04983
G1 X124.207 Y95.069 E0.04660
G1 X125.769 Y95.066 E0.04896
G1 X127.137 Y95.276 E0.04341
G1 X127.371 Y95.327 E0.00751
G1 X128.725 Y95.759 E0.04454
G1 X130.094 Y96.438 E0.04793
G1 X131.308 Y97.289 E0.04646
G1 X132.443 Y98.376 E0.04929
G1 X133.409 Y99.662 E0.05041
G1 X134.092 Y100.925 E0.04505
G1 X134.568 Y102.243 E0.04393
G1 X134.632 Y102.474 E0.00752
G1 X134.898 Y103.856 E0.04413
G1 X134.956 Y105.388 E0.04805
G1 X134.760 Y106.985 E0.05047
G1 X134.376 Y108.370 E0.04504
G1 X133.809 Y109.640 E0.04364
G1 X133.697 Y109.852 E0.00751
G1 X132.924 Y111.040 E0.04444
G1 X131.906 Y112.182 E0.04796
G1 X130.667 Y113.192 E0.05011
G1 X129.415 Y113.932 E0.04559
G1 X128.137 Y114.448 E0.04323
G1 X127.911 Y114.525 E0.00750
G1 X126.520 Y114.847 E0.04475
G1 X124.998 Y114.963 E0.04786
G1 X123.412 Y114.834 E0.04990
G1 X121.988 Y114.497 E0.04590
G1 X120.602 Y113.940 E0.04684
G1 X119.266 Y113.148 E0.04866
G1 X118.094 Y112.182 E0.04763
G1 X117.042 Y110.992 E0.04980
G1 X116.244 Y109.754 E0.04619
G1 X115.635 Y108.400 E0.04656
G1 X115.218 Y106.891 E0.04909
G1 X115.061 Y105.534 E0.04281
G1 X115.125 Y105.419 F10800.000
G1 F8640.000
G1 X115.044 Y105.386 E-0.03452
G1 X115.109 Y103.809 E-0.36447
G1 X115.394 Y102.358 E-0.34125
G1 X115.892 Y100.964 E-0.34190
G1 X116.402 Y100.020 E-0.24787
G1 E-0.07000 F2100.00000
G1 Z0.400 F10800.000
G1 X119.662 Y112.813
G1 Z0.200
G1 E1.40000 F2100.00000
G1 F1200.000
G1 X118.549 Y111.700 E0.04964
G1 X117.569 Y110.593 E0.04661
G1 X116.829 Y109.443 E0.04312
G1 X120.495 Y113.109 E0.16348
G1 X120.895 Y113.346 E0.01467
G1 X121.519 Y113.597 E0.02123
G1 X116.389 Y108.467 E0.22880
G1 X116.258 Y108.175 E0.01010
G1 X116.114 Y107.656 E0.01699
G1 X122.367 Y113.909 E0.27886
G1 X123.069 Y114.075 E0.02277
G1 X115.909 Y106.914 E0.31934
G1 X115.867 Y106.764 E0.00492
G1 X115.812 Y106.281 E0.01534
G1 X123.729 Y114.198 E0.35308
G1 X124.312 Y114.245 E0.01847
G1 X115.742 Y105.674 E0.38224
G1 X115.706 Y105.361 E0.00994
G1 X115.716 Y105.112 E0.00786
G1 X124.896 Y114.293 E0.40943
G1 X125.000 Y114.301 E0.00328
G1 X125.410 Y114.270 E0.01296
G1 X115.737 Y104.597 E0.43138
G1 X115.758 Y104.082 E0.01626
G1 X125.908 Y114.232 E0.45266
G1 X126.406 Y114.194 E0.01576
G1 X115.821 Y103.608 E0.47209
G1 X115.909 Y103.160 E0.01441
G1 X126.843 Y114.094 E0.48767
G1 X127.279 Y113.994 E0.01410
G1 X115.997 Y102.711 E0.50317
G1 X116.032 Y102.534 E0.00571
G1 X116.117 Y102.295 E0.00799
G1 X127.850 Y114.028 E0.52326
G1 F8640.000
G1 X123.777 Y109.955 E-1.33000
G1 E-0.07000 F2100.00000
G1 Z0.400 F10800.000
G1 X133.721 Y108.635
G1 Z0.200
G1 E1.40000 F2100.00000
G1 F1200.000
G1 X127.507 Y102.422 E0.27711
G1 X127.575 Y102.615 E0.00647
G1 X127.652 Y103.103 E0.01556
G1 X133.427 Y108.878 E0.25756
G1 X133.261 Y109.249 E0.01281
G1 X127.631 Y103.619 E0.25108
G1 X127.565 Y103.981 E0.01160
G1 X127.533 Y104.057 E0.00261
G1 X133.075 Y109.598 E0.24713
G1 X132.863 Y109.923 E0.01223
G1 X127.377 Y104.437 E0.24467
G1 X127.156 Y104.753 E0.01215
G1 X132.652 Y110.248 E0.24509
G1 X132.440 Y110.573 E0.01223
G1 X127.254 Y105.387 E0.23132
G1 X127.380 Y105.567 E0.00696
G1 X127.565 Y106.019 E0.01540
G1 X127.613 Y106.282 E0.00843
G1 X132.196 Y110.865 E0.20438
G1 X131.943 Y111.148 E0.01198
G1 X127.651 Y106.857 E0.19139
G1 X127.585 Y107.327 E0.01497
G1 X131.690 Y111.432 E0.18307
G1 X131.435 Y111.714 E0.01198
G1 X127.453 Y107.731 E0.17761
G1 X127.271 Y108.086 E0.01257
G1 X131.140 Y111.955 E0.17254
G1 X130.844 Y112.196 E0.01202
G1 X127.048 Y108.399 E0.16932
G1 X126.921 Y108.556 E0.00636
G1 X126.787 Y108.674 E0.00565
G1 X130.549 Y112.436 E0.16779
G1 X130.249 Y112.672 E0.01205
G1 X126.488 Y108.912 E0.16770
G1 X126.150 Y109.110 E0.01236
G1 X129.912 Y112.872 E0.16776
G1 X129.574 Y113.071 E0.01235
G1 X125.766 Y109.262 E0.16987
G1 X125.322 Y109.355 E0.01429
G1 X129.237 Y113.270 E0.17462
G1 X129.122 Y113.338 E0.00422
G1 X128.871 Y113.440 E0.00856
G1 X124.792 Y109.361 E0.18190
G1 X124.439 Y109.316 E0.01121
G1 X124.109 Y109.215 E0.01088
G1 X128.489 Y113.594 E0.19531
G1 X128.107 Y113.749 E0.01299
G1 X116.258 Y101.900 E0.52843
G1 X116.399 Y101.505 E0.01323
G1 X122.489 Y107.595 E0.27160
G1 X122.377 Y107.163 E0.01405
G1 X122.357 Y106.926 E0.00750
G1 X116.555 Y101.124 E0.25876
G1 X116.743 Y100.776 E0.01248
G1 X122.368 Y106.401 E0.25085
G1 X122.382 Y106.252 E0.00473
G1 X122.465 Y105.961 E0.00952
G1 X116.932 Y100.428 E0.24677
G1 X117.120 Y100.080 E0.01248
G1 X122.626 Y105.586 E0.24555
G1 X122.751 Y105.357 E0.00821
G1 X122.836 Y105.260 E0.00409
G1 X117.334 Y99.758 E0.24538
G1 X117.566 Y99.453 E0.01207
G1 X122.745 Y104.633 E0.23098
G1 X122.514 Y104.210 E0.01518
G1 X122.380 Y103.731 E0.01569
G1 X117.798 Y99.149 E0.20435
G1 X118.030 Y98.845 E0.01207
G1 X122.350 Y103.164 E0.19264
G1 X122.377 Y102.837 E0.01037
G1 X122.414 Y102.693 E0.00469
G1 X118.300 Y98.578 E0.18350
G1 X118.574 Y98.316 E0.01196
G1 X122.543 Y102.284 E0.17699
G1 X122.719 Y101.925 E0.01264
G1 X118.848 Y98.053 E0.17265
G1 X119.123 Y97.792 E0.01196
G1 X122.937 Y101.606 E0.17009
G1 X123.199 Y101.332 E0.01196
G1 X119.438 Y97.571 E0.16773
G1 X119.754 Y97.350 E0.01214
G1 X123.500 Y101.097 E0.16709
G1 X123.605 Y101.019 E0.00410
G1 X123.840 Y100.901 E0.00832
G1 X120.069 Y97.129 E0.16820
G1 X120.245 Y97.006 E0.00677
