; generated by PrusaSlicer 2.2.0+win64 on 2020-11-27 at 04:13:14 UTC

; 

; external perimeters extrusion width = 0.45mm
; perimeters extrusion width = 0.45mm
; infill extrusion width = 0.45mm
; solid infill extrusion width = 0.45mm
; top infill extrusion width = 0.40mm
; first layer extrusion width = 0.42mm

M73 P0 R105
M73 Q0 S106
M201 X1000 Y1000 Z200 E5000 ; sets maximum accelerations, mm/sec^2
M203 X200 Y200 Z12 E120 ; sets maximum feedrates, mm/sec
M204 P1250 R1250 T1250 ; sets acceleration (P, T) and retract acceleration (R), mm/sec^2
M205 X8.00 Y8.00 Z0.40 E4.50 ; sets the jerk limits, mm/sec
M205 S0 T0 ; sets the minimum extruding and travel feed rate, mm/sec
M107
M862.3 P "MK3S" ; printer model check
M862.1 P0.4 ; nozzle diameter check
M115 U3.9.1 ; tell printer latest fw version
G90 ; use absolute coordinates
M83 ; extruder relative mode
M104 S230 ; set extruder temp
M140 S85 ; set bed temp
M190 S85 ; wait for bed temp
M109 S230 ; wait for extruder temp
G28 W ; home all without mesh bed level
G80 ; mesh bed leveling
G1 Y-3.0 F1000.0 ; go outside print area
G92 E0.0
G1 X60.0 E9.0 F1000.0 ; intro line
M73 Q0 S106
M73 P0 R105
G1 X100.0 E12.5 F1000.0 ; intro line
G92 E0.0
M221 S95

; Don't change E values below. Excessive value can damage the printer.
M907 E430 ; set extruder motor current
G21 ; set units to millimeters
G90 ; use absolute coordinates
M83 ; use relative distances for extrusion
M900 K0.08 ; Filament gcode LA 1.5
M900 K45 ; Filament gcode LA 1.0
;BEFORE_LAYER_CHANGE
G92 E0.0
;0.2


G1 E-1.40000 F2100.00000
G1 Z0.200 F10800.000
;AFTER_LAYER_CHANGE
;0.2
G1 Z0.400
G1 X88.568 Y72.779
G1 Z0.200
G1 E1.40000 F2100.00000
M204 S1000
G1 F1200.000
G1 X89.394 Y72.623 E0.02637
G1 X160.589 Y72.623 E2.23226
G1 X161.484 Y72.799 E0.02860
G1 X162.247 Y73.300 E0.02860
G1 X162.765 Y74.051 E0.02860
G1 X162.962 Y74.942 E0.02860
G1 X162.962 Y135.030 E1.88404
G1 X162.904 Y135.525 E0.01562
G1 X162.743 Y135.997 E0.01562
G1 X162.491 Y136.421 E0.01550
G1 X162.153 Y136.787 E0.01562
G1 X161.432 Y137.221 E0.02637
G1 X160.606 Y137.377 E0.02637
G1 X89.407 Y137.377 E2.23238
G1 X88.904 Y137.322 E0.01585
G1 X88.428 Y137.163 E0.01574
G1 X87.996 Y136.908 E0.01574
G1 X87.627 Y136.567 E0.01574
G1 X87.193 Y135.847 E0.02637
G1 X87.038 Y135.024 E0.02626
G1 X87.038 Y74.992 E1.88225
G1 X87.093 Y74.490 E0.01585
G1 X87.252 Y74.014 E0.01574
G1 X87.507 Y73.582 E0.01574
G1 X87.847 Y73.213 E0.01574
G1 X88.516 Y72.810 E0.02449
G1 F8640.000
G1 X89.394 Y72.623 E-0.20727
G1 X94.257 Y72.623 E-1.12273
G1 E-0.07000 F2100.00000
G1 Z0.400 F10800.000
G1 X90.202 Y75.787
G1 Z0.200
G1 E1.40000 F2100.00000
G1 F1200.000
G1 X159.798 Y75.787 E2.18215
G1 X159.798 Y134.213 E1.83190
G1 X90.202 Y134.213 E2.18215
G1 X90.202 Y75.847 E1.83002
G1 X89.825 Y75.410 F10800.000
G1 F1200.000
G1 X160.175 Y75.410 E2.20580
G1 X160.175 Y134.590 E1.85555
G1 X89.825 Y134.590 E2.20580
G1 X89.825 Y75.470 E1.85367
G1 X90.214 Y75.502 F10800.000
G1 F8640.000
G1 X95.585 Y75.465 E-1.33000
G1 E-0.07000 F2100.00000
G1 Z0.400 F10800.000
G1 X159.685 Y76.664
G1 Z0.200
G1 E1.40000 F2100.00000
G1 F1200.000
G1 X159.091 Y76.070 E0.02637
G1 X158.557 Y76.070 E0.01677
G1 X159.516 Y77.028 E0.04255
G1 X159.516 Y77.562 E0.01677
G1 X158.023 Y76.070 E0.06627
G1 X157.489 Y76.070 E0.01677
G1 X159.516 Y78.096 E0.08999
G1 X159.516 Y78.630 E0.01677
G1 X156.955 Y76.070 E0.11371
G1 X156.421 Y76.070 E0.01677
G1 X159.516 Y79.164 E0.13742
G1 X159.516 Y79.698 E0.01677
G1 X155.887 Y76.070 E0.16114
G1 X155.353 Y76.070 E0.01677
G1 X159.516 Y80.233 E0.18486
G1 X159.516 Y80.767 E0.01677
G1 X154.819 Y76.070 E0.20858
G1 X154.285 Y76.070 E0.01677
G1 X159.516 Y81.301 E0.23230
G1 X159.516 Y81.835 E0.01677
G1 X153.751 Y76.070 E0.25601
G1 X153.217 Y76.070 E0.01677
G1 X159.516 Y82.369 E0.27973
G1 X159.516 Y82.903 E0.01677
G1 X152.682 Y76.070 E0.30345
G1 X152.148 Y76.070 E0.01677
G1 X159.516 Y83.437 E0.32717
G1 X159.516 Y83.971 E0.01677
G1 X151.614 Y76.070 E0.35089
G1 X151.080 Y76.070 E0.01677
G1 X159.516 Y84.505 E0.37460
G1 X159.516 Y85.039 E0.01677
G1 X150.546 Y76.070 E0.39832
G1 X150.012 Y76.070 E0.01677
G1 X159.516 Y85.573 E0.42204
G1 X159.516 Y86.107 E0.01677
G1 X149.478 Y76.070 E0.44576
G1 X148.944 Y76.070 E0.01677
G1 X159.516 Y86.642 E0.46948
G1 X159.516 Y87.176 E0.01677
G1 X148.410 Y76.070 E0.49319
G1 X147.876 Y76.070 E0.01677
G1 X159.516 Y87.710 E0.51691
G1 X159.516 Y88.244 E0.01677
G1 X147.342 Y76.070 E0.54063
G1 X146.808 Y76.070 E0.01677
G1 X159.516 Y88.778 E0.56435
G1 X159.516 Y89.312 E0.01677
G1 X146.273 Y76.070 E0.58807
G1 X145.739 Y76.070 E0.01677
G1 X159.516 Y89.846 E0.61178
G1 X159.516 Y90.380 E0.01677
G1 X145.205 Y76.070 E0.63550
G1 X144.671 Y76.070 E0.01677
G1 X159.516 Y90.914 E0.65922
M73 Q1 S105
M73 P1 R104
G1 X159.516 Y91.448 E0.01677
G1 X144.137 Y76.070 E0.68294
G1 X143.603 Y76.070 E0.01677
G1 X159.516 Y91.982 E0.70666
G1 X159.516 Y92.516 E0.01677
G1 X143.069 Y76.070 E0.73037
G1 X142.535 Y76.070 E0.01677
G1 X159.516 Y93.050 E0.75409
G1 X159.516 Y93.585 E0.01677
G1 X142.001 Y76.070 E0.77781
G1 X141.467 Y76.070 E0.01677
G1 X159.516 Y94.119 E0.80153
G1 X159.516 Y94.653 E0.01677
G1 X140.933 Y76.070 E0.82525
G1 X140.399 Y76.070 E0.01677
G1 X159.516 Y95.187 E0.84896
G1 X159.516 Y95.721 E0.01677
G1 X139.865 Y76.070 E0.87268
G1 X139.330 Y76.070 E0.01677
G1 X159.516 Y96.255 E0.89640
G1 X159.516 Y96.789 E0.01677
G1 X138.796 Y76.070 E0.92012
G1 X138.262 Y76.070 E0.01677
G1 X159.516 Y97.323 E0.94384
G1 X159.516 Y97.857 E0.01677
G1 X137.728 Y76.070 E0.96755
G1 X137.194 Y76.070 E0.01677
G1 X159.516 Y98.391 E0.99127
G1 X159.516 Y98.925 E0.01677
G1 X136.660 Y76.070 E1.01499
G1 X136.126 Y76.070 E0.01677
G1 X159.516 Y99.459 E1.03871
G1 X159.516 Y99.994 E0.01677
G1 X135.592 Y76.070 E1.06243
G1 X135.058 Y76.070 E0.01677
G1 X159.516 Y100.528 E1.08614
G1 X159.516 Y101.062 E0.01677
G1 X134.524 Y76.070 E1.10986
G1 X133.990 Y76.070 E0.01677
G1 X159.516 Y101.596 E1.13358
G1 X159.516 Y102.130 E0.01677
G1 X133.456 Y76.070 E1.15730
G1 X132.921 Y76.070 E0.01677
G1 X159.516 Y102.664 E1.18102
G1 X159.516 Y103.198 E0.01677
G1 X132.387 Y76.070 E1.20473
G1 X131.853 Y76.070 E0.01677
G1 X159.516 Y103.732 E1.22845
G1 X159.516 Y104.266 E0.01677
G1 X131.319 Y76.070 E1.25217
G1 X130.785 Y76.070 E0.01677
G1 X159.516 Y104.800 E1.27589
G1 X159.516 Y105.334 E0.01677
G1 X130.251 Y76.070 E1.29961
G1 X129.717 Y76.070 E0.01677
G1 X159.516 Y105.868 E1.32332
G1 X159.516 Y106.403 E0.01677
G1 X129.183 Y76.070 E1.34704
G1 X128.649 Y76.070 E0.01677
G1 X159.516 Y106.937 E1.37076
G1 X159.516 Y107.471 E0.01677
G1 X128.115 Y76.070 E1.39448
G1 X127.581 Y76.070 E0.01677
G1 X159.516 Y108.005 E1.41819
G1 X159.516 Y108.539 E0.01677
G1 X127.047 Y76.070 E1.44191
G1 X126.512 Y76.070 E0.01677
G1 X159.516 Y109.073 E1.46563
G1 X159.516 Y109.607 E0.01677
G1 X125.978 Y76.070 E1.48935
M73 Q1 S104
M73 P1 R103
G1 X125.444 Y76.070 E0.01677
G1 X159.516 Y110.141 E1.51307
G1 X159.516 Y110.675 E0.01677
G1 X124.910 Y76.070 E1.53678
G1 X124.376 Y76.070 E0.01677
G1 X159.516 Y111.209 E1.56050
G1 X159.516 Y111.743 E0.01677
G1 X123.842 Y76.070 E1.58422
G1 X123.308 Y76.070 E0.01677
G1 X159.516 Y112.277 E1.60794
G1 X159.516 Y112.811 E0.01677
G1 X122.774 Y76.070 E1.63166
G1 X122.240 Y76.070 E0.01677
G1 X159.516 Y113.346 E1.65537
G1 X159.516 Y113.880 E0.01677
G1 X121.706 Y76.070 E1.67909
G1 X121.172 Y76.070 E0.01677
G1 X159.516 Y114.414 E1.70281
G1 X159.516 Y114.948 E0.01677
G1 X120.638 Y76.070 E1.72653
G1 X120.104 Y76.070 E0.01677
G1 X159.516 Y115.482 E1.75025
G1 X159.516 Y116.016 E0.01677
G1 X119.569 Y76.070 E1.77396
G1 X119.035 Y76.070 E0.01677
G1 X159.516 Y116.550 E1.79768
G1 X159.516 Y117.084 E0.01677
G1 X118.501 Y76.070 E1.82140
G1 X117.967 Y76.070 E0.01677
G1 X159.516 Y117.618 E1.84512
G1 X159.516 Y118.152 E0.01677
G1 X117.433 Y76.070 E1.86884
G1 X116.899 Y76.070 E0.01677
G1 X159.516 Y118.686 E1.89255
G1 X159.516 Y119.220 E0.01677
G1 X116.365 Y76.070 E1.91627
G1 X115.831 Y76.070 E0.01677
G1 X159.516 Y119.755 E1.93999
G1 X159.516 Y120.289 E0.01677
G1 X115.297 Y76.070 E1.96371
G1 X114.763 Y76.070 E0.01677
G1 X159.516 Y120.823 E1.98743
G1 X159.516 Y121.357 E0.01677
G1 X114.229 Y76.070 E2.01114
M73 Q2 S103
M73 P2 R102
G1 X113.695 Y76.070 E0.01677
G1 X159.516 Y121.891 E2.03486
G1 X159.516 Y122.425 E0.01677
G1 X113.160 Y76.070 E2.05858
G1 X112.626 Y76.070 E0.01677
G1 X159.516 Y122.959 E2.08230
G1 X159.516 Y123.493 E0.01677
G1 X112.092 Y76.070 E2.10602
G1 X111.558 Y76.070 E0.01677
G1 X159.516 Y124.027 E2.12973
G1 X159.516 Y124.561 E0.01677
G1 X111.024 Y76.070 E2.15345
G1 X110.490 Y76.070 E0.01677
G1 X159.516 Y125.095 E2.17717
G1 X159.516 Y125.629 E0.01677
G1 X109.956 Y76.070 E2.20089
G1 X109.422 Y76.070 E0.01677
G1 X159.516 Y126.163 E2.22461
G1 X159.516 Y126.698 E0.01677
G1 X108.888 Y76.070 E2.24832
G1 X108.354 Y76.070 E0.01677
G1 X159.516 Y127.232 E2.27204
G1 X159.516 Y127.766 E0.01677
G1 X107.820 Y76.070 E2.29576
G1 X107.286 Y76.070 E0.01677
G1 X159.516 Y128.300 E2.31948
G1 X159.516 Y128.834 E0.01677
G1 X106.752 Y76.070 E2.34320
G1 X106.217 Y76.070 E0.01677
G1 X159.516 Y129.368 E2.36691
G1 X159.516 Y129.902 E0.01677
G1 X105.683 Y76.070 E2.39063
G1 X105.149 Y76.070 E0.01677
G1 X159.516 Y130.436 E2.41435
M73 Q3 S102
M73 P3 R101
G1 X159.516 Y130.970 E0.01677
G1 X104.615 Y76.070 E2.43807
G1 X104.081 Y76.070 E0.01677
G1 X159.516 Y131.504 E2.46179
G1 X159.516 Y132.038 E0.01677
G1 X103.547 Y76.070 E2.48550
G1 X103.013 Y76.070 E0.01677
G1 X159.516 Y132.572 E2.50922
G1 X159.516 Y133.107 E0.01677
G1 X102.479 Y76.070 E2.53294
G1 X101.945 Y76.070 E0.01677
G1 X159.516 Y133.641 E2.55666
G1 X159.516 Y133.930 E0.00909
G1 X159.271 Y133.930 E0.00768
G1 X101.411 Y76.070 E2.56951
G1 X100.877 Y76.070 E0.01677
G1 X158.737 Y133.930 E2.56951
G1 X158.203 Y133.930 E0.01677
G1 X100.343 Y76.070 E2.56951
G1 X99.808 Y76.070 E0.01677
G1 X157.669 Y133.930 E2.56951
G1 X157.135 Y133.930 E0.01677
G1 X99.274 Y76.070 E2.56951
G1 X98.740 Y76.070 E0.01677
G1 X156.601 Y133.930 E2.56951
G1 X156.066 Y133.930 E0.01677
G1 X98.206 Y76.070 E2.56951
G1 X97.672 Y76.070 E0.01677
G1 X155.532 Y133.930 E2.56951
G1 X154.998 Y133.930 E0.01677
G1 X97.138 Y76.070 E2.56951
M73 Q4 S101
M73 P4 R100
G1 X96.604 Y76.070 E0.01677
G1 X154.464 Y133.930 E2.56951
G1 X153.930 Y133.930 E0.01677
G1 X96.070 Y76.070 E2.56951
G1 X95.536 Y76.070 E0.01677
G1 X153.396 Y133.930 E2.56951
G1 X152.862 Y133.930 E0.01677
G1 X95.002 Y76.070 E2.56951
G1 X94.468 Y76.070 E0.01677
G1 X152.328 Y133.930 E2.56951
G1 X151.794 Y133.930 E0.01677
G1 X93.934 Y76.070 E2.56951
G1 X93.399 Y76.070 E0.01677
G1 X151.260 Y133.930 E2.56951
G1 X150.726 Y133.930 E0.01677
G1 X92.865 Y76.070 E2.56951
G1 X92.331 Y76.070 E0.01677
G1 X150.192 Y133.930 E2.56951
G1 X149.657 Y133.930 E0.01677
G1 X91.797 Y76.070 E2.56951
G1 X91.263 Y76.070 E0.01677
G1 X149.123 Y133.930 E2.56951
G1 X148.589 Y133.930 E0.01677
G1 X90.729 Y76.070 E2.56951
G1 X90.484 Y76.070 E0.00768
G1 X90.484 Y76.359 E0.00909
G1 X148.055 Y133.930 E2.55666
G1 X147.521 Y133.930 E0.01677
G1 X90.484 Y76.893 E2.53294
G1 X90.484 Y77.428 E0.01677
G1 X146.987 Y133.930 E2.50922
M73 Q5 S100
M73 P5 R99
G1 X146.453 Y133.930 E0.01677
G1 X90.484 Y77.962 E2.48551
G1 X90.484 Y78.496 E0.01677
G1 X145.919 Y133.930 E2.46179
G1 X145.385 Y133.930 E0.01677
G1 X90.484 Y79.030 E2.43807
G1 X90.484 Y79.564 E0.01677
G1 X144.851 Y133.930 E2.41435
G1 X144.317 Y133.930 E0.01677
G1 X90.484 Y80.098 E2.39063
G1 X90.484 Y80.632 E0.01677
G1 X143.783 Y133.930 E2.36692
G1 X143.249 Y133.930 E0.01677
G1 X90.484 Y81.166 E2.34320
G1 X90.484 Y81.700 E0.01677
G1 X142.714 Y133.930 E2.31948
G1 X142.180 Y133.930 E0.01677
G1 X90.484 Y82.234 E2.29576
G1 X90.484 Y82.768 E0.01677
G1 X141.646 Y133.930 E2.27204
G1 X141.112 Y133.930 E0.01677
G1 X90.484 Y83.302 E2.24833
G1 X90.484 Y83.836 E0.01677
G1 X140.578 Y133.930 E2.22461
G1 X140.044 Y133.930 E0.01677
G1 X90.484 Y84.371 E2.20089
G1 X90.484 Y84.905 E0.01677
G1 X139.510 Y133.930 E2.17717
G1 X138.976 Y133.930 E0.01677
G1 X90.484 Y85.439 E2.15345
G1 X90.484 Y85.973 E0.01677
G1 X138.442 Y133.930 E2.12974
G1 X137.908 Y133.930 E0.01677
G1 X90.484 Y86.507 E2.10602
M73 Q6 S99
M73 P6 R98
G1 X90.484 Y87.041 E0.01677
G1 X137.374 Y133.930 E2.08230
G1 X136.840 Y133.930 E0.01677
G1 X90.484 Y87.575 E2.05858
G1 X90.484 Y88.109 E0.01677
G1 X136.305 Y133.930 E2.03486
G1 X135.771 Y133.930 E0.01677
G1 X90.484 Y88.643 E2.01115
G1 X90.484 Y89.177 E0.01677
G1 X135.237 Y133.930 E1.98743
G1 X134.703 Y133.930 E0.01677
G1 X90.484 Y89.711 E1.96371
G1 X90.484 Y90.245 E0.01677
G1 X134.169 Y133.930 E1.93999
G1 X133.635 Y133.930 E0.01677
G1 X90.484 Y90.780 E1.91627
G1 X90.484 Y91.314 E0.01677
G1 X133.101 Y133.930 E1.89256
G1 X132.567 Y133.930 E0.01677
G1 X90.484 Y91.848 E1.86884
G1 X90.484 Y92.382 E0.01677
G1 X132.033 Y133.930 E1.84512
G1 X131.499 Y133.930 E0.01677
G1 X90.484 Y92.916 E1.82140
G1 X90.484 Y93.450 E0.01677
G1 X130.965 Y133.930 E1.79768
G1 X130.431 Y133.930 E0.01677
G1 X90.484 Y93.984 E1.77397
G1 X90.484 Y94.518 E0.01677
G1 X129.897 Y133.930 E1.75025
G1 X129.362 Y133.930 E0.01677
G1 X90.484 Y95.052 E1.72653
G1 X90.484 Y95.586 E0.01677
G1 X128.828 Y133.930 E1.70281
G1 X128.294 Y133.930 E0.01677
G1 X90.484 Y96.120 E1.67909
G1 X90.484 Y96.654 E0.01677
G1 X127.760 Y133.930 E1.65538
G1 X127.226 Y133.930 E0.01677
G1 X90.484 Y97.188 E1.63166
G1 X90.484 Y97.723 E0.01677
G1 X126.692 Y133.930 E1.60794
M73 Q7 S98
M73 P7 R97
G1 X126.158 Y133.930 E0.01677
G1 X90.484 Y98.257 E1.58422
G1 X90.484 Y98.791 E0.01677
G1 X125.624 Y133.930 E1.56050
G1 X125.090 Y133.930 E0.01677
G1 X90.484 Y99.325 E1.53679
G1 X90.484 Y99.859 E0.01677
G1 X124.556 Y133.930 E1.51307
G1 X124.022 Y133.930 E0.01677
G1 X90.484 Y100.393 E1.48935
G1 X90.484 Y100.927 E0.01677
G1 X123.488 Y133.930 E1.46563
G1 X122.953 Y133.930 E0.01677
G1 X90.484 Y101.461 E1.44191
G1 X90.484 Y101.995 E0.01677
G1 X122.419 Y133.930 E1.41820
G1 X121.885 Y133.930 E0.01677
G1 X90.484 Y102.529 E1.39448
G1 X90.484 Y103.063 E0.01677
G1 X121.351 Y133.930 E1.37076
G1 X120.817 Y133.930 E0.01677
G1 X90.484 Y103.597 E1.34704
G1 X90.484 Y104.132 E0.01677
G1 X120.283 Y133.930 E1.32333
G1 X119.749 Y133.930 E0.01677
G1 X90.484 Y104.666 E1.29961
G1 X90.484 Y105.200 E0.01677
G1 X119.215 Y133.930 E1.27589
G1 X118.681 Y133.930 E0.01677
G1 X90.484 Y105.734 E1.25217
G1 X90.484 Y106.268 E0.01677
G1 X118.147 Y133.930 E1.22845
G1 X117.613 Y133.930 E0.01677
G1 X90.484 Y106.802 E1.20474
G1 X90.484 Y107.336 E0.01677
G1 X117.079 Y133.930 E1.18102
G1 X116.545 Y133.930 E0.01677
G1 X90.484 Y107.870 E1.15730
G1 X90.484 Y108.404 E0.01677
G1 X116.010 Y133.930 E1.13358
G1 X115.476 Y133.930 E0.01677
G1 X90.484 Y108.938 E1.10986
G1 X90.484 Y109.472 E0.01677
G1 X114.942 Y133.930 E1.08615
G1 X114.408 Y133.930 E0.01677
G1 X90.484 Y110.006 E1.06243
G1 X90.484 Y110.540 E0.01677
G1 X113.874 Y133.930 E1.03871
G1 X113.340 Y133.930 E0.01677
G1 X90.484 Y111.075 E1.01499
G1 X90.484 Y111.609 E0.01677
G1 X112.806 Y133.930 E0.99127
G1 X112.272 Y133.930 E0.01677
G1 X90.484 Y112.143 E0.96756
G1 X90.484 Y112.677 E0.01677
G1 X111.738 Y133.930 E0.94384
G1 X111.204 Y133.930 E0.01677
G1 X90.484 Y113.211 E0.92012
G1 X90.484 Y113.745 E0.01677
G1 X110.670 Y133.930 E0.89640
M73 Q8 S97
M73 P8 R96
G1 X110.136 Y133.930 E0.01677
G1 X90.484 Y114.279 E0.87268
G1 X90.484 Y114.813 E0.01677
G1 X109.601 Y133.930 E0.84897
G1 X109.067 Y133.930 E0.01677
G1 X90.484 Y115.347 E0.82525
G1 X90.484 Y115.881 E0.01677
G1 X108.533 Y133.930 E0.80153
G1 X107.999 Y133.930 E0.01677
G1 X90.484 Y116.415 E0.77781
G1 X90.484 Y116.949 E0.01677
G1 X107.465 Y133.930 E0.75409
G1 X106.931 Y133.930 E0.01677
G1 X90.484 Y117.484 E0.73038
G1 X90.484 Y118.018 E0.01677
G1 X106.397 Y133.930 E0.70666
G1 X105.863 Y133.930 E0.01677
G1 X90.484 Y118.552 E0.68294
G1 X90.484 Y119.086 E0.01677
G1 X105.329 Y133.930 E0.65922
G1 X104.795 Y133.930 E0.01677
G1 X90.484 Y119.620 E0.63550
G1 X90.484 Y120.154 E0.01677
G1 X104.261 Y133.930 E0.61179
G1 X103.727 Y133.930 E0.01677
G1 X90.484 Y120.688 E0.58807
G1 X90.484 Y121.222 E0.01677
G1 X103.192 Y133.930 E0.56435
G1 X102.658 Y133.930 E0.01677
G1 X90.484 Y121.756 E0.54063
G1 X90.484 Y122.290 E0.01677
G1 X102.124 Y133.930 E0.51691
G1 X101.590 Y133.930 E0.01677
