; generated by PrusaSlicer 2.2.0+win64 on 2020-11-26 at 01:21:10 UTC

; 

; external perimeters extrusion width = 0.45mm
; perimeters extrusion width = 0.45mm
; infill extrusion width = 0.45mm
; solid infill extrusion width = 0.45mm
; top infill extrusion width = 0.40mm
; first layer extrusion width = 0.42mm

M73 P0 R37
M73 Q0 S37
M201 X1000 Y1000 Z200 E5000 ; sets maximum accelerations, mm/sec^2
M203 X200 Y200 Z12 E120 ; sets maximum feedrates, mm/sec
M204 P1250 R1250 T1250 ; sets acceleration (P, T) and retract acceleration (R), mm/sec^2
M205 X8.00 Y8.00 Z0.40 E4.50 ; sets the jerk limits, mm/sec
M205 S0 T0 ; sets the minimum extruding and travel feed rate, mm/sec
M107
M862.3 P "MK3S" ; printer model check
M862.1 P0.4 ; nozzle diameter check
M115 U3.9.1 ; tell printer latest fw version
G90 ; use absolute coordinates
M83 ; extruder relative mode
M104 S230 ; set extruder temp
M140 S85 ; set bed temp
M190 S85 ; wait for bed temp
M109 S230 ; wait for extruder temp
G28 W ; home all without mesh bed level
G80 ; mesh bed leveling
G1 Y-3.0 F1000.0 ; go outside print area
G92 E0.0
G1 X60.0 E9.0 F1000.0 ; intro line
M73 Q0 S37
M73 P0 R36
G1 X100.0 E12.5 F1000.0 ; intro line
G92 E0.0
M221 S95

; Don't change E values below. Excessive value can damage the printer.

M907 E538 ; set extruder motor current
G21 ; set units to millimeters
G90 ; use absolute coordinates
M83 ; use relative distances for extrusion
M900 K0.08 ; Filament gcode LA 1.5
M900 K45 ; Filament gcode LA 1.0
;BEFORE_LAYER_CHANGE
G92 E0.0
;0.2


G1 E-1.40000 F2100.00000
G1 Z0.200 F10800.000
;AFTER_LAYER_CHANGE
;0.2
G1 Z0.400
G1 X153.444 Y60.319
G1 Z0.200
G1 E1.40000 F2100.00000
M204 S1000
G1 F1200.000
G1 X154.231 Y60.871 E0.03013
G1 X165.335 Y73.763 E0.53350
G1 X166.153 Y74.822 E0.04194
G1 X166.774 Y75.952 E0.04042
G1 X167.344 Y77.615 E0.05515
G1 X167.555 Y79.067 E0.04600
G1 X167.555 Y130.974 E1.62750
G1 X167.263 Y132.705 E0.05504
G1 X166.837 Y133.918 E0.04030
G1 X166.178 Y135.139 E0.04353
G1 X165.330 Y136.243 E0.04364
G1 X154.269 Y149.088 E0.53150
G1 X153.681 Y149.563 E0.02367
G1 X152.979 Y149.828 E0.02355
G1 X97.489 Y149.877 E1.73986
G1 X96.835 Y149.782 E0.02071
G1 X96.232 Y149.511 E0.02071
G1 X95.703 Y149.056 E0.02190
G1 X84.672 Y136.246 E0.53003
G1 X83.937 Y135.306 E0.03741
G1 X83.102 Y133.766 E0.05492
G1 X82.691 Y132.548 E0.04030
G1 X82.477 Y131.316 E0.03923
G1 X82.445 Y79.018 E1.63974
G1 X82.737 Y77.295 E0.05480
G1 X83.163 Y76.082 E0.04030
G1 X83.822 Y74.861 E0.04353
G1 X84.670 Y73.757 E0.04364
G1 X95.731 Y60.912 E0.53150
G1 X96.309 Y60.443 E0.02331
G1 X97.002 Y60.176 E0.02331
G1 X97.498 Y60.123 E0.01562
G1 X152.504 Y60.123 E1.72468
G1 X153.386 Y60.306 E0.02824
G1 F8640.000
G1 X154.231 Y60.871 E-0.23464
G1 X157.327 Y64.465 E-1.09536
G1 E-0.07000 F2100.00000
G1 Z0.400 F10800.000
G1 X159.232 Y128.142
G1 Z0.200
G1 E1.40000 F2100.00000
G1 F1200.000
G1 X159.613 Y128.241 E0.01234
G1 X159.967 Y128.401 E0.01218
G1 X160.289 Y128.618 E0.01218
G1 X160.569 Y128.887 E0.01218
G1 X160.800 Y129.199 E0.01218
G1 X160.975 Y129.546 E0.01218
G1 X161.089 Y129.918 E0.01218
G1 X161.138 Y130.303 E0.01218
G1 X161.121 Y130.691 E0.01218
G1 X161.040 Y131.071 E0.01218
G1 X160.895 Y131.431 E0.01218
G1 X160.691 Y131.762 E0.01218
G1 X160.434 Y132.053 E0.01218
G1 X160.132 Y132.297 E0.01218
G1 X159.793 Y132.487 E0.01218
G1 X159.427 Y132.616 E0.01218
G1 X159.044 Y132.682 E0.01218
G1 X158.656 Y132.682 E0.01218
G1 X158.273 Y132.616 E0.01218
G1 X157.907 Y132.487 E0.01218
G1 X157.568 Y132.297 E0.01218
G1 X157.266 Y132.053 E0.01218
G1 X157.009 Y131.762 E0.01218
G1 X156.805 Y131.431 E0.01218
G1 X156.660 Y131.071 E0.01218
G1 X156.579 Y130.691 E0.01218
G1 X156.562 Y130.303 E0.01218
G1 X156.611 Y129.918 E0.01218
G1 X156.714 Y129.583 E0.01098
G1 X156.897 Y129.204 E0.01320
G1 X157.131 Y128.887 E0.01234
G1 X157.411 Y128.618 E0.01218
G1 X157.733 Y128.401 E0.01218
G1 X158.087 Y128.241 E0.01218
G1 X158.463 Y128.143 E0.01218
G1 X158.812 Y128.113 E0.01098
G1 X159.172 Y128.138 E0.01132
G1 X159.147 Y128.514 F10800.000
G1 F1200.000
G1 X159.487 Y128.598 E0.01098
G1 X159.782 Y128.731 E0.01017
G1 X160.051 Y128.913 E0.01017
G1 X160.285 Y129.137 E0.01017
G1 X160.478 Y129.398 E0.01017
G1 X160.624 Y129.687 E0.01017
G1 X160.719 Y129.997 E0.01017
G1 X160.760 Y130.319 E0.01017
G1 X160.746 Y130.643 E0.01016
G1 X160.678 Y130.960 E0.01017
G1 X160.557 Y131.261 E0.01017
G1 X160.387 Y131.537 E0.01017
G1 X160.173 Y131.780 E0.01017
G1 X159.920 Y131.984 E0.01017
G1 X159.637 Y132.142 E0.01017
G1 X159.332 Y132.250 E0.01017
G1 X159.012 Y132.305 E0.01017
G1 X158.688 Y132.305 E0.01017
G1 X158.368 Y132.250 E0.01017
G1 X158.063 Y132.142 E0.01017
G1 X157.780 Y131.984 E0.01017
G1 X157.527 Y131.780 E0.01017
G1 X157.313 Y131.537 E0.01017
G1 X157.143 Y131.261 E0.01017
G1 X157.022 Y130.960 E0.01017
G1 X156.954 Y130.643 E0.01017
G1 X156.940 Y130.319 E0.01017
G1 X156.981 Y129.997 E0.01017
G1 X157.066 Y129.721 E0.00907
G1 X157.221 Y129.399 E0.01119
G1 X157.415 Y129.137 E0.01022
G1 X157.649 Y128.913 E0.01017
G1 X157.918 Y128.731 E0.01017
G1 X158.213 Y128.598 E0.01017
G1 X158.527 Y128.516 E0.01017
G1 X158.815 Y128.491 E0.00907
G1 X159.087 Y128.510 E0.00854
G1 X159.368 Y128.242 F10800.000
G1 F8640.000
G1 X159.487 Y128.598 E-0.09455
G1 X159.782 Y128.731 E-0.07486
G1 X160.051 Y128.913 E-0.07486
G1 X160.285 Y129.137 E-0.07486
G1 X160.478 Y129.398 E-0.07486
G1 X160.624 Y129.687 E-0.07486
G1 X160.719 Y129.997 E-0.07486
G1 X160.760 Y130.319 E-0.07486
G1 X160.746 Y130.643 E-0.07486
G1 X160.678 Y130.960 E-0.07486
G1 X160.557 Y131.261 E-0.07486
G1 X160.387 Y131.537 E-0.07486
G1 X160.173 Y131.780 E-0.07486
G1 X159.920 Y131.984 E-0.07486
G1 X159.637 Y132.142 E-0.07486
G1 X159.332 Y132.250 E-0.07486
G1 X159.012 Y132.305 E-0.07486
G1 X158.849 Y132.305 E-0.03768
G1 E-0.07000 F2100.00000
G1 Z0.400 F10800.000
G1 X158.850 Y81.892
G1 Z0.200
G1 E1.40000 F2100.00000
G1 F1200.000
G1 X158.285 Y81.820 E0.01785
G1 X157.907 Y81.687 E0.01258
G1 X157.568 Y81.497 E0.01218
G1 X157.266 Y81.253 E0.01218
G1 X157.009 Y80.962 E0.01218
G1 X156.805 Y80.631 E0.01218
G1 X156.660 Y80.271 E0.01218
G1 X156.579 Y79.891 E0.01218
G1 X156.562 Y79.503 E0.01218
G1 X156.611 Y79.118 E0.01218
G1 X156.725 Y78.746 E0.01218
G1 X156.900 Y78.399 E0.01218
G1 X157.131 Y78.087 E0.01218
G1 X157.411 Y77.818 E0.01218
G1 X157.733 Y77.601 E0.01218
G1 X158.087 Y77.441 E0.01218
G1 X158.463 Y77.343 E0.01218
G1 X158.812 Y77.313 E0.01098
G1 X159.232 Y77.342 E0.01320
G1 X159.613 Y77.441 E0.01234
G1 X159.967 Y77.601 E0.01218
G1 X160.289 Y77.818 E0.01218
G1 X160.569 Y78.087 E0.01218
G1 X160.800 Y78.399 E0.01218
G1 X160.975 Y78.746 E0.01218
G1 X161.089 Y79.118 E0.01218
G1 X161.138 Y79.503 E0.01218
G1 X161.121 Y79.891 E0.01218
G1 X161.040 Y80.271 E0.01218
G1 X160.895 Y80.631 E0.01218
G1 X160.691 Y80.962 E0.01218
G1 X160.434 Y81.253 E0.01218
G1 X160.132 Y81.497 E0.01218
G1 X159.793 Y81.687 E0.01218
G1 X159.415 Y81.820 E0.01258
G1 X158.910 Y81.884 E0.01597
G1 X158.862 Y81.510 F10800.000
G1 F1200.000
G1 X158.373 Y81.451 E0.01546
G1 X158.063 Y81.342 E0.01031
G1 X157.780 Y81.184 E0.01017
G1 X157.527 Y80.980 E0.01017
G1 X157.313 Y80.737 E0.01017
G1 X157.143 Y80.461 E0.01017
G1 X157.022 Y80.160 E0.01017
G1 X156.954 Y79.843 E0.01017
G1 X156.940 Y79.519 E0.01017
G1 X156.981 Y79.197 E0.01017
G1 X157.076 Y78.887 E0.01017
G1 X157.222 Y78.598 E0.01017
G1 X157.415 Y78.337 E0.01017
G1 X157.649 Y78.113 E0.01017
G1 X157.918 Y77.931 E0.01017
G1 X158.213 Y77.798 E0.01017
G1 X158.527 Y77.716 E0.01017
G1 X158.815 Y77.691 E0.00907
G1 X159.171 Y77.716 E0.01119
G1 X159.487 Y77.798 E0.01022
G1 X159.782 Y77.931 E0.01017
G1 X160.051 Y78.113 E0.01017
G1 X160.285 Y78.337 E0.01017
G1 X160.478 Y78.598 E0.01017
G1 X160.624 Y78.887 E0.01017
G1 X160.719 Y79.197 E0.01017
G1 X160.760 Y79.519 E0.01017
G1 X160.746 Y79.843 E0.01017
G1 X160.678 Y80.160 E0.01017
G1 X160.557 Y80.461 E0.01017
G1 X160.387 Y80.737 E0.01017
G1 X160.173 Y80.980 E0.01017
G1 X159.920 Y81.184 E0.01017
G1 X159.637 Y81.342 E0.01017
G1 X159.327 Y81.451 E0.01031
G1 X158.922 Y81.503 E0.01282
G1 X158.659 Y81.855 F10800.000
G1 F8640.000
G1 X158.373 Y81.451 E-0.12730
G1 X158.063 Y81.342 E-0.07593
G1 X157.780 Y81.184 E-0.07486
G1 X157.527 Y80.980 E-0.07486
G1 X157.313 Y80.737 E-0.07486
G1 X157.143 Y80.461 E-0.07486
G1 X157.022 Y80.160 E-0.07486
G1 X156.954 Y79.843 E-0.07486
G1 X156.940 Y79.519 E-0.07486
G1 X156.981 Y79.197 E-0.07486
G1 X157.076 Y78.887 E-0.07486
G1 X157.222 Y78.598 E-0.07486
G1 X157.415 Y78.337 E-0.07486
G1 X157.649 Y78.113 E-0.07486
G1 X157.918 Y77.931 E-0.07486
G1 X158.213 Y77.798 E-0.07486
G1 X158.527 Y77.716 E-0.07486
G1 X158.544 Y77.715 E-0.00386
G1 E-0.07000 F2100.00000
G1 Z0.400 F10800.000
G1 X93.438 Y79.503
G1 Z0.200
G1 E1.40000 F2100.00000
G1 F1200.000
G1 X93.421 Y79.891 E0.01218
G1 X93.340 Y80.271 E0.01218
G1 X93.195 Y80.631 E0.01218
G1 X92.991 Y80.962 E0.01218
G1 X92.734 Y81.253 E0.01218
G1 X92.432 Y81.497 E0.01218
G1 X92.093 Y81.687 E0.01218
G1 X91.715 Y81.820 E0.01258
G1 X91.150 Y81.892 E0.01785
G1 X90.585 Y81.820 E0.01785
G1 X90.207 Y81.687 E0.01258
G1 X89.868 Y81.497 E0.01218
G1 X89.566 Y81.253 E0.01218
G1 X89.309 Y80.962 E0.01218
G1 X89.105 Y80.631 E0.01218
G1 X88.960 Y80.271 E0.01218
G1 X88.887 Y79.928 E0.01098
G1 X88.861 Y79.508 E0.01320
G1 X88.911 Y79.118 E0.01234
G1 X89.025 Y78.746 E0.01218
G1 X89.200 Y78.399 E0.01218
G1 X89.431 Y78.087 E0.01218
G1 X89.711 Y77.818 E0.01218
G1 X90.033 Y77.601 E0.01218
G1 X90.387 Y77.441 E0.01218
G1 X90.763 Y77.343 E0.01218
G1 X91.112 Y77.313 E0.01098
G1 X91.532 Y77.342 E0.01320
G1 X91.913 Y77.441 E0.01234
G1 X92.267 Y77.601 E0.01218
G1 X92.589 Y77.818 E0.01218
G1 X92.869 Y78.087 E0.01218
G1 X93.100 Y78.399 E0.01218
G1 X93.275 Y78.746 E0.01218
G1 X93.389 Y79.118 E0.01218
G1 X93.430 Y79.443 E0.01030
G1 X93.056 Y79.491 F10800.000
G1 F1200.000
G1 X93.046 Y79.843 E0.01103
G1 X92.978 Y80.160 E0.01017
G1 X92.857 Y80.461 E0.01017
G1 X92.687 Y80.737 E0.01017
G1 X92.473 Y80.980 E0.01017
G1 X92.220 Y81.184 E0.01017
G1 X91.937 Y81.342 E0.01017
G1 X91.627 Y81.451 E0.01031
G1 X91.150 Y81.512 E0.01508
G1 X90.673 Y81.451 E0.01508
G1 X90.363 Y81.342 E0.01031
G1 X90.080 Y81.184 E0.01017
G1 X89.827 Y80.980 E0.01017
G1 X89.613 Y80.737 E0.01017
G1 X89.443 Y80.461 E0.01017
G1 X89.322 Y80.160 E0.01017
G1 X89.261 Y79.877 E0.00907
G1 X89.240 Y79.521 E0.01119
G1 X89.281 Y79.197 E0.01022
G1 X89.376 Y78.887 E0.01017
G1 X89.522 Y78.598 E0.01017
G1 X89.715 Y78.337 E0.01017
G1 X89.949 Y78.113 E0.01017
G1 X90.218 Y77.931 E0.01017
G1 X90.513 Y77.798 E0.01017
G1 X90.827 Y77.716 E0.01017
G1 X91.115 Y77.691 E0.00907
G1 X91.471 Y77.716 E0.01119
G1 X91.787 Y77.798 E0.01022
G1 X92.082 Y77.931 E0.01017
G1 X92.351 Y78.113 E0.01017
G1 X92.585 Y78.337 E0.01017
G1 X92.778 Y78.598 E0.01017
G1 X92.924 Y78.887 E0.01017
G1 X93.019 Y79.197 E0.01017
G1 X93.049 Y79.432 E0.00741
G1 X93.370 Y79.651 F10800.000
G1 F8640.000
G1 X93.046 Y79.843 E-0.09493
G1 X92.978 Y80.160 E-0.07486
G1 X92.857 Y80.461 E-0.07486
G1 X92.687 Y80.737 E-0.07486
G1 X92.473 Y80.980 E-0.07486
G1 X92.220 Y81.184 E-0.07486
G1 X91.937 Y81.342 E-0.07486
G1 X91.627 Y81.451 E-0.07593
G1 X91.150 Y81.512 E-0.11109
G1 X90.673 Y81.451 E-0.11109
G1 X90.363 Y81.342 E-0.07593
G1 X90.080 Y81.184 E-0.07486
G1 X89.827 Y80.980 E-0.07486
G1 X89.613 Y80.737 E-0.07486
G1 X89.443 Y80.461 E-0.07486
G1 X89.322 Y80.160 E-0.07486
G1 X89.288 Y80.001 E-0.03756
G1 E-0.07000 F2100.00000
G1 Z0.400 F10800.000
G1 X91.532 Y128.142
G1 Z0.200
G1 E1.40000 F2100.00000
G1 F1200.000
G1 X91.913 Y128.241 E0.01234
G1 X92.267 Y128.401 E0.01218
G1 X92.589 Y128.618 E0.01218
G1 X92.869 Y128.887 E0.01218
G1 X93.100 Y129.199 E0.01218
G1 X93.275 Y129.546 E0.01218
G1 X93.389 Y129.918 E0.01218
G1 X93.438 Y130.303 E0.01218
G1 X93.421 Y130.691 E0.01218
G1 X93.340 Y131.071 E0.01218
G1 X93.195 Y131.431 E0.01218
G1 X92.991 Y131.762 E0.01218
G1 X92.734 Y132.053 E0.01218
G1 X92.432 Y132.297 E0.01218
G1 X92.093 Y132.487 E0.01218
G1 X91.727 Y132.616 E0.01218
G1 X91.344 Y132.682 E0.01218
G1 X90.956 Y132.682 E0.01218
G1 X90.573 Y132.616 E0.01218
G1 X90.243 Y132.499 E0.01098
G1 X89.872 Y132.300 E0.01320
G1 X89.566 Y132.053 E0.01234
G1 X89.309 Y131.762 E0.01218
G1 X89.105 Y131.431 E0.01218
G1 X88.960 Y131.071 E0.01218
G1 X88.879 Y130.691 E0.01218
G1 X88.862 Y130.303 E0.01218
G1 X88.911 Y129.918 E0.01218
G1 X89.014 Y129.583 E0.01098
G1 X89.197 Y129.204 E0.01320
G1 X89.431 Y128.887 E0.01234
G1 X89.711 Y128.618 E0.01218
G1 X90.033 Y128.401 E0.01218
G1 X90.387 Y128.241 E0.01218
G1 X90.763 Y128.143 E0.01218
G1 X91.112 Y128.113 E0.01098
G1 X91.472 Y128.138 E0.01132
G1 X91.447 Y128.514 F10800.000
G1 F1200.000
G1 X91.787 Y128.598 E0.01098
G1 X92.082 Y128.731 E0.01017
G1 X92.351 Y128.913 E0.01017
G1 X92.585 Y129.137 E0.01017
G1 X92.778 Y129.398 E0.01017
G1 X92.924 Y129.687 E0.01017
G1 X93.019 Y129.997 E0.01017
G1 X93.060 Y130.319 E0.01017
G1 X93.046 Y130.643 E0.01017
G1 X92.978 Y130.960 E0.01017
G1 X92.857 Y131.261 E0.01017
G1 X92.687 Y131.537 E0.01017
G1 X92.473 Y131.780 E0.01017
G1 X92.220 Y131.984 E0.01017
G1 X91.937 Y132.142 E0.01017
G1 X91.632 Y132.250 E0.01017
G1 X91.312 Y132.305 E0.01017
G1 X90.988 Y132.305 E0.01017
G1 X90.668 Y132.250 E0.01017
G1 X90.396 Y132.153 E0.00907
G1 X90.081 Y131.985 E0.01119
G1 X89.827 Y131.780 E0.01022
G1 X89.613 Y131.537 E0.01017
G1 X89.443 Y131.261 E0.01017
G1 X89.322 Y130.960 E0.01017
G1 X89.254 Y130.643 E0.01017
G1 X89.240 Y130.319 E0.01017
G1 X89.281 Y129.997 E0.01017
G1 X89.366 Y129.721 E0.00907
G1 X89.521 Y129.399 E0.01119
G1 X89.715 Y129.137 E0.01022
G1 X89.949 Y128.913 E0.01017
G1 X90.218 Y128.731 E0.01017
G1 X90.513 Y128.598 E0.01017
G1 X90.827 Y128.516 E0.01017
G1 X91.115 Y128.491 E0.00907
G1 X91.387 Y128.510 E0.00854
G1 X91.668 Y128.242 F10800.000
G1 F8640.000
G1 X91.787 Y128.598 E-0.09455
G1 X92.082 Y128.731 E-0.07486
G1 X92.351 Y128.913 E-0.07486
G1 X92.585 Y129.137 E-0.07486
G1 X92.778 Y129.398 E-0.07486
G1 X92.924 Y129.687 E-0.07486
G1 X93.019 Y129.997 E-0.07486
G1 X93.060 Y130.319 E-0.07486
G1 X93.046 Y130.643 E-0.07486
G1 X92.978 Y130.960 E-0.07486
G1 X92.857 Y131.261 E-0.07486
G1 X92.687 Y131.537 E-0.07486
G1 X92.473 Y131.780 E-0.07486
G1 X92.220 Y131.984 E-0.07486
G1 X91.937 Y132.142 E-0.07486
G1 X91.632 Y132.250 E-0.07486
G1 X91.312 Y132.305 E-0.07486
G1 X91.149 Y132.305 E-0.03768
G1 E-0.07000 F2100.00000
G1 Z0.400 F10800.000
G1 X98.287 Y146.713
G1 Z0.200
G1 E1.40000 F2100.00000
G1 F1200.000
G1 X98.287 Y143.069 E0.11425
G1 X98.202 Y141.983 E0.03415
G1 X97.940 Y140.894 E0.03513
G1 X97.511 Y139.859 E0.03513
G1 X96.926 Y138.904 E0.03513
G1 X96.198 Y138.052 E0.03513
G1 X95.346 Y137.324 E0.03513
G1 X94.391 Y136.739 E0.03513
G1 X93.356 Y136.310 E0.03513
G1 X92.267 Y136.049 E0.03511
G1 X90.234 Y135.884 E0.06396
G1 X89.345 Y135.659 E0.02877
G1 X88.504 Y135.290 E0.02879
G1 X87.735 Y134.788 E0.02879
G1 X87.059 Y134.166 E0.02879
G1 X86.495 Y133.441 E0.02879
G1 X86.058 Y132.634 E0.02879
G1 X85.760 Y131.765 E0.02879
G1 X85.609 Y130.859 E0.02879
G1 X85.609 Y129.941 E0.02879
G1 X85.760 Y129.035 E0.02879
G1 X86.058 Y128.166 E0.02879
G1 X86.473 Y127.400 E0.02731
G1 X87.061 Y126.633 E0.03032
G1 X87.735 Y126.012 E0.02872
G1 X88.464 Y125.536 E0.02731
G1 X89.347 Y125.140 E0.03032
G1 X90.234 Y124.916 E0.02870
G1 X92.267 Y124.751 E0.06396
G1 X93.356 Y124.490 E0.03511
G1 X94.391 Y124.061 E0.03513
G1 X95.346 Y123.476 E0.03513
G1 X96.198 Y122.748 E0.03513
G1 X96.926 Y121.897 E0.03513
G1 X97.511 Y120.941 E0.03513
G1 X97.940 Y119.906 E0.03513
G1 X98.202 Y118.817 E0.03513
G1 X98.287 Y117.731 E0.03415
G1 X98.287 Y92.269 E0.79834
G1 X98.202 Y91.183 E0.03415
G1 X97.940 Y90.094 E0.03513
G1 X97.511 Y89.059 E0.03513
G1 X96.926 Y88.104 E0.03513
G1 X96.198 Y87.252 E0.03513
G1 X95.346 Y86.524 E0.03513
G1 X94.391 Y85.939 E0.03513
G1 X93.356 Y85.510 E0.03513
G1 X92.267 Y85.249 E0.03511
G1 X90.234 Y85.084 E0.06396
G1 X89.345 Y84.859 E0.02877
G1 X88.504 Y84.490 E0.02879
G1 X87.735 Y83.988 E0.02879
G1 X87.059 Y83.366 E0.02879
G1 X86.495 Y82.641 E0.02879
G1 X86.058 Y81.834 E0.02879
G1 X85.760 Y80.965 E0.02879
G1 X85.609 Y80.059 E0.02879
G1 X85.609 Y79.141 E0.02879
G1 X85.760 Y78.235 E0.02879
G1 X86.058 Y77.366 E0.02879
