; generated by PrusaSlicer 2.2.0+win64 on 2020-06-11 at 00:06:18 UTC

; 

; external perimeters extrusion width = 0.45mm
; perimeters extrusion width = 0.45mm
; infill extrusion width = 0.45mm
; solid infill extrusion width = 0.45mm
; top infill extrusion width = 0.40mm
; first layer extrusion width = 0.70mm

M107
M104 S200 ; set temperature
G28 ; home all axes
G1 Z5 F5000 ; lift nozzle
M109 S200 ; set temperature and wait for it to be reached
G21 ; set units to millimeters
G90 ; use absolute coordinates
M82 ; use absolute distances for extrusion
G92 E0
; Filament gcode
G1 Z0.350 F7800.000
G1 E-2.00000 F2400.00000
G92 E0
G1 X73.448 Y79.108 F7800.000
G1 E2.00000 F2400.00000
G1 F1800.000
G1 X74.358 Y78.449 E2.10222
G1 X75.367 Y77.953 E2.20444
G1 X76.439 Y77.636 E2.30608
G1 X77.556 Y77.504 E2.40830
G1 X122.231 Y77.500 E6.47065
G1 X123.445 Y77.613 E6.58151
G1 X124.612 Y77.945 E6.69180
G1 X125.699 Y78.484 E6.80208
G1 X126.673 Y79.216 E6.91294
G1 X127.498 Y80.114 E7.02380
G1 X128.141 Y81.143 E7.13408
G1 X128.587 Y82.277 E7.24494
G1 X128.817 Y83.468 E7.35522
G1 X128.838 Y116.275 E10.33839
G1 X128.627 Y117.579 E10.45846
G1 X128.162 Y118.815 E10.57853
G1 X127.461 Y119.934 E10.69860
G1 X126.552 Y120.892 E10.81867
G1 X125.642 Y121.551 E10.92089
G1 X124.633 Y122.047 E11.02311
G1 X123.561 Y122.364 E11.12475
G1 X122.444 Y122.496 E11.22697
G1 X77.692 Y122.499 E15.29626
G1 X76.306 Y122.335 E15.42323
G1 X74.979 Y121.881 E15.55077
G1 X73.782 Y121.161 E15.67774
G1 X72.758 Y120.202 E15.80529
G1 X72.109 Y119.308 E15.90578
G1 X71.617 Y118.318 E16.00627
G1 X71.297 Y117.261 E16.10676
G1 X71.157 Y116.171 E16.20667
G1 X71.151 Y84.017 E19.13040
G1 X71.321 Y82.631 E19.25737
G1 X71.775 Y81.317 E19.38377
G1 X72.496 Y80.122 E19.51074
G1 X73.407 Y79.152 E19.63168
G1 E17.63168 F2400.00000
G92 E0
G1 X120.425 Y114.075 F7800.000
G1 E2.00000 F2400.00000
G1 F1800.000
G1 X79.575 Y114.075 E5.71451
G1 X79.575 Y85.925 E8.27422
G1 X120.425 Y85.925 E11.98874
G1 X120.425 Y114.015 E14.54299
G1 X121.050 Y114.700 F7800.000
G1 F1800.000
G1 X78.950 Y114.700 E18.37114
G1 X78.950 Y85.300 E21.04449
G1 X121.050 Y85.300 E24.87265
G1 X121.050 Y114.640 E27.54054
G1 X121.675 Y115.325 F7800.000
G1 F1800.000
G1 X78.325 Y115.325 E31.48234
G1 X78.325 Y84.675 E34.26933
G1 X121.675 Y84.675 E38.21113
G1 X121.675 Y115.265 E40.99267
G1 X121.283 Y115.244 F7800.000
G1 E38.99267 F2400.00000
G92 E0
G1 X79.762 Y112.618 F7800.000
G1 E2.00000 F2400.00000
G1 F1800.000
G1 X80.750 Y113.607 E2.12770
G1 X81.638 Y113.607 E2.20884
G1 X80.043 Y112.011 E2.41494
G1 X80.043 Y111.123 E2.49608
G1 X82.526 Y113.607 E2.81693
G1 X83.414 Y113.607 E2.89807
G1 X80.043 Y110.235 E3.33366
G1 X80.043 Y109.347 E3.41480
G1 X84.302 Y113.607 E3.96513
G1 X85.190 Y113.607 E4.04627
G1 X80.043 Y108.459 E4.71135
G1 X80.043 Y107.571 E4.79249
G1 X86.078 Y113.607 E5.57231
G1 X86.966 Y113.607 E5.65345
G1 X80.043 Y106.683 E6.54802
G1 X80.043 Y105.795 E6.62915
G1 X87.854 Y113.607 E7.63846
G1 X88.742 Y113.607 E7.71960
G1 X80.043 Y104.907 E8.84366
G1 X80.043 Y104.019 E8.92479
G1 X89.630 Y113.607 E10.16359
G1 X90.518 Y113.607 E10.24473
G1 X80.043 Y103.131 E11.59827
G1 X80.043 Y102.243 E11.67940
G1 X91.406 Y113.607 E13.14769
G1 X92.294 Y113.607 E13.22883
G1 X80.043 Y101.355 E14.81186
G1 X80.043 Y100.467 E14.89299
G1 X93.182 Y113.607 E16.59077
G1 X94.070 Y113.607 E16.67190
G1 X80.043 Y99.579 E18.48442
G1 X80.043 Y98.691 E18.56555
G1 X94.958 Y113.607 E20.49281
G1 X95.846 Y113.607 E20.57395
G1 X80.043 Y97.803 E22.61595
G1 X80.043 Y96.915 E22.69709
G1 X96.734 Y113.607 E24.85384
G1 X97.623 Y113.607 E24.93497
G1 X80.043 Y96.027 E27.20646
G1 X80.043 Y95.139 E27.28760
G1 X98.510 Y113.607 E29.67383
G1 X99.398 Y113.607 E29.75497
G1 X80.043 Y94.251 E32.25595
G1 X80.043 Y93.363 E32.33708
G1 X100.287 Y113.607 E34.95280
G1 X101.175 Y113.607 E35.03394
G1 X80.043 Y92.475 E37.76441
G1 X80.043 Y91.587 E37.84554
G1 X102.063 Y113.607 E40.69075
G1 X102.951 Y113.607 E40.77189
G1 X80.043 Y90.699 E43.73184
G1 X80.043 Y89.811 E43.81297
G1 X103.839 Y113.607 E46.88767
G1 X104.727 Y113.607 E46.96880
G1 X80.043 Y88.923 E50.15824
G1 X80.043 Y88.035 E50.23938
G1 X105.615 Y113.607 E53.54356
G1 X106.503 Y113.607 E53.62470
G1 X80.043 Y87.147 E57.04362
G1 X80.043 Y86.393 E57.11252
G1 X80.177 Y86.393 E57.12476
G1 X107.391 Y113.607 E60.64112
G1 X108.279 Y113.607 E60.72226
G1 X81.065 Y86.393 E64.23862
G1 X81.953 Y86.393 E64.31976
G1 X109.167 Y113.607 E67.83612
G1 X110.055 Y113.607 E67.91726
G1 X82.841 Y86.393 E71.43362
G1 X83.729 Y86.393 E71.51475
G1 X110.943 Y113.607 E75.03112
G1 X111.831 Y113.607 E75.11225
G1 X84.617 Y86.393 E78.62862
G1 X85.505 Y86.393 E78.70975
G1 X112.719 Y113.607 E82.22611
G1 X113.607 Y113.607 E82.30725
G1 X86.393 Y86.393 E85.82361
G1 X87.281 Y86.393 E85.90475
G1 X114.495 Y113.607 E89.42111
G1 X115.383 Y113.607 E89.50225
G1 X88.169 Y86.393 E93.01861
G1 X89.057 Y86.393 E93.09975
G1 X116.271 Y113.607 E96.61611
G1 X117.159 Y113.607 E96.69725
G1 X89.945 Y86.393 E100.21361
G1 X90.833 Y86.393 E100.29474
G1 X118.047 Y113.607 E103.81111
G1 X118.935 Y113.607 E103.89224
G1 X91.721 Y86.393 E107.40861
G1 X92.609 Y86.393 E107.48974
G1 X119.823 Y113.607 E111.00610
G1 X119.957 Y113.607 E111.01835
G1 X119.957 Y112.853 E111.08724
G1 X93.497 Y86.393 E114.50618
G1 X94.385 Y86.393 E114.58732
G1 X119.957 Y111.965 E117.89152
G1 X119.957 Y111.077 E117.97265
G1 X95.273 Y86.393 E121.16211
G1 X96.161 Y86.393 E121.24324
G1 X119.957 Y110.189 E124.31795
G1 X119.957 Y109.301 E124.39909
G1 X97.049 Y86.393 E127.35906
G1 X97.937 Y86.393 E127.44019
G1 X119.957 Y108.413 E130.28542
G1 X119.957 Y107.525 E130.36655
G1 X98.825 Y86.393 E133.09703
G1 X99.713 Y86.393 E133.17817
G1 X119.957 Y106.637 E135.79390
G1 X119.957 Y105.749 E135.87504
G1 X100.601 Y86.393 E138.37603
G1 X101.489 Y86.393 E138.45717
G1 X119.957 Y104.861 E140.84342
G1 X119.957 Y103.973 E140.92455
G1 X102.377 Y86.393 E143.19606
G1 X103.265 Y86.393 E143.27720
G1 X119.957 Y103.085 E145.43396
G1 X119.957 Y102.197 E145.51510
G1 X104.153 Y86.393 E147.55711
G1 X105.041 Y86.393 E147.63825
G1 X119.957 Y101.309 E149.56553
G1 X119.957 Y100.421 E149.64666
G1 X105.929 Y86.393 E151.45919
G1 X106.817 Y86.393 E151.54033
G1 X119.957 Y99.533 E153.23812
G1 X119.957 Y98.645 E153.31925
G1 X107.705 Y86.393 E154.90230
G1 X108.593 Y86.393 E154.98343
G1 X119.957 Y97.757 E156.45174
G1 X119.957 Y96.869 E156.53287
G1 X109.481 Y86.393 E157.88643
G1 X110.369 Y86.393 E157.96757
G1 X119.957 Y95.981 E159.20638
G1 X119.957 Y95.093 E159.28752
G1 X111.257 Y86.393 E160.41159
G1 X112.145 Y86.393 E160.49272
G1 X119.957 Y94.205 E161.50205
G1 X119.957 Y93.317 E161.58319
G1 X113.033 Y86.393 E162.47777
G1 X113.921 Y86.393 E162.55891
G1 X119.957 Y92.429 E163.33875
G1 X119.957 Y91.541 E163.41988
G1 X114.809 Y86.393 E164.08498
G1 X115.697 Y86.393 E164.16611
G1 X119.957 Y90.653 E164.71647
G1 X119.957 Y89.765 E164.79760
G1 X116.585 Y86.393 E165.23321
G1 X117.473 Y86.393 E165.31435
G1 X119.957 Y88.877 E165.63522
G1 X119.957 Y87.989 E165.71635
G1 X118.361 Y86.393 E165.92247
G1 X119.249 Y86.393 E166.00361
G1 X120.238 Y87.382 E166.13132
G1 Z0.650 F7800.000
G1 X121.229 Y114.879
G1 F3600.000
G1 X78.771 Y114.879 E168.17339
G1 X78.771 Y85.121 E169.60462
G1 X121.229 Y85.121 E171.64668
G1 X121.229 Y114.819 E173.07503
G1 X121.614 Y115.264 F7800.000
G1 F3600.000
G1 X78.386 Y115.264 E175.15419
G1 X78.386 Y84.736 E176.62252
G1 X121.614 Y84.736 E178.70167
G1 X121.614 Y115.204 E180.16712
G1 X122.000 Y115.650 F7800.000
G1 F1800.000
G1 X78.000 Y115.650 E182.28337
G1 X78.000 Y84.350 E183.78879
G1 X122.000 Y84.350 E185.90504
G1 X122.000 Y115.590 E187.40758
G1 X121.608 Y115.568 F7800.000
G1 X79.671 Y85.237
G1 F1200.000
G1 X79.060 Y85.847 E187.44932
G1 X79.060 Y86.396 E187.47584
G1 X80.046 Y85.410 E187.54321
G1 X80.594 Y85.410 E187.56973
G1 X79.060 Y86.944 E187.67460
G1 X79.060 Y87.492 E187.70112
G1 X81.142 Y85.410 E187.84349
G1 X81.691 Y85.410 E187.87000
G1 X79.060 Y88.041 E188.04987
G1 X79.060 Y88.589 E188.07639
G1 X82.239 Y85.410 E188.29376
G1 X82.787 Y85.410 E188.32028
G1 X79.060 Y89.137 E188.57514
G1 X79.060 Y89.685 E188.60166
G1 X83.336 Y85.410 E188.89403
G1 X83.884 Y85.410 E188.92054
G1 X79.060 Y90.234 E189.25041
G1 X79.060 Y90.782 E189.27692
G1 X84.432 Y85.410 E189.64429
G1 X84.980 Y85.410 E189.67081
G1 X79.060 Y91.330 E190.07567
G1 X79.060 Y91.879 E190.10218
G1 X85.529 Y85.410 E190.54455
G1 X86.077 Y85.410 E190.57106
G1 X79.060 Y92.427 E191.05092
G1 X79.060 Y92.975 E191.07744
G1 X86.625 Y85.410 E191.59480
G1 X87.174 Y85.410 E191.62131
G1 X79.060 Y93.524 E192.17617
G1 X79.060 Y94.072 E192.20269
G1 X87.722 Y85.410 E192.79505
G1 X88.270 Y85.410 E192.82156
G1 X79.060 Y94.620 E193.45142
G1 X79.060 Y95.169 E193.47793
G1 X88.819 Y85.410 E194.14529
G1 X89.367 Y85.410 E194.17181
G1 X79.060 Y95.717 E194.87666
G1 X79.060 Y96.265 E194.90317
G1 X89.915 Y85.410 E195.64553
G1 X90.464 Y85.410 E195.67204
G1 X79.060 Y96.814 E196.45189
G1 X79.060 Y97.362 E196.47841
G1 X91.012 Y85.410 E197.29576
G1 X91.560 Y85.410 E197.32228
G1 X79.060 Y97.910 E198.17712
G1 X79.060 Y98.459 E198.20364
G1 X92.109 Y85.410 E199.09599
G1 X92.657 Y85.410 E199.12250
G1 X79.060 Y99.007 E200.05235
G1 X79.060 Y99.555 E200.07887
G1 X93.205 Y85.410 E201.04621
G1 X93.754 Y85.410 E201.07273
G1 X79.060 Y100.104 E202.07757
G1 X79.060 Y100.652 E202.10409
G1 X94.302 Y85.410 E203.14643
G1 X94.850 Y85.410 E203.17295
G1 X79.060 Y101.200 E204.25279
G1 X79.060 Y101.748 E204.27930
G1 X95.398 Y85.410 E205.39664
G1 X95.947 Y85.410 E205.42316
G1 X79.060 Y102.297 E206.57800
G1 X79.060 Y102.845 E206.60451
G1 X96.495 Y85.410 E207.79685
G1 X97.043 Y85.410 E207.82337
G1 X79.060 Y103.393 E209.05320
G1 X79.060 Y103.942 E209.07972
G1 X97.592 Y85.410 E210.34706
G1 X98.140 Y85.410 E210.37357
G1 X79.060 Y104.490 E211.67841
G1 X79.060 Y105.038 E211.70492
G1 X98.688 Y85.410 E213.04726
G1 X99.237 Y85.410 E213.07377
G1 X79.060 Y105.587 E214.45360
G1 X79.060 Y106.135 E214.48012
G1 X99.785 Y85.410 E215.89745
G1 X100.333 Y85.410 E215.92396
G1 X79.060 Y106.683 E217.37879
G1 X79.060 Y107.232 E217.40531
G1 X100.882 Y85.410 E218.89764
G1 X101.430 Y85.410 E218.92415
G1 X79.060 Y107.780 E220.45398
G1 X79.060 Y108.328 E220.48050
G1 X101.978 Y85.410 E222.04782
G1 X102.527 Y85.410 E222.07434
G1 X79.060 Y108.877 E223.67916
G1 X79.060 Y109.425 E223.70568
G1 X103.075 Y85.410 E225.34800
G1 X103.623 Y85.410 E225.37452
G1 X79.060 Y109.973 E227.05434
G1 X79.060 Y110.522 E227.08086
G1 X104.172 Y85.410 E228.79818
G1 X104.720 Y85.410 E228.82469
G1 X79.060 Y111.070 E230.57951
G1 X79.060 Y111.618 E230.60603
G1 X105.268 Y85.410 E232.39835
G1 X105.816 Y85.410 E232.42486
G1 X79.060 Y112.166 E234.25468
G1 X79.060 Y112.715 E234.28120
G1 X106.365 Y85.410 E236.14851
G1 X106.913 Y85.410 E236.17503
G1 X79.060 Y113.263 E238.07984
G1 X79.060 Y113.811 E238.10636
G1 X107.461 Y85.410 E240.04867
G1 X108.010 Y85.410 E240.07519
G1 X79.060 Y114.360 E242.05500
G1 X79.060 Y114.590 E242.06611
G1 X79.379 Y114.590 E242.08152
G1 X108.558 Y85.410 E244.07705
G1 X109.106 Y85.410 E244.10356
G1 X79.927 Y114.590 E246.09909
G1 X80.476 Y114.590 E246.12561
G1 X109.655 Y85.410 E248.12114
G1 X110.203 Y85.410 E248.14766
G1 X81.024 Y114.590 E250.14319
G1 X81.572 Y114.590 E250.16970
G1 X110.751 Y85.410 E252.16523
G1 X111.300 Y85.410 E252.19175
G1 X82.120 Y114.590 E254.18728
G1 X82.669 Y114.590 E254.21380
G1 X111.848 Y85.410 E256.20933
G1 X112.396 Y85.410 E256.23584
G1 X83.217 Y114.590 E258.23138
G1 X83.765 Y114.590 E258.25789
G1 X112.945 Y85.410 E260.25342
G1 X113.493 Y85.410 E260.27994
G1 X84.314 Y114.590 E262.27547
G1 X84.862 Y114.590 E262.30199
G1 X114.041 Y85.410 E264.29752
G1 X114.590 Y85.410 E264.32403
G1 X85.410 Y114.590 E266.31956
G1 X85.959 Y114.590 E266.34608
G1 X115.138 Y85.410 E268.34161
G1 X115.686 Y85.410 E268.36813
G1 X86.507 Y114.590 E270.36366
G1 X87.055 Y114.590 E270.39017
G1 X116.234 Y85.410 E272.38570
G1 X116.783 Y85.410 E272.41222
G1 X87.604 Y114.590 E274.40775
G1 X88.152 Y114.590 E274.43427
G1 X117.331 Y85.410 E276.42980
G1 X117.879 Y85.410 E276.45631
G1 X88.700 Y114.590 E278.45184
G1 X89.249 Y114.590 E278.47836
G1 X118.428 Y85.410 E280.47389
G1 X118.976 Y85.410 E280.50041
G1 X89.797 Y114.590 E282.49594
G1 X90.345 Y114.590 E282.52245
G1 X119.524 Y85.410 E284.51798
G1 X120.073 Y85.410 E284.54450
G1 X90.894 Y114.590 E286.54003
G1 X91.442 Y114.590 E286.56655
G1 X120.621 Y85.410 E288.56208
G1 X120.940 Y85.410 E288.57748
G1 X120.940 Y85.640 E288.58859
G1 X91.990 Y114.590 E290.56841
G1 X92.539 Y114.590 E290.59493
G1 X120.940 Y86.189 E292.53725
G1 X120.940 Y86.737 E292.56376
G1 X93.087 Y114.590 E294.46858
G1 X93.635 Y114.590 E294.49510
G1 X120.940 Y87.285 E296.36242
G1 X120.940 Y87.833 E296.38893
G1 X94.183 Y114.590 E298.21876
G1 X94.732 Y114.590 E298.24527
G1 X120.940 Y88.382 E300.03760
G1 X120.940 Y88.930 E300.06411
G1 X95.280 Y114.590 E301.81894
G1 X95.828 Y114.590 E301.84545
G1 X120.940 Y89.478 E303.56278
G1 X120.940 Y90.027 E303.58929
G1 X96.377 Y114.590 E305.26912
G1 X96.925 Y114.590 E305.29564
G1 X120.940 Y90.575 E306.93797
G1 X120.940 Y91.123 E306.96448
G1 X97.473 Y114.590 E308.56931
G1 X98.022 Y114.590 E308.59583
G1 X120.940 Y91.672 E310.16316
G1 X120.940 Y92.220 E310.18968
G1 X98.570 Y114.590 E311.71951
G1 X99.118 Y114.590 E311.74602
G1 X120.940 Y92.768 E313.23836
G1 X120.940 Y93.317 E313.26487
G1 X99.667 Y114.590 E314.71971
G1 X100.215 Y114.590 E314.74622
G1 X120.940 Y93.865 E316.16356
G1 X120.940 Y94.413 E316.19007
G1 X100.763 Y114.590 E317.56991
G1 X101.312 Y114.590 E317.59643
G1 X120.940 Y94.962 E318.93877
G1 X120.940 Y95.510 E318.96528
G1 X101.860 Y114.590 E320.27012
G1 X102.408 Y114.590 E320.29664
G1 X120.940 Y96.058 E321.56398
G1 X120.940 Y96.607 E321.59049
G1 X102.957 Y114.590 E322.82034
G1 X103.505 Y114.590 E322.84685
G1 X120.940 Y97.155 E324.03919
G1 X120.940 Y97.703 E324.06571
G1 X104.053 Y114.590 E325.22055
G1 X104.601 Y114.590 E325.24707
G1 X120.940 Y98.251 E326.36442
G1 X120.940 Y98.800 E326.39093
G1 X105.150 Y114.590 E327.47078
G1 X105.698 Y114.590 E327.49729
G1 X120.940 Y99.348 E328.53964
G1 X120.940 Y99.896 E328.56616
G1 X106.246 Y114.590 E329.57101
G1 X106.795 Y114.590 E329.59752
G1 X120.940 Y100.445 E330.56487
G1 X120.940 Y100.993 E330.59139
G1 X107.343 Y114.590 E331.52124
G1 X107.891 Y114.590 E331.54776
G1 X120.940 Y101.541 E332.44011
G1 X120.940 Y102.090 E332.46663
G1 X108.440 Y114.590 E333.32148
G1 X108.988 Y114.590 E333.34800
G1 X120.940 Y102.638 E334.16535
G1 X120.940 Y103.186 E334.19187
G1 X109.536 Y114.590 E334.97172
G1 X110.085 Y114.590 E334.99824
G1 X120.940 Y103.735 E335.74060
G1 X120.940 Y104.283 E335.76711
G1 X110.633 Y114.590 E336.47197
G1 X111.181 Y114.590 E336.49849
G1 X120.940 Y104.831 E337.16585
G1 X120.940 Y105.380 E337.19236
G1 X111.730 Y114.590 E337.82223
G1 X112.278 Y114.590 E337.84874
G1 X120.940 Y105.928 E338.44110
G1 X120.940 Y106.476 E338.46762
G1 X112.826 Y114.590 E339.02248
G1 X113.375 Y114.590 E339.04900
G1 X120.940 Y107.025 E339.56636
G1 X120.940 Y107.573 E339.59288
G1 X113.923 Y114.590 E340.07275
G1 X114.471 Y114.590 E340.09926
G1 X120.940 Y108.121 E340.54163
G1 X120.940 Y108.669 E340.56815
G1 X115.019 Y114.590 E340.97301
G1 X115.568 Y114.590 E340.99953
G1 X120.940 Y109.218 E341.36690
G1 X120.940 Y109.766 E341.39342
G1 X116.116 Y114.590 E341.72329
G1 X116.664 Y114.590 E341.74980
G1 X120.940 Y110.314 E342.04218
G1 X120.940 Y110.863 E342.06869
G1 X117.213 Y114.590 E342.32356
G1 X117.761 Y114.590 E342.35008
G1 X120.940 Y111.411 E342.56746
G1 X120.940 Y111.959 E342.59397
G1 X118.309 Y114.590 E342.77385
G1 X118.858 Y114.590 E342.80036
G1 X120.940 Y112.508 E342.94274
G1 X120.940 Y113.056 E342.96926
G1 X119.406 Y114.590 E343.07413
G1 X119.954 Y114.590 E343.10065
G1 X120.940 Y113.604 E343.16803
G1 X120.940 Y114.153 E343.19455
G1 X120.329 Y114.763 E343.23629
G1 Z0.950 F7800.000
G1 X121.229 Y114.879
G1 F3600.000
G1 X78.771 Y114.879 E345.27836
G1 X78.771 Y85.121 E346.70959
G1 X121.229 Y85.121 E348.75165
G1 X121.229 Y114.819 E350.18000
G1 X121.614 Y115.264 F7800.000
G1 F3600.000
G1 X78.386 Y115.264 E352.25916
G1 X78.386 Y84.736 E353.72749
G1 X121.614 Y84.736 E355.80664
G1 X121.614 Y115.204 E357.27209
G1 X122.000 Y115.650 F7800.000
