; generated by PrusaSlicer 2.2.0+win64 on 2020-06-11 at 01:55:02 UTC

; 

; external perimeters extrusion width = 0.45mm
; perimeters extrusion width = 0.45mm
; infill extrusion width = 0.45mm
; solid infill extrusion width = 0.45mm
; top infill extrusion width = 0.40mm
; first layer extrusion width = 0.70mm

M107
M190 S50 ; set bed temperature and wait for it to be reached
M104 S190 ; set temperature
G28 ; home all axes
G1 Z5 F5000 ; lift nozzle
M109 S190 ; set temperature and wait for it to be reached
G21 ; set units to millimeters
G90 ; use absolute coordinates
M82 ; use absolute distances for extrusion
G92 E0
; Filament gcode
G1 Z0.350 F7800.000
G1 E-2.00000 F2400.00000
G92 E0
G1 X86.942 Y84.413 F7800.000
G1 E2.00000 F2400.00000
G1 F1800.000
G1 X89.020 Y82.679 E2.24608
G1 X90.776 Y81.465 E2.44018
G1 X92.648 Y80.400 E2.63602
G1 X95.196 Y79.251 E2.89018
G1 X97.474 Y78.492 E3.10855
G1 X100.229 Y77.890 E3.36496
G1 X107.928 Y77.851 E4.06504
G1 X109.098 Y77.956 E4.17187
G1 X111.225 Y78.447 E4.37034
G1 X113.604 Y79.224 E4.59793
G1 X115.982 Y80.272 E4.83420
G1 X118.182 Y81.519 E5.06413
G1 X120.133 Y82.886 E5.28077
G1 X122.140 Y84.615 E5.52165
G1 X123.829 Y86.386 E5.74418
G1 X125.148 Y88.030 E5.93583
G1 X126.322 Y89.790 E6.12819
G1 X127.620 Y92.172 E6.37484
G1 X128.639 Y94.645 E6.61804
G1 X129.353 Y97.032 E6.84461
G1 X129.782 Y99.102 E7.03684
G1 X130.033 Y101.247 E7.23325
G1 X130.101 Y103.927 E7.47702
G1 X129.915 Y105.412 E7.61307
G1 X129.656 Y106.323 E7.69922
G1 X129.285 Y107.200 E7.78577
G1 X128.316 Y108.705 E7.94857
G1 X127.524 Y109.539 E8.05311
G1 X126.609 Y110.256 E8.15880
G1 X125.579 Y110.841 E8.26653
G1 X124.530 Y111.246 E8.36876
G1 X107.672 Y115.769 E9.95591
G1 X106.138 Y116.067 E10.09800
G1 X104.584 Y116.178 E10.23963
G1 X102.820 Y116.078 E10.40029
G1 X101.228 Y115.775 E10.54770
G1 X84.553 Y111.309 E12.11737
G1 X83.056 Y110.721 E12.26361
G1 X82.299 Y110.280 E12.34325
G1 X81.588 Y109.747 E12.42403
G1 X80.643 Y108.806 E12.54526
G1 X79.909 Y107.785 E12.65967
G1 X79.331 Y106.624 E12.77760
G1 X78.970 Y105.466 E12.88790
G1 X78.807 Y104.445 E12.98193
G1 X78.770 Y103.619 E13.05705
G1 X78.820 Y101.477 E13.25190
G1 X79.080 Y99.179 E13.46219
G1 X79.674 Y96.441 E13.71693
G1 X80.321 Y94.394 E13.91218
G1 X81.231 Y92.219 E14.12652
G1 X82.536 Y89.812 E14.37548
G1 X83.728 Y88.027 E14.57074
G1 X85.088 Y86.332 E14.76832
G1 X86.900 Y84.456 E15.00548
G1 E13.00548 F2400.00000
G92 E0
G1 X99.594 Y104.410 F7800.000
G1 E2.00000 F2400.00000
G1 F1800.000
G1 X99.457 Y104.258 E2.01859
G1 X99.366 Y104.221 E2.02755
G1 X99.078 Y104.008 E2.06009
G1 X98.831 Y103.702 E2.09588
G1 X98.706 Y103.926 E2.11920
G1 X98.418 Y104.179 E2.15408
G1 X98.140 Y104.299 E2.18155
G1 X97.907 Y104.438 E2.20622
G1 X97.590 Y104.366 E2.23586
G1 X97.273 Y104.214 E2.26779
G1 X96.982 Y103.999 E2.30066
G1 X96.763 Y103.674 E2.33631
G1 X96.622 Y103.926 E2.36251
G1 X96.334 Y104.179 E2.39739
G1 X96.057 Y104.299 E2.42486
G1 X95.824 Y104.438 E2.44953
G1 X95.506 Y104.366 E2.47917
G1 X95.190 Y104.214 E2.51110
G1 X94.899 Y103.999 E2.54398
G1 X94.679 Y103.674 E2.57962
G1 X94.539 Y103.926 E2.60582
G1 X94.251 Y104.179 E2.64070
G1 X93.974 Y104.299 E2.66818
G1 X93.741 Y104.438 E2.69285
G1 X93.423 Y104.366 E2.72249
G1 X93.106 Y104.214 E2.75442
G1 X92.816 Y103.999 E2.78729
G1 X92.596 Y103.674 E2.82294
G1 X92.456 Y103.926 E2.84914
G1 X92.168 Y104.179 E2.88402
G1 X91.890 Y104.299 E2.91149
G1 X91.657 Y104.438 E2.93616
G1 X91.340 Y104.366 E2.96580
G1 X91.023 Y104.214 E2.99773
G1 X90.732 Y103.999 E3.03060
G1 X90.513 Y103.674 E3.06625
G1 X90.372 Y103.926 E3.09245
G1 X90.090 Y104.175 E3.12666
G1 X89.853 Y104.289 E3.15058
G1 X89.644 Y104.492 E3.17710
G1 X88.927 Y104.416 E3.24267
G1 X88.682 Y104.272 E3.26853
G1 X88.379 Y103.975 E3.30708
G1 X88.254 Y103.761 E3.32966
G1 X88.178 Y103.544 E3.35056
G1 X88.138 Y103.319 E3.37135
G1 X88.137 Y103.091 E3.39205
G1 X88.177 Y102.865 E3.41293
G1 X88.253 Y102.649 E3.43378
G1 X88.376 Y102.434 E3.45628
G1 X88.682 Y102.130 E3.49544
G1 X88.925 Y101.997 E3.52066
G1 X89.329 Y101.935 E3.55782
G1 X89.624 Y101.926 E3.58473
G1 X89.843 Y102.115 E3.61105
G1 X90.076 Y102.227 E3.63456
G1 X90.247 Y102.354 E3.65386
G1 X90.504 Y102.672 E3.69103
G1 X90.877 Y102.282 E3.74005
G1 X91.331 Y102.045 E3.78663
G1 X91.764 Y101.938 E3.82719
G1 X91.847 Y102.092 E3.84311
G1 X92.153 Y102.222 E3.87333
G1 X92.330 Y102.354 E3.89340
G1 X92.587 Y102.672 E3.93057
G1 X92.960 Y102.282 E3.97959
G1 X93.414 Y102.045 E4.02616
G1 X93.847 Y101.938 E4.06673
G1 X93.930 Y102.092 E4.08265
G1 X94.236 Y102.222 E4.11287
G1 X94.414 Y102.354 E4.13294
G1 X94.670 Y102.672 E4.17011
G1 X95.043 Y102.282 E4.21913
G1 X95.497 Y102.045 E4.26570
G1 X95.930 Y101.938 E4.30626
G1 X96.014 Y102.092 E4.32219
G1 X96.320 Y102.222 E4.35241
G1 X96.497 Y102.354 E4.37248
G1 X96.754 Y102.672 E4.40964
G1 X97.127 Y102.282 E4.45866
G1 X97.581 Y102.045 E4.50524
G1 X98.014 Y101.938 E4.54580
G1 X98.097 Y102.092 E4.56173
G1 X98.403 Y102.222 E4.59195
G1 X98.568 Y102.345 E4.61065
G1 X98.859 Y102.648 E4.64890
G1 X99.212 Y102.281 E4.69524
G1 X99.447 Y102.162 E4.71914
G1 X99.591 Y102.002 E4.73871
G1 X99.884 Y101.924 E4.76632
G1 X100.334 Y101.963 E4.80738
G1 X100.580 Y102.057 E4.83130
G1 X100.772 Y102.198 E4.85294
G1 X100.933 Y102.353 E4.87330
G1 X101.068 Y102.545 E4.89462
G1 X101.163 Y102.756 E4.91566
G1 X101.221 Y102.976 E4.93639
G1 X101.241 Y103.204 E4.95720
G1 X101.221 Y103.432 E4.97802
G1 X101.163 Y103.653 E4.99875
G1 X101.068 Y103.864 E5.01978
G1 X100.933 Y104.055 E5.04110
G1 X100.772 Y104.211 E5.06146
G1 X100.580 Y104.352 E5.08311
G1 X100.336 Y104.445 E5.10689
G1 X99.909 Y104.485 E5.14581
G1 X99.652 Y104.424 E5.16984
G1 X99.412 Y104.503 F7800.000
G1 E3.16984 F2400.00000
G92 E0
G1 X118.154 Y100.493 F7800.000
G1 E2.00000 F2400.00000
G1 F1800.000
G1 X116.635 Y100.868 E2.14222
G1 X116.353 Y101.016 E2.17121
G1 X116.070 Y100.493 E2.22523
G1 X114.552 Y100.868 E2.36745
G1 X114.269 Y101.016 E2.39644
G1 X113.987 Y100.493 E2.45046
G1 X112.468 Y100.868 E2.59268
G1 X112.186 Y101.016 E2.62167
G1 X111.903 Y100.493 E2.67569
G1 X110.385 Y100.868 E2.81791
G1 X110.028 Y101.055 E2.85457
G1 X109.573 Y100.662 E2.90917
G1 X108.715 Y100.688 E2.98729
G1 X108.016 Y100.795 E3.05157
G1 X107.426 Y101.120 E3.11285
G1 X106.875 Y101.666 E3.18337
G1 X106.613 Y102.126 E3.23149
G1 X106.464 Y102.547 E3.27208
G1 X106.389 Y102.977 E3.31179
G1 X106.388 Y103.431 E3.35311
G1 X106.464 Y103.862 E3.39291
G1 X106.610 Y104.275 E3.43275
G1 X106.870 Y104.741 E3.48124
G1 X107.401 Y105.263 E3.54895
G1 X108.010 Y105.638 E3.61397
G1 X109.616 Y105.799 E3.76068
G1 X110.042 Y105.370 E3.81571
G1 X110.425 Y105.554 E3.85435
G1 X111.358 Y105.766 E3.94133
G1 X111.364 Y106.059 E3.96801
G1 X105.671 Y107.584 E4.50386
G1 X105.030 Y107.712 E4.56331
G1 X104.437 Y107.751 E4.61738
G1 X103.843 Y107.712 E4.67146
G1 X103.202 Y107.584 E4.73090
G1 X96.155 Y105.696 E5.39427
G1 X96.628 Y105.414 E5.44432
G1 X96.763 Y105.356 E5.45771
G1 X97.175 Y105.554 E5.49930
G1 X98.118 Y105.768 E5.58723
G1 X98.780 Y105.373 E5.65730
G1 X98.926 Y105.535 E5.67711
G1 X99.820 Y105.749 E5.76071
G1 X100.622 Y105.674 E5.83393
G1 X101.184 Y105.459 E5.88864
G1 X101.580 Y105.167 E5.93338
G1 X101.886 Y104.872 E5.97205
G1 X102.157 Y104.487 E6.01487
G1 X102.345 Y104.072 E6.05628
G1 X102.457 Y103.647 E6.09629
G1 X102.495 Y103.204 E6.13666
G1 X102.457 Y102.762 E6.17704
G1 X102.345 Y102.336 E6.21704
G1 X102.157 Y101.921 E6.25846
G1 X101.886 Y101.537 E6.30127
G1 X101.580 Y101.241 E6.33994
G1 X101.184 Y100.949 E6.38468
G1 X100.616 Y100.733 E6.44000
G1 X99.774 Y100.661 E6.51682
G1 X98.873 Y100.900 E6.60154
G1 X98.653 Y100.493 E6.64360
G1 X97.135 Y100.868 E6.78582
G1 X96.853 Y101.016 E6.81481
G1 X96.570 Y100.493 E6.86883
G1 X95.052 Y100.868 E7.01105
G1 X94.769 Y101.016 E7.04004
G1 X94.487 Y100.493 E7.09406
G1 X92.968 Y100.868 E7.23628
G1 X92.686 Y101.016 E7.26527
G1 X92.403 Y100.493 E7.31929
G1 X90.885 Y100.868 E7.46151
G1 X90.528 Y101.055 E7.49816
G1 X90.073 Y100.662 E7.55277
G1 X89.215 Y100.688 E7.63089
G1 X88.516 Y100.795 E7.69517
G1 X87.926 Y101.120 E7.75645
G1 X87.543 Y101.500 E7.80551
G1 X87.304 Y101.384 E7.82967
G1 X87.411 Y100.445 E7.91565
G1 X87.746 Y98.853 E8.06352
G1 X88.230 Y97.301 E8.21139
G1 X88.858 Y95.801 E8.35926
G1 X89.625 Y94.367 E8.50713
G1 X90.523 Y93.011 E8.65500
G1 X91.545 Y91.746 E8.80287
G1 X92.681 Y90.583 E8.95074
G1 X93.922 Y89.532 E9.09861
G1 X95.256 Y88.602 E9.24648
G1 X96.672 Y87.802 E9.39435
G1 X98.074 Y87.177 E9.53390
G1 X99.746 Y86.604 E9.69461
G1 X100.099 Y87.211 E9.75852
G1 X100.694 Y87.916 E9.84236
G1 X101.401 Y88.507 E9.92620
G1 X102.201 Y88.967 E10.01005
G1 X103.068 Y89.281 E10.09389
G1 X103.976 Y89.441 E10.17773
G1 X104.898 Y89.441 E10.26158
G1 X105.806 Y89.281 E10.34542
G1 X106.673 Y88.967 E10.42926
G1 X107.472 Y88.507 E10.51310
G1 X108.180 Y87.916 E10.59695
G1 X108.774 Y87.211 E10.68079
G1 X109.128 Y86.604 E10.74471
G1 X110.716 Y87.140 E10.89713
G1 X112.201 Y87.802 E11.04500
G1 X113.617 Y88.602 E11.19287
G1 X114.951 Y89.532 E11.34074
G1 X116.192 Y90.583 E11.48861
G1 X117.329 Y91.746 E11.63648
G1 X118.351 Y93.011 E11.78435
G1 X119.249 Y94.367 E11.93222
G1 X120.015 Y95.801 E12.08009
G1 X120.643 Y97.301 E12.22796
G1 X121.127 Y98.853 E12.37583
G1 X121.463 Y100.445 E12.52370
G1 X121.612 Y101.756 E12.64369
G1 X121.080 Y101.241 E12.71101
G1 X120.684 Y100.949 E12.75574
G1 X120.116 Y100.733 E12.81107
G1 X119.274 Y100.661 E12.88789
G1 X118.373 Y100.900 E12.97260
G1 X118.182 Y100.546 E13.00921
G1 E11.00921 F2400.00000
G92 E0
G1 X112.774 Y105.681 F7800.000
G1 E2.00000 F2400.00000
G1 F1800.000
G1 X111.632 Y105.987 E2.10756
G1 X111.505 Y105.687 E2.13724
G1 X111.961 Y105.414 E2.18559
G1 X112.096 Y105.356 E2.19898
G1 X112.720 Y105.655 E2.26191
G1 E0.26191 F2400.00000
G92 E0
G1 X117.834 Y101.216 F7800.000
G1 E2.00000 F2400.00000
G1 F1800.000
G1 X116.858 Y101.457 E2.09139
G1 X116.258 Y101.770 E2.15289
G1 X116.132 Y101.676 E2.16721
G1 X115.960 Y101.603 E2.18424
G1 X115.750 Y101.216 E2.22427
G1 X114.775 Y101.457 E2.31566
G1 X114.175 Y101.770 E2.37716
G1 X114.049 Y101.676 E2.39148
G1 X113.876 Y101.603 E2.40851
G1 X113.667 Y101.216 E2.44854
G1 X112.691 Y101.457 E2.53993
G1 X112.092 Y101.770 E2.60143
G1 X111.965 Y101.676 E2.61575
G1 X111.793 Y101.603 E2.63278
G1 X111.584 Y101.216 E2.67281
G1 X110.608 Y101.457 E2.76420
G1 X110.008 Y101.770 E2.82570
G1 X109.901 Y101.690 E2.83789
G1 X109.689 Y101.588 E2.85922
G1 X109.349 Y101.294 E2.90014
G1 X108.772 Y101.311 E2.95266
G1 X108.220 Y101.396 E3.00337
G1 X107.804 Y101.625 E3.04663
G1 X107.376 Y102.050 E3.10146
G1 X107.183 Y102.387 E3.13677
G1 X107.070 Y102.706 E3.16749
G1 X107.013 Y103.031 E3.19753
G1 X107.013 Y103.377 E3.22900
G1 X107.070 Y103.703 E3.25909
G1 X107.181 Y104.017 E3.28935
G1 X107.372 Y104.358 E3.32489
G1 X107.789 Y104.768 E3.37803
G1 X108.215 Y105.030 E3.42358
G1 X109.382 Y105.147 E3.53019
G1 X109.723 Y104.804 E3.57423
G1 X110.054 Y104.644 E3.60759
G1 X110.199 Y104.752 E3.62401
G1 X110.632 Y104.960 E3.66772
G1 X111.263 Y105.103 E3.72651
G1 X111.676 Y104.857 E3.77023
G1 X112.006 Y104.714 E3.80299
G1 X112.109 Y104.624 E3.81541
G1 X112.282 Y104.752 E3.83503
G1 X112.716 Y104.960 E3.87874
G1 X113.346 Y105.103 E3.93753
G1 X113.759 Y104.857 E3.98126
G1 X114.090 Y104.714 E4.01401
G1 X114.192 Y104.624 E4.02643
G1 X114.366 Y104.752 E4.04605
G1 X114.799 Y104.960 E4.08977
G1 X115.429 Y105.103 E4.14855
G1 X115.842 Y104.857 E4.19228
G1 X116.173 Y104.714 E4.22504
G1 X116.276 Y104.624 E4.23745
G1 X116.449 Y104.752 E4.25708
G1 X117.240 Y105.132 E4.33687
G1 X105.813 Y108.193 E5.41255
G1 X105.112 Y108.333 E5.47758
G1 X104.437 Y108.377 E5.53911
G1 X103.762 Y108.333 E5.60063
G1 X103.060 Y108.193 E5.66566
G1 X91.690 Y105.147 E6.73603
G1 X92.176 Y104.857 E6.78749
G1 X92.506 Y104.714 E6.82024
G1 X92.609 Y104.624 E6.83266
G1 X92.782 Y104.752 E6.85228
G1 X93.216 Y104.960 E6.89600
G1 X93.846 Y105.103 E6.95478
G1 X94.259 Y104.857 E6.99851
G1 X94.590 Y104.714 E7.03127
G1 X94.692 Y104.624 E7.04368
G1 X94.866 Y104.752 E7.06331
G1 X95.299 Y104.960 E7.10702
G1 X95.929 Y105.103 E7.16580
G1 X96.342 Y104.857 E7.20953
G1 X96.673 Y104.714 E7.24229
G1 X96.776 Y104.624 E7.25471
G1 X96.949 Y104.752 E7.27433
G1 X97.382 Y104.960 E7.31804
G1 X98.013 Y105.103 E7.37682
G1 X98.426 Y104.857 E7.42055
G1 X98.756 Y104.714 E7.45331
G1 X98.859 Y104.624 E7.46573
G1 X99.090 Y104.784 E7.49129
G1 X99.260 Y104.972 E7.51438
G1 X99.865 Y105.117 E7.57092
G1 X100.479 Y105.059 E7.62699
G1 X100.882 Y104.906 E7.66623
G1 X101.176 Y104.689 E7.69943
G1 X101.409 Y104.463 E7.72895
G1 X101.613 Y104.175 E7.76101
G1 X101.754 Y103.862 E7.79224
G1 X101.839 Y103.539 E7.82260
G1 X101.868 Y103.204 E7.85320
G1 X101.839 Y102.869 E7.88379
G1 X101.754 Y102.546 E7.91416
G1 X101.613 Y102.233 E7.94539
G1 X101.409 Y101.945 E7.97745
G1 X101.176 Y101.719 E8.00697
G1 X100.882 Y101.503 E8.04016
G1 X100.475 Y101.348 E8.07978
G1 X99.829 Y101.293 E8.13872
G1 X99.251 Y101.446 E8.19310
G1 X99.061 Y101.657 E8.21891
G1 X98.840 Y101.768 E8.24143
G1 X98.715 Y101.676 E8.25551
G1 X98.543 Y101.603 E8.27254
G1 X98.334 Y101.216 E8.31258
G1 X97.358 Y101.457 E8.40397
G1 X96.758 Y101.770 E8.46546
G1 X96.632 Y101.676 E8.47978
G1 X96.460 Y101.603 E8.49681
G1 X96.250 Y101.216 E8.53684
G1 X95.275 Y101.457 E8.62823
G1 X94.675 Y101.770 E8.68973
G1 X94.549 Y101.676 E8.70405
G1 X94.376 Y101.603 E8.72108
G1 X94.167 Y101.216 E8.76111
G1 X93.191 Y101.457 E8.85250
G1 X92.592 Y101.770 E8.91400
G1 X92.465 Y101.676 E8.92832
G1 X92.293 Y101.603 E8.94535
G1 X92.084 Y101.216 E8.98538
G1 X91.108 Y101.457 E9.07677
G1 X90.508 Y101.770 E9.13827
G1 X90.401 Y101.690 E9.15046
G1 X90.189 Y101.588 E9.17179
G1 X89.849 Y101.294 E9.21271
G1 X89.272 Y101.311 E9.26523
G1 X88.720 Y101.396 E9.31595
G1 X88.304 Y101.625 E9.35920
G1 X87.876 Y102.050 E9.41404
G1 X87.683 Y102.387 E9.44936
G1 X87.570 Y102.706 E9.48008
G1 X87.512 Y103.038 E9.51072
G1 X87.513 Y103.374 E9.54132
G1 X87.571 Y103.703 E9.57170
G1 X87.707 Y104.087 E9.60873
G1 X86.569 Y103.774 E9.71612
G1 X86.602 Y102.019 E9.87570
G1 X86.793 Y100.345 E10.02893
G1 X87.141 Y98.696 E10.18216
G1 X87.642 Y97.087 E10.33540
G1 X88.293 Y95.532 E10.48863
G1 X89.087 Y94.046 E10.64186
G1 X90.018 Y92.641 E10.79510
G1 X91.077 Y91.330 E10.94833
G1 X92.255 Y90.125 E11.10156
G1 X93.541 Y89.036 E11.25480
G1 X94.923 Y88.073 E11.40803
G1 X96.391 Y87.244 E11.56126
G1 X97.845 Y86.595 E11.70604
G1 X99.529 Y86.018 E11.86791
G1 X100.105 Y85.882 E11.92177
G1 X100.203 Y86.147 E11.94747
G1 X100.612 Y86.850 E12.02141
G1 X101.136 Y87.471 E12.09534
G1 X101.760 Y87.993 E12.16927
G1 X102.465 Y88.398 E12.24320
G1 X103.229 Y88.675 E12.31713
G1 X104.030 Y88.816 E12.39107
G1 X104.843 Y88.816 E12.46500
G1 X105.644 Y88.675 E12.53893
G1 X106.408 Y88.398 E12.61286
G1 X107.113 Y87.993 E12.68680
G1 X107.737 Y87.471 E12.76073
G1 X108.262 Y86.850 E12.83466
G1 X108.670 Y86.147 E12.90859
G1 X108.768 Y85.882 E12.93429
G1 X109.347 Y86.018 E12.98837
G1 X110.944 Y86.557 E13.14161
G1 X112.483 Y87.244 E13.29484
G1 X113.950 Y88.073 E13.44807
G1 X115.333 Y89.036 E13.60131
G1 X116.619 Y90.125 E13.75454
G1 X117.796 Y91.330 E13.90777
G1 X118.855 Y92.641 E14.06101
G1 X119.786 Y94.046 E14.21424
G1 X120.580 Y95.532 E14.36747
G1 X121.231 Y97.087 E14.52071
G1 X121.733 Y98.696 E14.67394
G1 X122.080 Y100.345 E14.82717
G1 X122.271 Y102.019 E14.98041
G1 X122.305 Y103.774 E15.13998
G1 X121.196 Y104.079 E15.24457
G1 X121.338 Y103.541 E15.29511
G1 X121.368 Y103.206 E15.32570
G1 X121.339 Y102.869 E15.35645
G1 X121.254 Y102.546 E15.38683
G1 X121.113 Y102.233 E15.41806
G1 X120.909 Y101.945 E15.45014
G1 X120.676 Y101.719 E15.47966
G1 X120.382 Y101.503 E15.51284
G1 X119.975 Y101.348 E15.55246
G1 X119.329 Y101.293 E15.61141
G1 X118.751 Y101.446 E15.66579
G1 X118.561 Y101.657 E15.69160
G1 X118.340 Y101.768 E15.71411
G1 X118.215 Y101.676 E15.72820
G1 X118.043 Y101.603 E15.74523
G1 X117.862 Y101.268 E15.77981
G1 X117.514 Y101.938 F7800.000
G1 F1800.000
G1 X117.597 Y102.092 E15.79573
G1 X117.903 Y102.222 E15.82595
G1 X118.080 Y102.354 E15.84602
G1 X118.365 Y102.706 E15.88722
G1 X118.557 Y102.422 E15.91842
G1 X118.725 Y102.274 E15.93882
G1 X118.947 Y102.162 E15.96133
G1 X119.091 Y102.002 E15.98090
